;FLAVOR:Marlin
;TIME:923
;Filament used: 0.374973m
;Layer height: 0.1
;MINX:97.15
;MINY:97.177
;MINZ:0.3
;MAXX:122.851
;MAXY:122.823
;MAXZ:5
;Generated with Cura_SteamEngine 4.8.0
M140 S60
M105
M190 S60
M104 S200
M105
M109 S200
M82 ;absolute extrusion mode
G28 ;Home
G1 Z15.0 F6000 ;Move the platform down 15mm
G1 X5 Y-5 F3000
;Prime the extruder
G92 E0
G1 Z2.0 F3000
G1 X15 Y3.5 Z0.3 F5000.0
G1 X175 Y3.5 Z0.3 F1500.0 E20
G1 X175 Y4.5 Z0.3 F5000.0
G1 X85 Y4.5 Z0.3 F1500.0 E30
M420 S1
G92 E0
G92 E0
G92 E0
G1 F1500 E-6.5
;LAYER_COUNT:48
;LAYER:0
M107
G0 F3600 X101.485 Y100.328 Z0.3
;TYPE:SKIRT
G1 F1500 E0
G1 F1350 X102.118 Y99.744 E0.04297
G1 X102.57 Y99.406 E0.07113
G1 X102.709 Y99.308 E0.07961
G1 X103.466 Y98.879 E0.12302
G1 X104.349 Y98.489 E0.17118
G1 X104.455 Y98.444 E0.17692
G1 X105.774 Y97.856 E0.24897
G1 X106.119 Y97.699 E0.26788
G1 X106.675 Y97.49 E0.29752
G1 X107.359 Y97.324 E0.33263
G1 X107.641 Y97.265 E0.34701
G1 X108.229 Y97.186 E0.37661
G1 X108.537 Y97.177 E0.39198
G1 X109.726 Y97.182 E0.4513
G1 X110.488 Y97.182 E0.48931
G1 X111.463 Y97.178 E0.53796
G1 X112.322 Y97.259 E0.581
G1 X113.041 Y97.411 E0.61767
G1 X113.851 Y97.683 E0.6603
G1 X115.122 Y98.252 E0.72977
G1 X115.188 Y98.275 E0.73326
G1 X115.964 Y98.63 E0.77583
G1 X116.512 Y98.871 E0.8057
G1 X117.273 Y99.299 E0.84926
G1 X117.731 Y99.626 E0.87733
G1 X117.907 Y99.761 E0.8884
G1 X118.508 Y100.318 E0.92928
G1 X119.208 Y101.1 E0.98164
G1 X119.468 Y101.365 E1.00016
G1 X120.273 Y102.281 E1.061
G1 X120.437 Y102.461 E1.07315
G1 X120.959 Y103.16 E1.11668
G1 X121.342 Y103.815 E1.15453
G1 X121.409 Y103.945 E1.16183
G1 X121.686 Y104.613 E1.19791
G1 X122.009 Y105.621 E1.25071
G1 X122.478 Y107.061 E1.32627
G1 X122.572 Y107.34 E1.34096
G1 X122.723 Y107.914 E1.37057
G1 X122.824 Y108.664 E1.40832
G1 X122.851 Y108.949 E1.42261
G1 X122.842 Y109.805 E1.46532
G1 X122.697 Y111.143 E1.53246
G1 X122.543 Y112.673 E1.60918
G1 X122.37 Y113.526 E1.6526
G1 X122.185 Y114.127 E1.68397
G1 X121.973 Y114.681 E1.71357
G1 X121.781 Y115.049 E1.73427
G1 X121.088 Y116.238 E1.80293
G1 X120.414 Y117.413 E1.87051
G1 X120.347 Y117.533 E1.87737
G1 X120.023 Y118.029 E1.90693
G1 X119.529 Y118.613 E1.94509
G1 X119.274 Y118.885 E1.96369
G1 X118.68 Y119.4 E2.00291
G1 X117.713 Y120.099 E2.06244
G1 X116.319 Y121.118 E2.14859
G1 X115.567 Y121.56 E2.19211
G1 X114.921 Y121.849 E2.22741
G1 X114.09 Y122.11 E2.27087
G1 X112.868 Y122.364 E2.33314
G1 X111.565 Y122.644 E2.39963
G1 X111.271 Y122.71 E2.41466
G1 X110.685 Y122.801 E2.44425
G1 X109.942 Y122.823 E2.48133
G1 X109.6 Y122.819 E2.4984
G1 X108.781 Y122.721 E2.53955
G1 X107.48 Y122.441 E2.60594
G1 X105.885 Y122.104 E2.68727
G1 X105.06 Y121.842 E2.73046
G1 X104.467 Y121.578 E2.76284
G1 X104.179 Y121.433 E2.77893
G1 X103.699 Y121.129 E2.80727
G1 X102.692 Y120.397 E2.86938
G1 X102.524 Y120.285 E2.87946
G1 X101.648 Y119.634 E2.93391
G1 X101.337 Y119.411 E2.953
G1 X100.687 Y118.842 E2.9961
G1 X100.277 Y118.397 E3.02629
G1 X100.158 Y118.258 E3.03542
G1 X99.685 Y117.588 E3.07633
G1 X99.112 Y116.59 E3.13375
G1 X98.948 Y116.326 E3.14925
G1 X98.453 Y115.447 E3.19958
G1 X98.229 Y115.065 E3.22167
G1 X97.864 Y114.271 E3.26527
G1 X97.641 Y113.595 E3.30079
G1 X97.464 Y112.737 E3.34449
G1 X97.341 Y111.55 E3.40403
G1 X97.307 Y111.31 E3.41612
G1 X97.207 Y110.251 E3.46919
G1 X97.162 Y109.855 E3.48907
G1 X97.15 Y108.983 E3.53258
G1 X97.2 Y108.432 E3.56019
G1 X97.224 Y108.234 E3.57014
G1 X97.41 Y107.395 E3.61301
G1 X97.816 Y106.155 E3.67811
G1 X97.889 Y105.942 E3.68934
G1 X98.309 Y104.632 E3.75797
G1 X98.639 Y103.864 E3.79968
G1 X98.882 Y103.42 E3.82493
G1 X99.043 Y103.148 E3.8407
G1 X99.537 Y102.487 E3.88187
G1 X100.377 Y101.56 E3.94428
G1 X100.482 Y101.423 E3.95289
G1 X101.298 Y100.538 E4.01295
G1 X101.485 Y100.328 E4.02697
G0 F3600 X101.783 Y100.594
G1 F1350 X102.359 Y100.063 E4.06606
G1 X102.8 Y99.733 E4.09354
G1 X102.939 Y99.635 E4.10202
G1 X103.628 Y99.245 E4.14152
G1 X104.63 Y98.804 E4.19614
G1 X105.909 Y98.234 E4.266
G1 X106.285 Y98.063 E4.28661
G1 X107.052 Y97.804 E4.327
G1 X107.721 Y97.657 E4.36117
G1 X108.535 Y97.577 E4.40197
G1 X109.724 Y97.582 E4.46129
G1 X110.49 Y97.582 E4.49951
G1 X111.465 Y97.578 E4.54815
G1 X112.246 Y97.652 E4.58729
G1 X112.951 Y97.801 E4.62324
G1 X113.687 Y98.048 E4.66197
G1 X114.898 Y98.59 E4.72817
G1 X115.022 Y98.638 E4.7348
G1 X115.817 Y99.002 E4.77842
G1 X116.352 Y99.237 E4.80757
G1 X117.043 Y99.627 E4.84716
G1 X117.487 Y99.943 E4.87435
G1 X117.663 Y100.078 E4.88542
G1 X118.21 Y100.584 E4.92259
G1 X118.973 Y101.437 E4.97969
G1 X119.167 Y101.629 E4.99331
G1 X119.975 Y102.548 E5.05436
G1 X120.142 Y102.731 E5.06672
G1 X120.616 Y103.366 E5.10625
G1 X120.987 Y103.999 E5.14285
G1 X121.054 Y104.129 E5.15015
G1 X121.306 Y104.735 E5.18289
G1 X121.589 Y105.614 E5.22896
G1 X121.616 Y105.704 E5.23365
G1 X122.099 Y107.189 E5.31156
G1 X122.193 Y107.468 E5.32625
G1 X122.373 Y108.265 E5.36701
G1 X122.441 Y108.845 E5.39615
G1 X122.453 Y108.983 E5.40306
G1 X122.445 Y109.762 E5.44192
G1 X122.296 Y111.134 E5.51078
G1 X122.145 Y112.633 E5.58594
G1 X121.988 Y113.409 E5.62544
G1 X121.803 Y114.01 E5.65681
G1 X121.599 Y114.537 E5.685
G1 X121.436 Y114.848 E5.70252
G1 X120.727 Y116.064 E5.77275
G1 X119.998 Y117.337 E5.84593
G1 X119.528 Y118.004 E5.88664
G1 X119.09 Y118.5 E5.91966
G1 X118.986 Y118.608 E5.92714
G1 X118.446 Y119.076 E5.96279
G1 X117.477 Y119.776 E6.02242
G1 X116.083 Y120.795 E6.10857
G1 X115.4 Y121.197 E6.14811
G1 X114.764 Y121.481 E6.18286
G1 X114.009 Y121.718 E6.22234
G1 X112.784 Y121.973 E6.28477
G1 X111.481 Y122.253 E6.35126
G1 X111.183 Y122.32 E6.36649
G1 X110.371 Y122.416 E6.40729
G1 X109.773 Y122.423 E6.43712
G1 X109.61 Y122.419 E6.44526
G1 X108.865 Y122.33 E6.48269
G1 X107.563 Y122.05 E6.54913
G1 X105.968 Y121.713 E6.63046
G1 X105.217 Y121.475 E6.66977
G1 X104.634 Y121.215 E6.70162
G1 X104.371 Y121.082 E6.71632
G1 X103.934 Y120.805 E6.74213
G1 X102.856 Y120.021 E6.80863
G1 X102.763 Y119.964 E6.81408
G1 X101.898 Y119.321 E6.86785
G1 X101.57 Y119.086 E6.88798
G1 X100.979 Y118.568 E6.92719
G1 X100.58 Y118.136 E6.95652
G1 X100.461 Y117.997 E6.96565
G1 X100.032 Y117.389 E7.00278
G1 X99.382 Y116.257 E7.0679
G1 X99.297 Y116.13 E7.07553
G1 X98.819 Y115.281 E7.12413
G1 X98.574 Y114.863 E7.14831
G1 X98.242 Y114.141 E7.18795
G1 X98.023 Y113.476 E7.22288
G1 X97.862 Y112.696 E7.26262
G1 X97.728 Y111.402 E7.32752
G1 X97.705 Y111.273 E7.33406
G1 X97.6 Y110.158 E7.38993
G1 X97.56 Y109.81 E7.40741
G1 X97.549 Y109.017 E7.44697
G1 X97.597 Y108.48 E7.47387
G1 X97.621 Y108.282 E7.48382
G1 X97.79 Y107.519 E7.52281
G1 X98.195 Y106.285 E7.58761
G1 X98.264 Y106.084 E7.59821
G1 X98.69 Y104.755 E7.66784
G1 X98.99 Y104.056 E7.70579
G1 X99.233 Y103.612 E7.73104
G1 X99.384 Y103.356 E7.74587
G1 X99.833 Y102.756 E7.78325
G1 X100.597 Y101.913 E7.84001
G1 X100.776 Y101.695 E7.85409
G1 X101.549 Y100.857 E7.91096
G1 X101.783 Y100.594 E7.92853
G0 F3600 X102.082 Y100.86
G1 F1350 X102.6 Y100.382 E7.96369
G1 X103.031 Y100.06 E7.99053
G1 X103.17 Y99.962 E7.99902
G1 X103.79 Y99.611 E8.03456
G1 X104.767 Y99.181 E8.08782
G1 X106.099 Y98.587 E8.16058
G1 X106.451 Y98.427 E8.17987
G1 X107.141 Y98.194 E8.2162
G1 X107.801 Y98.049 E8.24992
G1 X108.533 Y97.977 E8.28661
G1 X109.722 Y97.982 E8.34593
G1 X110.491 Y97.982 E8.3843
G1 X111.466 Y97.978 E8.43294
G1 X112.169 Y98.044 E8.46817
G1 X112.862 Y98.191 E8.50351
G1 X113.524 Y98.413 E8.53835
G1 X114.788 Y98.979 E8.60744
G1 X114.855 Y99.002 E8.61098
G1 X115.669 Y99.375 E8.65565
G1 X116.191 Y99.604 E8.68409
G1 X116.813 Y99.954 E8.71969
G1 X117.244 Y100.261 E8.74609
G1 X117.42 Y100.396 E8.75716
G1 X117.911 Y100.851 E8.79056
G1 X118.734 Y101.771 E8.85214
G1 X118.867 Y101.893 E8.86114
G1 X119.689 Y102.828 E8.92326
G1 X119.846 Y103 E8.93487
G1 X120.273 Y103.572 E8.97049
G1 X120.631 Y104.182 E9.00577
G1 X120.698 Y104.312 E9.01307
G1 X120.925 Y104.858 E9.04257
G1 X121.233 Y105.817 E9.09282
G1 X121.72 Y107.317 E9.1715
G1 X121.814 Y107.596 E9.18619
G1 X121.976 Y108.313 E9.22286
G1 X122.042 Y108.88 E9.25134
G1 X122.054 Y109.018 E9.25825
G1 X122.047 Y109.719 E9.29323
G1 X121.898 Y111.091 E9.36208
G1 X121.747 Y112.593 E9.43739
G1 X121.606 Y113.291 E9.47292
G1 X121.421 Y113.892 E9.50429
G1 X121.225 Y114.391 E9.53104
G1 X121.09 Y114.646 E9.54543
G1 X120.381 Y115.862 E9.61566
G1 X119.649 Y117.141 E9.68918
G1 X119.226 Y117.742 E9.72585
G1 X118.802 Y118.222 E9.7578
G1 X118.698 Y118.33 E9.76528
G1 X118.212 Y118.752 E9.79739
G1 X117.223 Y119.466 E9.85825
G1 X115.846 Y120.472 E9.94332
G1 X115.232 Y120.834 E9.97889
G1 X114.607 Y121.113 E10.01303
G1 X113.928 Y121.327 E10.04855
G1 X112.677 Y121.587 E10.1123
G1 X111.43 Y121.855 E10.17593
G1 X111.096 Y121.93 E10.19301
G1 X110.365 Y122.017 E10.22974
G1 X109.783 Y122.023 E10.25877
G1 X109.62 Y122.019 E10.26691
G1 X108.95 Y121.939 E10.30057
G1 X107.632 Y121.655 E10.36784
G1 X106.051 Y121.321 E10.44845
G1 X105.375 Y121.107 E10.48383
G1 X104.802 Y120.852 E10.51512
G1 X104.169 Y120.482 E10.5517
G1 X103.176 Y119.76 E10.61295
G1 X103.001 Y119.643 E10.62345
G1 X102.144 Y119.006 E10.67673
G1 X101.802 Y118.761 E10.69772
G1 X101.271 Y118.295 E10.73296
G1 X100.884 Y117.876 E10.76142
G1 X100.765 Y117.737 E10.77055
G1 X100.379 Y117.189 E10.80399
G1 X99.708 Y116.022 E10.87115
G1 X99.645 Y115.934 E10.87655
G1 X99.133 Y115.025 E10.9286
G1 X98.919 Y114.66 E10.94971
G1 X98.621 Y114.011 E10.98533
G1 X98.405 Y113.357 E11.0197
G1 X98.26 Y112.654 E11.05551
G1 X98.142 Y111.516 E11.11259
G1 X98.103 Y111.235 E11.12674
G1 X97.998 Y110.125 E11.18237
G1 X97.957 Y109.764 E11.20049
G1 X97.947 Y109.051 E11.23607
G1 X97.994 Y108.528 E11.26226
G1 X98.018 Y108.33 E11.27222
G1 X98.17 Y107.644 E11.30727
G1 X98.573 Y106.414 E11.37184
G1 X98.654 Y106.178 E11.38429
G1 X99.071 Y104.877 E11.45245
G1 X99.341 Y104.248 E11.4866
G1 X99.584 Y103.804 E11.51185
G1 X99.725 Y103.565 E11.5257
G1 X100.13 Y103.024 E11.55941
G1 X100.97 Y102.098 E11.62179
G1 X101.07 Y101.966 E11.63005
G1 X101.873 Y101.095 E11.68915
G1 X102.082 Y100.86 E11.70484
G0 F3600 X102.381 Y101.126
G1 F1350 X102.841 Y100.701 E11.73609
G1 X103.261 Y100.387 E11.76225
G1 X103.4 Y100.289 E11.77074
G1 X103.951 Y99.977 E11.80233
G1 X104.916 Y99.552 E11.85493
G1 X106.262 Y98.952 E11.92846
G1 X106.616 Y98.791 E11.94786
G1 X107.23 Y98.584 E11.98018
G1 X107.88 Y98.441 E12.01339
G1 X108.531 Y98.377 E12.04602
G1 X109.72 Y98.382 E12.10534
G1 X110.493 Y98.382 E12.14391
G1 X111.468 Y98.378 E12.19255
G1 X112.093 Y98.437 E12.22387
G1 X112.772 Y98.581 E12.2585
G1 X113.361 Y98.778 E12.28949
G1 X114.575 Y99.321 E12.35584
G1 X114.689 Y99.366 E12.36195
G1 X115.493 Y99.734 E12.40606
G1 X116.03 Y99.97 E12.43533
G1 X116.583 Y100.281 E12.46698
G1 X117.001 Y100.578 E12.49256
G1 X117.177 Y100.713 E12.50363
G1 X117.613 Y101.118 E12.53332
G1 X118.344 Y101.935 E12.58801
G1 X118.567 Y102.157 E12.60371
G1 X119.401 Y103.106 E12.66674
G1 X119.551 Y103.27 E12.67783
G1 X119.931 Y103.779 E12.70952
G1 X120.275 Y104.365 E12.74342
G1 X120.342 Y104.495 E12.75072
G1 X120.544 Y104.98 E12.77693
G1 X120.856 Y105.954 E12.82795
G1 X121.341 Y107.444 E12.90613
G1 X121.435 Y107.723 E12.92082
G1 X121.579 Y108.361 E12.95345
G1 X121.644 Y108.915 E12.98128
G1 X121.656 Y109.053 E12.98819
G1 X121.649 Y109.675 E13.01922
G1 X121.5 Y111.047 E13.08807
G1 X121.349 Y112.552 E13.16354
G1 X121.223 Y113.173 E13.19515
G1 X121.038 Y113.774 E13.22652
G1 X120.744 Y114.445 E13.26307
G1 X120.047 Y115.641 E13.33213
G1 X119.3 Y116.945 E13.40711
G1 X118.924 Y117.479 E13.43969
G1 X118.514 Y117.945 E13.47066
G1 X118.41 Y118.053 E13.47814
G1 X117.978 Y118.428 E13.50668
G1 X116.989 Y119.141 E13.5675
G1 X115.61 Y120.149 E13.65272
G1 X115.064 Y120.471 E13.68435
G1 X114.45 Y120.745 E13.71789
G1 X113.846 Y120.935 E13.74948
G1 X112.616 Y121.191 E13.81216
G1 X111.313 Y121.471 E13.87865
G1 X111.008 Y121.539 E13.89424
G1 X110.358 Y121.617 E13.9269
G1 X109.792 Y121.623 E13.95514
G1 X109.629 Y121.619 E13.96328
G1 X109.034 Y121.548 E13.99317
G1 X107.728 Y121.267 E14.05982
G1 X106.133 Y120.93 E14.14115
G1 X105.533 Y120.74 E14.17255
G1 X104.969 Y120.488 E14.20337
G1 X104.404 Y120.158 E14.23601
G1 X103.337 Y119.383 E14.30181
G1 X103.24 Y119.322 E14.30752
G1 X102.36 Y118.668 E14.36222
G1 X102.035 Y118.435 E14.38217
G1 X101.563 Y118.021 E14.4135
G1 X101.188 Y117.616 E14.44103
G1 X101.069 Y117.477 E14.45016
G1 X100.725 Y116.99 E14.47991
G1 X100.081 Y115.869 E14.54441
G1 X99.994 Y115.737 E14.5523
G1 X99.509 Y114.876 E14.6016
G1 X99.264 Y114.458 E14.62577
G1 X98.999 Y113.881 E14.65745
G1 X98.787 Y113.237 E14.69127
G1 X98.658 Y112.613 E14.72306
G1 X98.526 Y111.344 E14.78671
G1 X98.501 Y111.197 E14.79415
G1 X98.399 Y110.115 E14.84837
G1 X98.354 Y109.719 E14.86826
G1 X98.346 Y109.085 E14.89989
G1 X98.391 Y108.576 E14.92538
G1 X98.415 Y108.378 E14.93533
G1 X98.551 Y107.768 E14.96651
G1 X98.951 Y106.544 E15.03076
G1 X99.04 Y106.284 E15.04447
G1 X99.452 Y104.999 E15.11179
G1 X99.692 Y104.44 E15.14214
G1 X99.935 Y103.996 E15.16739
G1 X100.066 Y103.773 E15.1803
G1 X100.426 Y103.293 E15.21023
G1 X101.159 Y102.485 E15.26466
G1 X101.364 Y102.237 E15.28071
G1 X102.18 Y101.352 E15.34077
G1 X102.381 Y101.126 E15.35586
G1 F1500 E8.85586
;MESH:small_gear.stl
G0 F3600 X104.608 Y102.533
G0 X105.207 Y103.357
G0 X108.425 Y110.293
;TYPE:WALL-INNER
G1 F1500 E15.35586
G1 F1350 X108.714 Y110.906 E15.38967
G1 X109.118 Y111.283 E15.41724
G1 X109.748 Y111.531 E15.45102
G1 X110.442 Y111.489 E15.4857
G1 X111.051 Y111.161 E15.52021
G1 X111.45 Y110.632 E15.55327
G1 X111.572 Y110.256 E15.57299
G1 X111.598 Y109.739 E15.59882
G1 X111.382 Y109.103 E15.63233
G1 X110.898 Y108.596 E15.6673
G1 X110.252 Y108.344 E15.70189
G1 X109.576 Y108.383 E15.73567
G1 X109.093 Y108.61 E15.7623
G1 X108.704 Y108.983 E15.78919
G1 X108.423 Y109.591 E15.8226
G1 X108.425 Y110.293 E15.85762
G0 F3600 X111.864 Y115.311
G1 F1350 X110.483 Y115.605 E15.92807
G1 X110.391 Y116.488 E15.97236
G1 X110.198 Y117.217 E16.00998
G1 X110.168 Y117.334 E16.01601
G1 X110.102 Y117.467 E16.02342
G1 X110 Y117.672 E16.03484
G1 X109.899 Y117.468 E16.03856
G1 X109.832 Y117.334 E16.04312
G1 X109.802 Y117.217 E16.04868
G1 X109.609 Y116.488 E16.0863
G1 X109.517 Y115.605 E16.1306
G1 X108.16 Y115.316 E16.19981
G1 X107.43 Y116.441 E16.26672
G1 X107.221 Y116.677 E16.28245
G1 X107.153 Y116.754 E16.28757
G1 X107.028 Y116.856 E16.29562
G1 X106.857 Y116.996 E16.30665
G1 X106.846 Y116.77 E16.31048
G1 X106.838 Y116.625 E16.3149
G1 X106.854 Y116.524 E16.31964
G1 X106.976 Y115.766 E16.35794
G1 X107.252 Y114.919 E16.40239
G1 X106.112 Y114.087 E16.4728
G1 X105.394 Y114.611 E16.51714
G1 X104.737 Y114.948 E16.55398
G1 X104.624 Y115.005 E16.5603
G1 X104.464 Y115.05 E16.56859
G1 X104.255 Y115.11 E16.57944
G1 X104.338 Y114.895 E16.5834
G1 X104.385 Y114.774 E16.5871
G1 X104.454 Y114.668 E16.59289
G1 X104.873 Y114.025 E16.63118
G1 X105.465 Y113.37 E16.67523
G1 X104.771 Y112.168 E16.74447
G1 X103.45 Y112.38 E16.81122
G1 X103.135 Y112.383 E16.82694
G1 X103.024 Y112.383 E16.83248
G1 X102.866 Y112.36 E16.84044
G1 X102.647 Y112.327 E16.85149
G1 X102.809 Y112.167 E16.85534
G1 X102.909 Y112.068 E16.85953
G1 X103.002 Y112.008 E16.86462
G1 X103.638 Y111.594 E16.90248
G1 X104.46 Y111.228 E16.94737
G1 X104.314 Y109.826 E17.01769
G1 X103.446 Y109.642 E17.06196
G1 X102.748 Y109.376 E17.09923
G1 X102.631 Y109.332 E17.10546
G1 X102.496 Y109.247 E17.11342
G1 X102.307 Y109.128 E17.12456
G1 X102.523 Y109.047 E17.12847
G1 X102.651 Y108.999 E17.13246
G1 X102.775 Y108.98 E17.13822
G1 X103.516 Y108.865 E17.17563
G1 X104.414 Y108.861 E17.22043
G1 X104.851 Y107.521 E17.29075
G1 X104.129 Y106.999 E17.3352
G1 X103.81 Y106.714 E17.35654
G1 X103.6 Y106.456 E17.37313
G1 X103.268 Y106.05 E17.3993
G1 X103.786 Y106.132 E17.41323
G1 X104.101 Y106.183 E17.42915
G1 X104.509 Y106.316 E17.45056
G1 X105.334 Y106.685 E17.49565
G1 X106.278 Y105.636 E17.56606
G1 X105.834 Y104.871 E17.61018
G1 X105.56 Y104.165 E17.64797
G1 X105.519 Y104.057 E17.65373
G1 X105.494 Y103.907 E17.66132
G1 X105.454 Y103.679 E17.67286
G1 X105.66 Y103.787 E17.67672
G1 X105.79 Y103.855 E17.68117
G1 X105.879 Y103.928 E17.68649
G1 X106.458 Y104.399 E17.72372
G1 X107.06 Y105.068 E17.76862
G1 X108.348 Y104.494 E17.83898
G1 X108.256 Y103.615 E17.88307
