;FLAVOR:Marlin
;TIME:3806
;Filament used: 1.47282m
;Layer height: 0.1
;MINX:89.486
;MINY:89.568
;MINZ:0.3
;MAXX:130.524
;MAXY:130.433
;MAXZ:5
;Generated with Cura_SteamEngine 4.8.0
M140 S60
M105
M190 S60
M104 S200
M105
M109 S200
M82 ;absolute extrusion mode
G28 ;Home
G1 Z15.0 F6000 ;Move the platform down 15mm
G1 X5 Y-5 F3000
;Prime the extruder
G92 E0
G1 Z2.0 F3000
G1 X15 Y3.5 Z0.3 F5000.0
G1 X175 Y3.5 Z0.3 F1500.0 E20
G1 X175 Y4.5 Z0.3 F5000.0
G1 X85 Y4.5 Z0.3 F1500.0 E30
M420 S1
G92 E0
G92 E0
G92 E0
G1 F1500 E-6.5
;LAYER_COUNT:48
;LAYER:0
M107
G0 F3600 X97.049 Y93.925 Z0.3
;TYPE:SKIRT
G1 F1500 E0
G1 F1350 X97.536 Y93.46 E0.03359
G1 X98.181 Y92.986 E0.07353
G1 X98.846 Y92.615 E0.11152
G1 X101.416 Y91.522 E0.25085
G1 X103.851 Y90.404 E0.38453
G1 X104.652 Y90.03 E0.42863
G1 X105.306 Y89.798 E0.46325
G1 X106.056 Y89.636 E0.50153
G1 X106.813 Y89.569 E0.53944
G1 X109.609 Y89.616 E0.67896
G1 X112.51 Y89.58 E0.8237
G1 X113.177 Y89.568 E0.85698
G1 X113.856 Y89.62 E0.89096
G1 X114.64 Y89.785 E0.93093
G1 X115.346 Y90.029 E0.96819
G1 X117.821 Y91.182 E1.10441
G1 X119.85 Y92.059 E1.21469
G1 X121.151 Y92.614 E1.28526
G1 X121.735 Y92.93 E1.31839
G1 X122.388 Y93.4 E1.35853
G1 X122.793 Y93.752 E1.3853
G1 X123.029 Y94.017 E1.403
G1 X124.813 Y96.066 E1.53854
G1 X126.661 Y98.072 E1.67462
G1 X127.168 Y98.612 E1.71157
G1 X127.609 Y99.196 E1.74808
G1 X127.937 Y99.738 E1.77969
G1 X128.18 Y100.216 E1.80644
G1 X128.341 Y100.69 E1.83141
G1 X129.154 Y103.334 E1.96942
G1 X130.036 Y105.938 E2.10658
G1 X130.25 Y106.554 E2.13912
G1 X130.417 Y107.275 E2.17604
G1 X130.497 Y107.914 E2.20817
G1 X130.524 Y108.449 E2.23489
G1 X130.498 Y108.8 E2.25245
G1 X130.153 Y111.612 E2.3938
G1 X129.899 Y114.319 E2.52944
G1 X129.835 Y115.1 E2.56854
G1 X129.695 Y115.819 E2.60508
G1 X129.541 Y116.327 E2.63157
G1 X129.308 Y116.908 E2.6628
G1 X129.058 Y117.382 E2.68953
G1 X127.631 Y119.767 E2.82819
G1 X126.599 Y121.597 E2.93301
G1 X125.976 Y122.729 E2.99747
G1 X125.572 Y123.316 E3.03302
G1 X125.062 Y123.882 E3.07103
G1 X124.468 Y124.396 E3.11022
G1 X122.919 Y125.464 E3.20409
G1 X120.726 Y127.067 E3.33961
G1 X119.961 Y127.657 E3.38781
G1 X119.384 Y128.09 E3.4238
G1 X118.757 Y128.468 E3.46033
G1 X118.224 Y128.719 E3.48972
G1 X117.882 Y128.86 E3.50818
G1 X117.313 Y129.02 E3.53766
G1 X114.612 Y129.548 E3.67497
G1 X112.392 Y130.04 E3.78841
G1 X111.113 Y130.339 E3.85394
G1 X110.414 Y130.431 E3.88912
G1 X109.654 Y130.433 E3.92703
G1 X109.396 Y130.42 E3.93992
G1 X108.886 Y130.34 E3.96568
G1 X106.186 Y129.718 E4.10391
G1 X103.587 Y129.195 E4.23617
G1 X102.677 Y129.018 E4.28242
G1 X102.002 Y128.817 E4.31756
G1 X101.316 Y128.513 E4.35499
G1 X100.641 Y128.107 E4.39429
G1 X99.005 Y126.86 E4.49692
G1 X96.799 Y125.275 E4.63244
G1 X96.375 Y124.986 E4.65804
G1 X95.562 Y124.417 E4.70755
G1 X95.002 Y123.933 E4.74447
G1 X94.553 Y123.455 E4.77719
G1 X94.216 Y123.038 E4.80394
G1 X93.962 Y122.613 E4.82864
G1 X92.599 Y120.167 E4.96834
G1 X91.554 Y118.394 E5.07102
G1 X90.85 Y117.228 E5.13897
G1 X90.544 Y116.587 E5.17441
G1 X90.312 Y115.87 E5.21201
G1 X90.164 Y115.102 E5.25103
G1 X89.995 Y113.038 E5.35434
G1 X89.704 Y110.39 E5.48725
G1 X89.63 Y109.845 E5.51469
G1 X89.502 Y108.806 E5.56692
G1 X89.486 Y108.089 E5.6027
G1 X89.56 Y107.364 E5.63905
G1 X89.738 Y106.595 E5.67843
G1 X90.415 Y104.663 E5.78057
G1 X91.242 Y102.075 E5.91612
G1 X91.425 Y101.445 E5.94885
G1 X91.704 Y100.541 E5.99605
G1 X91.961 Y99.92 E6.02958
G1 X92.35 Y99.244 E6.06849
G1 X92.819 Y98.625 E6.10723
G1 X94.182 Y97.182 E6.20626
G1 X96.009 Y95.132 E6.34326
G1 X96.268 Y94.826 E6.36326
G1 X97.049 Y93.925 E6.42275
G0 F3600 X97.351 Y94.187
G1 F1350 X97.784 Y93.773 E6.45264
G1 X98.411 Y93.313 E6.49143
G1 X99.003 Y92.984 E6.52522
G1 X101.53 Y91.909 E6.66223
G1 X104.02 Y90.766 E6.79892
G1 X104.821 Y90.392 E6.84302
G1 X105.403 Y90.187 E6.87381
G1 X106.133 Y90.029 E6.91107
G1 X106.806 Y89.968 E6.94478
G1 X109.642 Y90.015 E7.08629
G1 X112.467 Y89.981 E7.22724
G1 X113.184 Y89.968 E7.26302
G1 X113.788 Y90.014 E7.29324
G1 X114.549 Y90.175 E7.33205
G1 X115.177 Y90.391 E7.36518
G1 X117.673 Y91.553 E7.50254
G1 X119.693 Y92.427 E7.61234
G1 X120.994 Y92.982 E7.68291
G1 X121.513 Y93.262 E7.71233
G1 X122.149 Y93.72 E7.75143
G1 X122.528 Y94.054 E7.77664
G1 X122.734 Y94.288 E7.79219
G1 X124.5 Y96.316 E7.92635
G1 X126.4 Y98.379 E8.06628
G1 X126.875 Y98.884 E8.10086
G1 X127.267 Y99.403 E8.13331
G1 X127.595 Y99.945 E8.16492
G1 X127.821 Y100.397 E8.19013
G1 X127.959 Y100.808 E8.21176
G1 X128.776 Y103.464 E8.3504
G1 X129.661 Y106.077 E8.48803
G1 X129.872 Y106.684 E8.5201
G1 X130.02 Y107.324 E8.55287
G1 X130.1 Y107.963 E8.585
G1 X130.123 Y108.469 E8.61027
G1 X130.101 Y108.751 E8.62438
G1 X129.756 Y111.558 E8.76547
G1 X129.499 Y114.301 E8.90292
G1 X129.437 Y115.064 E8.94111
G1 X129.312 Y115.703 E8.9736
G1 X129.158 Y116.211 E9.00008
G1 X128.951 Y116.728 E9.02787
G1 X128.715 Y117.177 E9.05317
G1 X127.28 Y119.576 E9.19264
G1 X126.232 Y121.433 E9.29902
G1 X125.625 Y122.536 E9.36183
G1 X125.266 Y123.058 E9.39344
G1 X124.769 Y123.61 E9.43049
G1 X124.241 Y124.067 E9.46533
G1 X122.678 Y125.144 E9.56003
G1 X120.467 Y126.76 E9.69666
G1 X119.721 Y127.337 E9.74371
G1 X119.144 Y127.77 E9.7797
G1 X118.586 Y128.106 E9.8122
G1 X118.053 Y128.357 E9.84159
G1 X117.742 Y128.485 E9.85837
G1 X117.236 Y128.628 E9.8846
G1 X114.489 Y129.165 E10.02425
G1 X112.32 Y129.646 E10.13509
G1 X111.022 Y129.949 E10.20158
G1 X110.401 Y130.031 E10.23284
G1 X109.66 Y130.033 E10.2698
G1 X108.976 Y129.95 E10.30418
G1 X106.283 Y129.329 E10.44206
G1 X103.691 Y128.807 E10.57397
G1 X102.753 Y128.625 E10.62164
G1 X102.153 Y128.447 E10.65286
G1 X101.484 Y128.15 E10.68938
G1 X100.883 Y127.789 E10.72436
G1 X99.224 Y126.525 E10.82841
G1 X97.035 Y124.951 E10.96293
G1 X96.604 Y124.659 E10.9889
G1 X95.791 Y124.09 E11.03841
G1 X95.294 Y123.659 E11.07123
G1 X94.845 Y123.181 E11.10394
G1 X94.529 Y122.786 E11.12918
G1 X94.294 Y122.387 E11.15228
G1 X92.961 Y119.994 E11.28894
G1 X91.898 Y118.191 E11.39337
G1 X91.192 Y117.021 E11.46154
G1 X90.921 Y116.451 E11.49303
G1 X90.694 Y115.752 E11.52969
G1 X90.563 Y115.07 E11.56434
G1 X90.396 Y113.034 E11.66626
G1 X90.093 Y110.28 E11.80449
G1 X90.027 Y109.796 E11.82886
G1 X89.899 Y108.757 E11.88108
G1 X89.885 Y108.119 E11.91292
G1 X89.957 Y107.411 E11.94843
G1 X90.115 Y106.727 E11.98345
G1 X90.801 Y104.769 E12.08696
G1 X91.632 Y102.17 E12.22309
G1 X91.807 Y101.563 E12.2546
G1 X92.086 Y100.659 E12.3018
G1 X92.315 Y100.107 E12.33162
G1 X92.693 Y99.45 E12.36944
G1 X93.11 Y98.899 E12.40391
G1 X94.47 Y97.458 E12.50276
G1 X96.332 Y95.37 E12.64234
G1 X96.57 Y95.088 E12.66075
G1 X97.351 Y94.187 E12.72024
G1 F1500 E6.22024
;MESH:big_gear.stl
G0 F3600 X104.754 Y95.115
G0 X105.816 Y95.327
G0 X109.485 Y97.732
G0 X115.402 Y99.161
;TYPE:WALL-INNER
G1 F1500 E12.72024
G1 F1350 X115.905 Y99.044 E12.746
G1 X116.212 Y98.817 E12.76505
G1 X116.819 Y98.182 E12.80888
G1 X117.437 Y97.642 E12.84982
G1 X118.078 Y97.179 E12.88927
G1 X118.775 Y96.767 E12.92966
G1 X119.444 Y96.45 E12.9666
G1 X119.823 Y96.72 E12.98981
G1 X119.725 Y97.465 E13.0273
G1 X119.554 Y98.232 E13.06651
G1 X119.304 Y99.01 E13.10728
G1 X118.986 Y99.755 E13.14769
G1 X118.565 Y100.537 E13.192
G1 X118.441 Y100.916 E13.21189
G1 X118.497 Y101.381 E13.23526
G1 X118.697 Y101.722 E13.25498
G1 X118.997 Y102.053 E13.27727
G1 X119.326 Y102.289 E13.29747
G1 X119.786 Y102.381 E13.32087
G1 X120.161 Y102.297 E13.34005
G1 X120.982 Y101.96 E13.38432
G1 X121.737 Y101.728 E13.42373
G1 X122.544 Y101.559 E13.46486
G1 X123.334 Y101.468 E13.50454
G1 X124.081 Y101.449 E13.54182
G1 X124.311 Y101.851 E13.56492
G1 X123.922 Y102.487 E13.60212
G1 X123.444 Y103.131 E13.64213
G1 X122.911 Y103.727 E13.68202
G1 X122.312 Y104.283 E13.72279
G1 X121.61 Y104.826 E13.76707
G1 X121.345 Y105.121 E13.78686
G1 X121.193 Y105.605 E13.81217
G1 X121.368 Y106.346 E13.85015
G1 X121.592 Y106.735 E13.87255
G1 X121.976 Y107.007 E13.89602
G1 X122.353 Y107.082 E13.9152
G1 X123.235 Y107.11 E13.95923
G1 X124.035 Y107.206 E13.99942
G1 X124.822 Y107.376 E14.03959
G1 X125.592 Y107.616 E14.07983
G1 X126.281 Y107.904 E14.11709
G1 X126.325 Y108.363 E14.14009
G1 X125.711 Y108.786 E14.17729
G1 X125.009 Y109.181 E14.21748
G1 X124.276 Y109.51 E14.25756
G1 X123.52 Y109.769 E14.29743
G1 X122.648 Y109.982 E14.34221
G1 X122.287 Y110.143 E14.36193
G1 X121.949 Y110.525 E14.38738
G1 X121.81 Y111.273 E14.42534
G1 X121.854 Y111.717 E14.4476
G1 X122.096 Y112.123 E14.47118
G1 X122.409 Y112.346 E14.49035
G1 X123.194 Y112.723 E14.5338
G1 X123.897 Y113.144 E14.57468
G1 X124.557 Y113.626 E14.61545
G1 X125.147 Y114.145 E14.65466
G1 X125.663 Y114.691 E14.69214
G1 X125.517 Y115.131 E14.71526
G1 X124.78 Y115.269 E14.75267
G1 X123.989 Y115.343 E14.79231
G1 X123.173 Y115.345 E14.83302
G1 X122.391 Y115.275 E14.87219
G1 X121.499 Y115.115 E14.9174
G1 X121.101 Y115.115 E14.93726
G1 X120.674 Y115.312 E14.96072
G1 X120.413 Y115.607 E14.98037
G1 X120.192 Y115.993 E15.00256
G1 X120.066 Y116.38 E15.02286
G1 X120.124 Y116.847 E15.04634
G1 X120.318 Y117.176 E15.0654
G1 X120.888 Y117.846 E15.10928
G1 X121.357 Y118.515 E15.15005
G1 X121.75 Y119.201 E15.18949
G1 X122.089 Y119.938 E15.22996
G1 X122.336 Y120.646 E15.26737
G1 X122.023 Y120.985 E15.29039
G1 X121.307 Y120.815 E15.3271
G1 X120.539 Y120.556 E15.36754
G1 X119.802 Y120.229 E15.40777
G1 X119.097 Y119.837 E15.44801
G1 X118.367 Y119.339 E15.4921
G1 X118.001 Y119.177 E15.51207
G1 X117.492 Y119.178 E15.53746
G1 X116.84 Y119.577 E15.5756
G1 X116.54 Y119.908 E15.59788
G1 X116.4 Y120.358 E15.6214
G1 X116.445 Y120.74 E15.64059
G1 X116.695 Y121.594 E15.68498
G1 X116.847 Y122.37 E15.72443
G1 X116.93 Y123.18 E15.76505
G1 X116.939 Y123.99 E15.80547
G1 X116.88 Y124.721 E15.84205
G1 X116.451 Y124.912 E15.86548
G1 X115.867 Y124.465 E15.90217
G1 X115.267 Y123.914 E15.94282
G1 X114.734 Y123.323 E15.98252
G1 X114.244 Y122.672 E16.02317
G1 X113.778 Y121.915 E16.06752
G1 X113.511 Y121.622 E16.0873
G1 X113.048 Y121.421 E16.11248
G1 X112.292 Y121.516 E16.15049
G1 X111.88 Y121.698 E16.17296
G1 X111.572 Y122.054 E16.19645
G1 X111.456 Y122.418 E16.21551
G1 X111.34 Y123.284 E16.2591
G1 X111.156 Y124.087 E16.3002
G1 X110.91 Y124.838 E16.33963
G1 X110.592 Y125.577 E16.37976
G1 X110.23 Y126.239 E16.41741
G1 X109.769 Y126.238 E16.44041
G1 X109.408 Y125.577 E16.47798
G1 X109.09 Y124.838 E16.51812
G1 X108.844 Y124.087 E16.55754
G1 X108.66 Y123.284 E16.59864
G1 X108.544 Y122.415 E16.64238
G1 X108.418 Y122.033 E16.66245
G1 X108.102 Y121.688 E16.68579
G1 X107.74 Y121.53 E16.7055
G1 X107.302 Y121.438 E16.72783
G1 X106.894 Y121.439 E16.74818
G1 X106.469 Y121.637 E16.77157
G1 X106.216 Y121.926 E16.79074
G1 X105.756 Y122.671 E16.83442
G1 X105.266 Y123.323 E16.87511
G1 X104.733 Y123.914 E16.91481
G1 X104.133 Y124.465 E16.95546
G1 X103.549 Y124.912 E16.99215
G1 X103.12 Y124.721 E17.01558
G1 X103.061 Y123.99 E17.05216
G1 X103.07 Y123.18 E17.09258
G1 X103.153 Y122.37 E17.1332
G1 X103.305 Y121.594 E17.17265
G1 X103.557 Y120.73 E17.21755
G1 X103.598 Y120.334 E17.23741
G1 X103.448 Y119.892 E17.2607
G1 X103.183 Y119.6 E17.28037
G1 X102.82 Y119.339 E17.30268
G1 X102.449 Y119.174 E17.32294
G1 X101.978 Y119.181 E17.34644
G1 X101.63 Y119.34 E17.36552
G1 X100.903 Y119.837 E17.40946
G1 X100.198 Y120.229 E17.4497
G1 X99.461 Y120.556 E17.48993
G1 X98.693 Y120.815 E17.53037
G1 X97.971 Y120.985 E17.56737
G1 X97.665 Y120.639 E17.59042
G1 X97.911 Y119.938 E17.62748
G1 X98.25 Y119.201 E17.66795
G1 X98.643 Y118.515 E17.7074
G1 X99.109 Y117.852 E17.74783
G1 X99.688 Y117.167 E17.79257
G1 X99.884 Y116.824 E17.81228
G1 X99.934 Y116.321 E17.8375
G1 X99.607 Y115.631 E17.8756
G1 X99.309 Y115.298 E17.89789
G1 X98.876 Y115.112 E17.9214
G1 X98.492 Y115.115 E17.94056
G1 X97.609 Y115.275 E17.98533
G1 X96.827 Y115.345 E18.0245
G1 X96.011 Y115.343 E18.06521
G1 X95.22 Y115.269 E18.10485
G1 X94.481 Y115.13 E18.14236
G1 X94.339 Y114.689 E18.16548
G1 X94.853 Y114.145 E18.20281
G1 X95.443 Y113.626 E18.24202
G1 X96.104 Y113.144 E18.28283
G1 X96.804 Y112.724 E18.32356
G1 X97.599 Y112.341 E18.36758
G1 X97.921 Y112.107 E18.38744
G1 X98.15 Y111.698 E18.41083
G1 X98.189 Y111.307 E18.43043
G1 X98.141 Y110.861 E18.45281
G1 X98.013 Y110.476 E18.47305
G1 X97.694 Y110.131 E18.4965
G1 X97.342 Y109.979 E18.51562
G1 X96.482 Y109.77 E18.55978
G1 X95.724 Y109.51 E18.59976
G1 X94.991 Y109.181 E18.63984
G1 X94.289 Y108.786 E18.68003
G1 X93.673 Y108.361 E18.71737
G1 X93.723 Y107.901 E18.74045
G1 X94.408 Y107.616 E18.77747
G1 X95.178 Y107.376 E18.8177
G1 X95.965 Y107.206 E18.85787
G1 X96.765 Y107.11 E18.89807
G1 X97.649 Y107.082 E18.9422
G1 X98.044 Y107 E18.96232
G1 X98.421 Y106.719 E18.98578
G1 X98.628 Y106.355 E19.00667
G1 X98.809 Y105.592 E19.0458
G1 X98.643 Y105.103 E19.07156
G1 X98.383 Y104.819 E19.09077
G1 X97.682 Y104.277 E19.13498
G1 X97.089 Y103.727 E19.17533
G1 X96.556 Y103.131 E19.21522
G1 X96.078 Y102.487 E19.25523
G1 X95.688 Y101.848 E19.29258
G1 X95.921 Y101.449 E19.31563
G1 X96.666 Y101.468 E19.35281
G1 X97.456 Y101.559 E19.39248
G1 X98.263 Y101.728 E19.43362
G1 X99.019 Y101.96 E19.47307
G1 X99.848 Y102.3 E19.51777
G1 X100.238 Y102.383 E19.53767
G1 X100.732 Y102.27 E19.56295
G1 X101.284 Y101.751 E19.60075
G1 X101.51 Y101.363 E19.62315
G1 X101.554 Y100.894 E19.64665
G1 X101.431 Y100.528 E19.66592
G1 X101.012 Y99.75 E19.71
G1 X100.696 Y99.01 E19.75015
G1 X100.446 Y98.232 E19.79092
G1 X100.275 Y97.465 E19.83012
G1 X100.178 Y96.718 E19.8677
G1 X100.556 Y96.45 E19.89082
G1 X101.225 Y96.767 E19.92775
G1 X101.922 Y97.179 E19.96815
G1 X102.563 Y97.642 E20.0076
G1 X103.176 Y98.177 E20.04819
G1 X103.79 Y98.819 E20.09251
G1 X104.115 Y99.054 E20.11252
G1 X104.611 Y99.157 E20.13779
G1 X105.332 Y98.905 E20.1759
G1 X105.695 Y98.642 E20.19826
G1 X105.924 Y98.232 E20.22169
G1 X105.962 Y97.849 E20.24089
G1 X105.894 Y96.975 E20.28463
G1 X105.908 Y96.167 E20.32494
G1 X105.995 Y95.357 E20.36559
G1 X106.153 Y94.573 E20.40549
G1 X106.366 Y93.858 E20.44271
G1 X106.82 Y93.765 E20.46583
G1 X107.302 Y94.327 E20.50277
G1 X107.77 Y94.988 E20.54317
G1 X108.173 Y95.682 E20.58321
G1 X108.513 Y96.411 E20.62334
G1 X108.815 Y97.251 E20.66788
G1 X109.013 Y97.595 E20.68768
G1 X109.427 Y97.89 E20.71304
G1 X110.185 Y97.951 E20.75098
G1 X110.623 Y97.861 E20.77329
G1 X111.002 Y97.578 E20.79689
G1 X111.19 Y97.242 E20.81609
G1 X111.491 Y96.403 E20.86056
G1 X111.827 Y95.682 E20.90025
G1 X112.23 Y94.988 E20.94029
G1 X112.698 Y94.327 E20.98069
G1 X113.184 Y93.762 E21.01788
G1 X113.635 Y93.859 E21.04089
G1 X113.847 Y94.573 E21.07805
G1 X114.005 Y95.357 E21.11795
G1 X114.092 Y96.167 E21.15859
G1 X114.106 Y96.975 E21.19891
G1 X114.038 Y97.859 E21.24314
G1 X114.082 Y98.255 E21.26302
G1 X114.32 Y98.656 E21.28629
G1 X114.66 Y98.9 E21.30716
G1 X115.402 Y99.161 E21.34641
G0 F3600 X108.838 Y108.985
G0 X108.425 Y110.201
G1 F1350 X108.714 Y110.813 E21.38017
G1 X109.118 Y111.193 E21.40784
G1 X109.748 Y111.438 E21.44157
G1 X110.442 Y111.398 E21.47625
G1 X111.052 Y111.068 E21.51085
G1 X111.45 Y110.54 E21.54384
G1 X111.572 Y110.164 E21.56356
G1 X111.598 Y109.647 E21.58938
G1 X111.382 Y109.012 E21.62285
G1 X110.898 Y108.505 E21.65782
G1 X110.252 Y108.251 E21.69245
G1 X109.575 Y108.292 E21.72628
G1 X109.093 Y108.519 E21.75286
G1 X108.704 Y108.89 E21.77968
G1 X108.423 Y109.499 E21.81315
G1 X108.425 Y110.201 E21.84817
G0 F3600 X109.204 Y111.053
G0 X110.472 Y111.267
G0 X110.33 Y111.004
;TYPE:WALL-OUTER
G1 F1350 X110.785 Y110.758 E21.87397
G1 X111.09 Y110.353 E21.89927
G1 X111.175 Y110.091 E21.91301
G1 X111.195 Y109.703 E21.93239
G1 X111.032 Y109.224 E21.95764
G1 X110.67 Y108.845 E21.98378
G1 X110.188 Y108.656 E22.00961
G1 X109.676 Y108.687 E22.0352
G1 X109.322 Y108.853 E22.05471
G1 X109.035 Y109.127 E22.07451
G1 X108.823 Y109.586 E22.09973
G1 X108.825 Y110.111 E22.12592
G1 X109.043 Y110.574 E22.15145
G1 X109.335 Y110.848 E22.17143
G1 X109.812 Y111.034 E22.19697
G1 X110.33 Y111.004 E22.22286
G0 F3600 X110.506 Y110.909
G0 X110.647 Y111.171
G0 X111.236 Y110.555
G0 X115.325 Y99.027
G0 X115.425 Y98.745
G1 F1350 X115.734 Y98.673 E22.23869
G1 X115.947 Y98.516 E22.25189
G1 X116.543 Y97.892 E22.29494
G1 X117.188 Y97.329 E22.33766
G1 X117.861 Y96.843 E22.37907
G1 X118.583 Y96.416 E22.42092
