;FLAVOR:Marlin
;TIME:2922
;Filament used: 1.47473m
;Layer height: 0.1
;MINX:89.503
;MINY:89.525
;MINZ:0.3
;MAXX:130.511
;MAXY:130.467
;MAXZ:5
;Generated with Cura_SteamEngine 4.8.0
M140 S60
M105
M190 S60
M104 S200
M105
M109 S200
M82 ;absolute extrusion mode
G28 ;Home
G1 Z15.0 F6000 ;Move the platform down 15mm
G1 X5 Y-5 F3000
;Prime the extruder
G92 E0
G1 Z2.0 F3000
G1 X15 Y3.5 Z0.3 F5000.0
G1 X175 Y3.5 Z0.3 F1500.0 E20
G1 X175 Y4.5 Z0.3 F5000.0
G1 X85 Y4.5 Z0.3 F1500.0 E30
M420 S1
G92 E0
G92 E0
G92 E0
G1 F1500 E-6.5
;LAYER_COUNT:48
;LAYER:0
M107
G0 F3600 X97.505 Y93.573 Z0.3
;TYPE:SKIRT
G1 F1500 E0
G1 F1800 X98.023 Y93.111 E0.03463
G1 X98.651 Y92.68 E0.07263
G1 X99.329 Y92.329 E0.11072
G1 X101.936 Y91.314 E0.25029
G1 X104.478 Y90.241 E0.38795
G1 X104.68 Y90.15 E0.399
G1 X105.162 Y89.943 E0.42517
G1 X105.869 Y89.723 E0.46211
G1 X106.511 Y89.593 E0.49479
G1 X107.043 Y89.526 E0.52154
G1 X107.394 Y89.525 E0.53906
G1 X110.197 Y89.657 E0.67905
G1 X112.37 Y89.705 E0.78749
G1 X113.738 Y89.719 E0.85574
G1 X114.429 Y89.793 E0.89041
G1 X115.174 Y89.973 E0.92865
G1 X115.928 Y90.26 E0.9689
G1 X117.615 Y91.124 E1.06346
G1 X120.096 Y92.309 E1.20064
G1 X120.408 Y92.447 E1.21766
G1 X121.61 Y92.998 E1.28362
G1 X122.204 Y93.343 E1.31789
G1 X122.827 Y93.82 E1.35704
G1 X123.205 Y94.17 E1.38274
G1 X123.381 Y94.369 E1.396
G1 X125.106 Y96.479 E1.53197
G1 X126.848 Y98.494 E1.66485
G1 X126.981 Y98.641 E1.67474
G1 X127.487 Y99.218 E1.71303
G1 X127.896 Y99.789 E1.74807
G1 X128.251 Y100.445 E1.78529
G1 X128.539 Y101.187 E1.82499
G1 X129.069 Y103.181 E1.92793
G1 X129.843 Y105.79 E2.0637
G1 X130.028 Y106.356 E2.09341
G1 X130.311 Y107.269 E2.1411
G1 X130.45 Y107.933 E2.17494
G1 X130.511 Y108.714 E2.21402
G1 X130.472 Y109.493 E2.25294
G1 X130.148 Y111.517 E2.3552
G1 X129.787 Y114.276 E2.49402
G1 X129.72 Y114.921 E2.52637
G1 X129.625 Y115.719 E2.56647
G1 X129.465 Y116.433 E2.60297
G1 X129.26 Y117.047 E2.63527
G1 X129.052 Y117.542 E2.66205
G1 X128.874 Y117.852 E2.67989
G1 X127.347 Y120.23 E2.82088
G1 X126.237 Y122.07 E2.92809
G1 X126.209 Y122.109 E2.93048
G1 X125.53 Y123.256 E2.99698
G1 X125.122 Y123.814 E3.03147
G1 X124.587 Y124.376 E3.07018
G1 X124.001 Y124.857 E3.10801
G1 X121.512 Y126.492 E3.25658
G1 X119.294 Y128.043 E3.3916
G1 X118.753 Y128.429 E3.42476
G1 X118.126 Y128.779 E3.46059
G1 X117.617 Y129 E3.48827
G1 X117.338 Y129.109 E3.50321
G1 X116.632 Y129.289 E3.53956
G1 X116.447 Y129.317 E3.5489
G1 X113.724 Y129.766 E3.68658
G1 X111.803 Y130.139 E3.78421
G1 X110.487 Y130.399 E3.85114
G1 X109.75 Y130.467 E3.88806
G1 X109.099 Y130.46 E3.92054
G1 X108.565 Y130.414 E3.94728
G1 X108.224 Y130.342 E3.96467
G1 X105.445 Y129.612 E4.10802
G1 X102.793 Y128.995 E4.24386
G1 X102.09 Y128.84 E4.27978
G1 X101.39 Y128.602 E4.31666
G1 X100.804 Y128.333 E4.34883
G1 X100.335 Y128.073 E4.37559
G1 X99.96 Y127.793 E4.39893
G1 X97.769 Y126.04 E4.53892
G1 X95.593 Y124.397 E4.67496
G1 X95.076 Y124.014 E4.70706
G1 X94.531 Y123.511 E4.74406
G1 X94.098 Y123.02 E4.77672
G1 X93.774 Y122.593 E4.80346
G1 X93.599 Y122.29 E4.82092
G1 X92.331 Y119.831 E4.95895
G1 X91.019 Y117.454 E5.0944
G1 X90.912 Y117.267 E5.10515
G1 X90.59 Y116.691 E5.13807
G1 X90.317 Y116.072 E5.17182
G1 X90.092 Y115.313 E5.21132
G1 X89.969 Y114.564 E5.24919
G1 X89.806 Y111.716 E5.39151
G1 X89.566 Y108.935 E5.53077
G1 X89.551 Y108.8 E5.53754
G1 X89.503 Y108.281 E5.56355
G1 X89.512 Y107.537 E5.60067
G1 X89.585 Y106.904 E5.63246
G1 X89.686 Y106.377 E5.65923
G1 X89.801 Y106.023 E5.6778
G1 X90.539 Y104.104 E5.78037
G1 X91.456 Y101.506 E5.91783
G1 X91.576 Y101.134 E5.93733
G1 X91.943 Y100.05 E5.99442
G1 X92.233 Y99.409 E6.02952
G1 X92.615 Y98.784 E6.06607
G1 X93.092 Y98.185 E6.10427
G1 X95.089 Y96.163 E6.24605
G1 X96.565 Y94.59 E6.35367
G1 X97.505 Y93.573 E6.42276
G0 F3600 X97.798 Y93.845
G1 F1800 X98.259 Y93.434 E6.45357
G1 X98.871 Y93.014 E6.49061
G1 X99.474 Y92.702 E6.52448
G1 X102.1 Y91.679 E6.66508
G1 X104.601 Y90.624 E6.8005
G1 X104.838 Y90.518 E6.81345
G1 X105.32 Y90.311 E6.83963
G1 X105.948 Y90.115 E6.87245
G1 X106.59 Y89.985 E6.90513
G1 X107.092 Y89.924 E6.93036
G1 X107.376 Y89.925 E6.94452
G1 X110.17 Y90.057 E7.08407
G1 X112.366 Y90.105 E7.19366
G1 X113.734 Y90.119 E7.26191
G1 X114.348 Y90.185 E7.29272
G1 X115.073 Y90.36 E7.32993
G1 X115.746 Y90.616 E7.36585
G1 X117.439 Y91.484 E7.46077
G1 X119.941 Y92.678 E7.59908
G1 X120.241 Y92.811 E7.61545
G1 X121.443 Y93.362 E7.68142
G1 X121.971 Y93.668 E7.71187
G1 X122.577 Y94.132 E7.74995
G1 X123.071 Y94.622 E7.78466
G1 X124.777 Y96.709 E7.91914
G1 X126.564 Y98.776 E8.05546
G1 X126.68 Y98.905 E8.06412
G1 X127.186 Y99.482 E8.1024
G1 X127.55 Y99.989 E8.13354
G1 X127.897 Y100.63 E8.16991
G1 X128.153 Y101.289 E8.20518
G1 X128.685 Y103.292 E8.30857
G1 X129.466 Y105.923 E8.44549
G1 X129.646 Y106.475 E8.47446
G1 X129.929 Y107.388 E8.52215
G1 X130.052 Y107.978 E8.55222
G1 X130.112 Y108.737 E8.5902
G1 X130.077 Y109.43 E8.62482
G1 X129.75 Y111.474 E8.72809
G1 X129.398 Y114.166 E8.86354
G1 X129.323 Y114.873 E8.89901
G1 X129.228 Y115.671 E8.9391
G1 X129.085 Y116.306 E8.97158
G1 X128.88 Y116.92 E9.00387
G1 X128.683 Y117.386 E9.02911
G1 X128.538 Y117.636 E9.04353
G1 X127.002 Y120.028 E9.18535
G1 X125.895 Y121.863 E9.29227
G1 X125.862 Y121.909 E9.2951
G1 X125.185 Y123.052 E9.36137
G1 X124.823 Y123.548 E9.39201
G1 X124.302 Y124.095 E9.4297
G1 X123.781 Y124.522 E9.4633
G1 X121.309 Y126.146 E9.61086
G1 X119.068 Y127.713 E9.74729
G1 X118.524 Y128.101 E9.78063
G1 X117.966 Y128.412 E9.8125
G1 X117.457 Y128.633 E9.84018
G1 X117.2 Y128.733 E9.85394
G1 X116.573 Y128.893 E9.88622
G1 X116.388 Y128.921 E9.89556
G1 X113.69 Y129.366 E10.03198
G1 X111.713 Y129.748 E10.13244
G1 X110.409 Y130.006 E10.19876
G1 X109.755 Y130.067 E10.23153
G1 X109.104 Y130.06 E10.26401
G1 X108.6 Y130.014 E10.28926
G1 X108.326 Y129.955 E10.30324
G1 X105.574 Y129.232 E10.4452
G1 X102.865 Y128.602 E10.58395
G1 X102.179 Y128.45 E10.61901
G1 X101.557 Y128.238 E10.65179
G1 X100.971 Y127.969 E10.68396
G1 X100.53 Y127.723 E10.70916
G1 X100.21 Y127.48 E10.7292
G1 X98.037 Y125.741 E10.86806
G1 X95.836 Y124.079 E11.00565
G1 X95.316 Y123.693 E11.03796
G1 X94.831 Y123.247 E11.07083
G1 X94.398 Y122.756 E11.1035
G1 X94.095 Y122.351 E11.12873
G1 X93.954 Y122.106 E11.14283
G1 X92.672 Y119.62 E11.28238
G1 X91.335 Y117.199 E11.42036
G1 X91.261 Y117.071 E11.42774
G1 X90.939 Y116.495 E11.46066
G1 X90.696 Y115.946 E11.49061
G1 X90.478 Y115.207 E11.52905
G1 X90.368 Y114.541 E11.56273
G1 X90.203 Y111.66 E11.7067
G1 X89.971 Y108.968 E11.8415
G1 X89.95 Y108.763 E11.85178
G1 X89.902 Y108.244 E11.87778
G1 X89.909 Y107.582 E11.91081
G1 X89.982 Y106.949 E11.9426
G1 X90.079 Y106.453 E11.96782
G1 X90.174 Y106.167 E11.98285
G1 X90.914 Y104.245 E12.0856
G1 X91.83 Y101.647 E12.22304
G1 X91.955 Y101.262 E12.24323
G1 X92.322 Y100.178 E12.30033
G1 X92.579 Y99.608 E12.33152
G1 X92.952 Y98.999 E12.36715
G1 X93.377 Y98.466 E12.40116
G1 X95.383 Y96.435 E12.54358
G1 X96.857 Y94.864 E12.65106
G1 X97.798 Y93.845 E12.72025
G1 F1500 E6.22025
;MESH:gearMk1_v1 - gearM2Z15.stl
G0 F3600 X97.877 Y99.977
G0 X97.72 Y101.049
G0 X98.899 Y105.298
;TYPE:WALL-INNER
G1 F1500 E12.72025
G1 F1800 X98.748 Y104.802 E12.74612
G1 X98.496 Y104.512 E12.76529
G1 X97.813 Y103.95 E12.80942
G1 X97.241 Y103.385 E12.84953
G1 X96.714 Y102.76 E12.89032
G1 X96.27 Y102.121 E12.92914
G1 X95.893 Y101.459 E12.96714
G1 X96.139 Y101.068 E12.99019
G1 X96.876 Y101.109 E13.02702
G1 X97.68 Y101.226 E13.06755
G1 X98.462 Y101.416 E13.1077
G1 X99.223 Y101.675 E13.1478
G1 X100.038 Y102.038 E13.19232
G1 X100.423 Y102.133 E13.2121
G1 X100.923 Y102.037 E13.2375
G1 X101.491 Y101.532 E13.27542
G1 X101.728 Y101.152 E13.29776
G1 X101.787 Y100.685 E13.32125
G1 X101.674 Y100.316 E13.3405
G1 X101.275 Y99.517 E13.38505
G1 X100.983 Y98.767 E13.42521
G1 X100.763 Y98.007 E13.46468
G1 X100.611 Y97.213 E13.50501
G1 X100.538 Y96.472 E13.54216
G1 X100.922 Y96.211 E13.56533
G1 X101.584 Y96.551 E13.60245
G1 X102.267 Y96.983 E13.64277
G1 X102.896 Y97.468 E13.6824
G1 X103.488 Y98.018 E13.72271
G1 X104.09 Y98.685 E13.76754
G1 X104.404 Y98.926 E13.78729
G1 X104.858 Y99.033 E13.81056
G1 X105.247 Y98.961 E13.8303
G1 X105.661 Y98.789 E13.85266
G1 X105.996 Y98.559 E13.87293
G1 X106.236 Y98.156 E13.89634
G1 X106.284 Y97.776 E13.91544
G1 X106.245 Y96.893 E13.95954
G1 X106.283 Y96.073 E14.00049
G1 X106.39 Y95.302 E14.03933
G1 X106.576 Y94.507 E14.08006
G1 X106.812 Y93.798 E14.11734
G1 X107.269 Y93.723 E14.14045
G1 X107.727 Y94.29 E14.17681
G1 X108.181 Y94.973 E14.21773
G1 X108.555 Y95.666 E14.25701
G1 X108.883 Y96.43 E14.29849
G1 X109.151 Y97.261 E14.34206
G1 X109.344 Y97.618 E14.3623
G1 X109.718 Y97.899 E14.38564
G1 X110.1 Y97.99 E14.40523
G1 X110.545 Y98.003 E14.42744
G1 X110.945 Y97.93 E14.44773
G1 X111.33 Y97.66 E14.47119
G1 X111.529 Y97.331 E14.49037
G1 X111.851 Y96.509 E14.53442
G1 X112.211 Y95.792 E14.57444
G1 X112.645 Y95.095 E14.61541
G1 X113.112 Y94.477 E14.65405
G1 X113.628 Y93.912 E14.69223
G1 X114.076 Y94.027 E14.7153
G1 X114.269 Y94.75 E14.75264
G1 X114.401 Y95.532 E14.7922
G1 X114.463 Y96.331 E14.83218
G1 X114.451 Y97.141 E14.8726
G1 X114.357 Y98.032 E14.9173
G1 X114.388 Y98.427 E14.93707
G1 X114.632 Y98.873 E14.96243
G1 X115.288 Y99.257 E15.00035
G1 X115.721 Y99.367 E15.02264
G1 X116.187 Y99.276 E15.04633
G1 X116.502 Y99.055 E15.06553
G1 X117.135 Y98.432 E15.10984
G1 X117.755 Y97.925 E15.14979
G1 X118.421 Y97.474 E15.18992
G1 X119.13 Y97.083 E15.23032
G1 X119.802 Y96.788 E15.26693
G1 X120.173 Y97.074 E15.2903
G1 X120.056 Y97.801 E15.32704
G1 X119.853 Y98.59 E15.36768
G1 X119.588 Y99.337 E15.40723
G1 X119.242 Y100.085 E15.44834
G1 X118.801 Y100.848 E15.49231
G1 X118.666 Y101.22 E15.51205
G1 X118.705 Y101.688 E15.53548
G1 X118.895 Y102.036 E15.55527
G1 X119.187 Y102.377 E15.57766
G1 X119.508 Y102.622 E15.59781
G1 X119.964 Y102.728 E15.62117
G1 X120.342 Y102.655 E15.64037
G1 X121.164 Y102.347 E15.68417
G1 X121.947 Y102.133 E15.72466
G1 X122.738 Y101.992 E15.76475
G1 X123.542 Y101.922 E15.80501
G1 X124.286 Y101.928 E15.84213
G1 X124.504 Y102.337 E15.86525
G1 X124.101 Y102.953 E15.90198
G1 X123.594 Y103.593 E15.94271
G1 X123.045 Y104.169 E15.98241
G1 X122.434 Y104.704 E16.02293
G1 X121.714 Y105.227 E16.06733
G1 X121.439 Y105.514 E16.08716
G1 X121.272 Y105.994 E16.11251
G1 X121.426 Y106.739 E16.15047
G1 X121.635 Y107.135 E16.17281
G1 X122.012 Y107.418 E16.19632
G1 X122.386 Y107.506 E16.21549
G1 X123.26 Y107.559 E16.25918
G1 X124.075 Y107.682 E16.3003
G1 X124.848 Y107.874 E16.34004
G1 X125.606 Y108.136 E16.38005
G1 X126.284 Y108.443 E16.41718
G1 X126.317 Y108.907 E16.44039
G1 X125.69 Y109.312 E16.47763
G1 X124.987 Y109.681 E16.51724
G1 X124.232 Y109.991 E16.55796
G1 X123.47 Y110.227 E16.59775
G1 X122.592 Y110.413 E16.64253
G1 X122.225 Y110.564 E16.66233
G1 X121.878 Y110.936 E16.68771
G1 X121.716 Y111.676 E16.7255
G1 X121.745 Y112.123 E16.74785
G1 X121.976 Y112.537 E16.7715
G1 X122.282 Y112.768 E16.79063
G1 X123.059 Y113.172 E16.83432
G1 X123.737 Y113.606 E16.87448
G1 X124.379 Y114.106 E16.91508
G1 X124.974 Y114.663 E16.95574
G1 X125.462 Y115.214 E16.99246
G1 X125.301 Y115.649 E17.0156
G1 X124.57 Y115.762 E17.05251
G1 X123.767 Y115.813 E17.09265
G1 X122.96 Y115.789 E17.13293
G1 X122.161 Y115.694 E17.17307
G1 X121.288 Y115.509 E17.21759
G1 X120.892 Y115.496 E17.23736
G1 X120.424 Y115.693 E17.26269
G1 X119.972 Y116.305 E17.30065
G1 X119.818 Y116.727 E17.32306
G1 X119.86 Y117.197 E17.3466
G1 X120.045 Y117.534 E17.36578
G1 X120.598 Y118.227 E17.41002
G1 X121.044 Y118.905 E17.4505
G1 X121.412 Y119.594 E17.48947
G1 X121.729 Y120.346 E17.53019
G1 X121.956 Y121.061 E17.56761
G1 X121.633 Y121.392 E17.59069
G1 X120.927 Y121.201 E17.62718
G1 X120.158 Y120.916 E17.66809
G1 X119.438 Y120.571 E17.70792
G1 X118.751 Y120.16 E17.74786
G1 X118.022 Y119.63 E17.79283
G1 X117.663 Y119.461 E17.81263
G1 X117.158 Y119.45 E17.83783
G1 X116.496 Y119.825 E17.87578
G1 X116.186 Y120.148 E17.89812
G1 X116.03 Y120.593 E17.92165
G1 X116.065 Y120.979 E17.94098
G1 X116.287 Y121.836 E17.98515
G1 X116.418 Y122.63 E18.0253
G1 X116.475 Y123.419 E18.06476
G1 X116.458 Y124.228 E18.10513
G1 X116.375 Y124.976 E18.14268
G1 X115.947 Y125.149 E18.16571
G1 X115.374 Y124.682 E18.20259
G1 X114.787 Y124.108 E18.24355
G1 X114.277 Y123.509 E18.2828
G1 X113.809 Y122.844 E18.32337
G1 X113.367 Y122.078 E18.36749
G1 X113.107 Y121.769 E18.38764
G1 X112.646 Y121.553 E18.41304
G1 X111.89 Y121.627 E18.45093
G1 X111.473 Y121.794 E18.47335
G1 X111.153 Y122.142 E18.49693
G1 X111.027 Y122.503 E18.51601
G1 X110.882 Y123.372 E18.55996
G1 X110.676 Y124.159 E18.60055
G1 X110.407 Y124.903 E18.64002
G1 X110.063 Y125.637 E18.68046
G1 X109.686 Y126.281 E18.71769
G1 X109.22 Y126.264 E18.74095
G1 X108.893 Y125.616 E18.77717
G1 X108.59 Y124.853 E18.81812
G1 X108.358 Y124.065 E18.85911
G1 X108.208 Y123.302 E18.8979
G1 X108.114 Y122.404 E18.94295
G1 X108.002 Y122.023 E18.96276
G1 X107.669 Y121.639 E18.98812
G1 X106.951 Y121.401 E19.02585
G1 X106.501 Y121.381 E19.04833
G1 X106.064 Y121.569 E19.07206
G1 X105.803 Y121.85 E19.09119
G1 X105.316 Y122.588 E19.13531
G1 X104.82 Y123.209 E19.17496
G1 X104.256 Y123.794 E19.2155
G1 X103.645 Y124.322 E19.25579
G1 X103.042 Y124.756 E19.29285
G1 X102.625 Y124.552 E19.31601
G1 X102.588 Y123.808 E19.35318
G1 X102.623 Y122.988 E19.39412
G1 X102.726 Y122.215 E19.43303
G1 X102.906 Y121.426 E19.47341
G1 X103.183 Y120.572 E19.5182
G1 X103.235 Y120.18 E19.53793
G1 X103.1 Y119.732 E19.56127
G1 X102.843 Y119.432 E19.58098
G1 X102.488 Y119.159 E19.60332
G1 X102.121 Y118.986 E19.62356
G1 X101.653 Y118.976 E19.64692
G1 X101.299 Y119.126 E19.6661
G1 X100.553 Y119.602 E19.71025
G1 X99.838 Y119.972 E19.75041
G1 X99.09 Y120.276 E19.79069
G1 X98.329 Y120.506 E19.83036
G1 X97.591 Y120.658 E19.86795
G1 X97.295 Y120.305 E19.89093
G1 X97.57 Y119.594 E19.92896
G1 X97.917 Y118.894 E19.96794
G1 X98.344 Y118.201 E20.00855
G1 X98.827 Y117.558 E20.04867
G1 X99.422 Y116.896 E20.09308
G1 X99.631 Y116.558 E20.11291
G1 X99.693 Y116.054 E20.13824
G1 X99.391 Y115.358 E20.17609
G1 X99.102 Y115.012 E20.19858
G1 X98.673 Y114.815 E20.22214
G1 X98.291 Y114.807 E20.2412
G1 X97.41 Y114.938 E20.28563
G1 X96.616 Y114.986 E20.32532
G1 X95.802 Y114.959 E20.36595
G1 X95.013 Y114.86 E20.40562
G1 X94.284 Y114.7 E20.44286
G1 X94.155 Y114.253 E20.46607
G1 X94.683 Y113.728 E20.50322
G1 X95.302 Y113.215 E20.54333
G1 X95.967 Y112.761 E20.5835
G1 X96.669 Y112.369 E20.62361
G1 X97.484 Y112.006 E20.66812
G1 X97.812 Y111.784 E20.68788
G1 X98.075 Y111.347 E20.71333
G1 X98.079 Y110.588 E20.7512
G1 X97.957 Y110.156 E20.77359
G1 X97.646 Y109.801 E20.79714
G1 X97.3 Y109.639 E20.8162
G1 X96.448 Y109.403 E20.86031
G1 X95.699 Y109.121 E20.90023
G1 X94.962 Y108.764 E20.94109
G1 X94.287 Y108.355 E20.98047
G1 X93.684 Y107.912 E21.0178
G1 X93.745 Y107.45 E21.04104
G1 X94.437 Y107.187 E21.07798
G1 X95.221 Y106.967 E21.1186
G1 X96.01 Y106.822 E21.15862
G1 X96.803 Y106.751 E21.19835
G1 X97.702 Y106.751 E21.2432
G1 X98.092 Y106.68 E21.26297
G1 X98.476 Y106.412 E21.28634
G1 X98.695 Y106.055 E21.30723
G1 X98.899 Y105.298 E21.34635
G0 F3600 X109.311 Y111.186
G0 X110.729 Y111.311
G1 F1800 X111.263 Y110.834 E21.38207
G1 X111.539 Y110.204 E21.41638
G1 X111.522 Y109.503 E21.45137
G1 X111.224 Y108.898 E21.48501
G1 X110.808 Y108.525 E21.51289
G1 X110.175 Y108.291 E21.54656
G1 X109.482 Y108.346 E21.58124
G1 X108.892 Y108.681 E21.61509
G1 X108.559 Y109.095 E21.6416
G1 X108.371 Y109.601 E21.66853
G1 X108.388 Y110.278 E21.70231
G1 X108.695 Y110.899 E21.73687
G1 X109.235 Y111.334 E21.77147
G1 X109.921 Y111.508 E21.80678
G1 X110.729 Y111.311 E21.84827
G0 F3600 X110.537 Y110.946
;TYPE:WALL-OUTER
G1 F1800 X110.932 Y110.594 E21.87467
G1 X111.137 Y110.125 E21.9002
G1 X111.124 Y109.601 E21.92635
G1 X110.899 Y109.144 E21.95177
G1 X110.598 Y108.874 E21.97194
G1 X110.119 Y108.697 E21.99742
G1 X109.602 Y108.738 E22.02329
G1 X109.156 Y108.991 E22.04887
G1 X108.911 Y109.295 E22.06835
G1 X108.773 Y109.668 E22.08819
G1 X108.786 Y110.18 E22.11374
G1 X109.015 Y110.643 E22.13951
G1 X109.418 Y110.968 E22.16534
G1 X109.923 Y111.096 E22.19133
G1 X110.537 Y110.946 E22.22287
G0 F3600 X110.686 Y110.813
G0 X110.885 Y111.037
G0 X109.921 Y111.341
