;FLAVOR:Marlin
;TIME:959
;Filament used: 0.488403m
;Layer height: 0.1
;MINX:102.375
;MINY:91.223
;MINZ:0.3
;MAXX:117.62
;MAXY:139.223
;MAXZ:5
;Generated with Cura_SteamEngine 4.8.0
M140 S60
M105
M190 S60
M104 S200
M105
M109 S200
M82 ;absolute extrusion mode
G28 ;Home
G1 Z15.0 F6000 ;Move the platform down 15mm
G1 X5 Y-5 F3000
;Prime the extruder
G92 E0
G1 Z2.0 F3000
G1 X15 Y3.5 Z0.3 F5000.0
G1 X175 Y3.5 Z0.3 F1500.0 E20
G1 X175 Y4.5 Z0.3 F5000.0
G1 X85 Y4.5 Z0.3 F1500.0 E30
M420 S1
G92 E0
G92 E0
G92 E0
G1 F1500 E-6.5
;LAYER_COUNT:48
;LAYER:0
M107
G0 F3600 X103.379 Y92.592 Z0.3
;TYPE:SKIRT
G1 F1500 E0
G1 F1800 X103.781 Y92.195 E0.02819
G1 X104.235 Y91.858 E0.0564
G1 X104.732 Y91.589 E0.08459
G1 X105.262 Y91.392 E0.1128
G1 X105.815 Y91.273 E0.14102
G1 X106.593 Y91.225 E0.17991
G1 X106.705 Y91.223 E0.1855
G1 X110.725 Y91.223 E0.38606
G1 X111.423 Y91.233 E0.42088
G1 X111.987 Y91.281 E0.44912
G1 X112.537 Y91.408 E0.47728
G1 X113.065 Y91.612 E0.50552
G1 X113.559 Y91.887 E0.53373
G1 X114.008 Y92.23 E0.56192
G1 X114.405 Y92.632 E0.59011
G1 X114.742 Y93.087 E0.61836
G1 X115.01 Y93.584 E0.64653
G1 X115.206 Y94.114 E0.67472
G1 X115.326 Y94.667 E0.70295
G1 X115.364 Y95.117 E0.72548
G1 X115.406 Y96.557 E0.79735
G1 X115.427 Y97.524 E0.84561
G1 X115.561 Y100.228 E0.98068
G1 X115.772 Y102.931 E1.11594
G1 X116.061 Y105.655 E1.2526
G1 X116.425 Y108.341 E1.38783
G1 X116.859 Y110.99 E1.52176
G1 X117.435 Y113.955 E1.67244
G1 X117.528 Y114.399 E1.69508
G1 X117.614 Y115.173 E1.73393
G1 X117.62 Y115.727 E1.76157
G1 X117.611 Y117.483 E1.84918
G1 X117.62 Y118.501 E1.89997
G1 X117.611 Y120.283 E1.98887
G1 X117.62 Y121.301 E2.03966
G1 X117.611 Y123.083 E2.12857
G1 X117.62 Y124.101 E2.17936
G1 X117.611 Y125.883 E2.26827
G1 X117.62 Y126.901 E2.31906
G1 X117.611 Y128.683 E2.40796
G1 X117.62 Y129.701 E2.45875
G1 X117.611 Y131.54 E2.5505
G1 X117.615 Y131.988 E2.57285
G1 X117.579 Y132.552 E2.60105
G1 X117.465 Y133.106 E2.62927
G1 X117.273 Y133.638 E2.65748
G1 X116.943 Y134.239 E2.69169
G1 X116.807 Y134.44 E2.7038
G1 X115.272 Y136.603 E2.83612
G1 X115.152 Y136.78 E2.84679
G1 X114.655 Y137.495 E2.89023
G1 X114.301 Y137.935 E2.91841
G1 X113.888 Y138.321 E2.94661
G1 X113.424 Y138.645 E2.97485
G1 X112.92 Y138.9 E3.00303
G1 X112.384 Y139.082 E3.03127
G1 X111.829 Y139.186 E3.05944
G1 X111.18 Y139.221 E3.09186
G1 X111.045 Y139.223 E3.0986
G1 X107.03 Y139.223 E3.29891
G1 X106.332 Y139.214 E3.33373
G1 X105.769 Y139.166 E3.36192
G1 X105.218 Y139.04 E3.39012
G1 X104.69 Y138.838 E3.41833
G1 X104.196 Y138.563 E3.44653
G1 X103.746 Y138.221 E3.47473
G1 X103.348 Y137.819 E3.50296
G1 X103.012 Y137.365 E3.53113
G1 X102.742 Y136.868 E3.55935
G1 X102.545 Y136.338 E3.58756
G1 X102.425 Y135.786 E3.61574
G1 X102.376 Y134.989 E3.65558
G1 X102.375 Y95.843 E5.60858
G1 X102.384 Y95.178 E5.64176
G1 X102.432 Y94.615 E5.66995
G1 X102.558 Y94.064 E5.69815
G1 X102.761 Y93.536 E5.72637
G1 X103.037 Y93.042 E5.75461
G1 X103.379 Y92.592 E5.7828
G0 F3600 X103.772 Y92.754
G1 F1800 X104.169 Y92.394 E5.80954
G1 X104.616 Y92.096 E5.83634
G1 X105.101 Y91.868 E5.86308
G1 X105.615 Y91.715 E5.88984
G1 X106.283 Y91.633 E5.92341
G1 X106.705 Y91.623 E5.94447
G1 X110.72 Y91.623 E6.14478
G1 X111.418 Y91.633 E6.17961
G1 X111.952 Y91.681 E6.20636
G1 X112.473 Y91.807 E6.2331
G1 X112.97 Y92.01 E6.25988
G1 X113.431 Y92.284 E6.28664
G1 X113.846 Y92.623 E6.31337
G1 X114.206 Y93.021 E6.34015
G1 X114.503 Y93.467 E6.36688
G1 X114.731 Y93.953 E6.39366
G1 X114.883 Y94.467 E6.4204
G1 X114.964 Y95.128 E6.45363
G1 X115.006 Y96.566 E6.5254
G1 X115.026 Y97.516 E6.57281
G1 X115.163 Y100.278 E6.71077
G1 X115.373 Y102.968 E6.84539
G1 X115.662 Y105.684 E6.98165
G1 X116.032 Y108.423 E7.11954
G1 X116.466 Y111.066 E7.25317
G1 X117.031 Y113.977 E7.40111
G1 X117.137 Y114.481 E7.4268
G1 X117.214 Y115.177 E7.46174
G1 X117.22 Y115.725 E7.48908
G1 X117.211 Y117.538 E7.57953
G1 X117.22 Y118.499 E7.62748
G1 X117.211 Y120.338 E7.71923
G1 X117.22 Y121.299 E7.76718
G1 X117.211 Y123.138 E7.85893
G1 X117.22 Y124.099 E7.90687
G1 X117.211 Y125.938 E7.99862
G1 X117.22 Y126.899 E8.04657
G1 X117.211 Y128.738 E8.13832
G1 X117.22 Y129.699 E8.18626
G1 X117.211 Y131.538 E8.27801
G1 X117.215 Y131.991 E8.30061
G1 X117.179 Y132.526 E8.32737
G1 X117.064 Y133.05 E8.35413
G1 X116.873 Y133.551 E8.38088
G1 X116.61 Y134.017 E8.40758
G1 X116.481 Y134.209 E8.41912
G1 X114.934 Y136.388 E8.55244
G1 X114.824 Y136.552 E8.56229
G1 X114.327 Y137.267 E8.60573
G1 X113.989 Y137.683 E8.63247
G1 X113.593 Y138.045 E8.65924
G1 X113.147 Y138.343 E8.686
G1 X112.663 Y138.572 E8.71272
G1 X112.149 Y138.727 E8.7395
G1 X111.492 Y138.81 E8.77254
G1 X111.045 Y138.823 E8.79485
G1 X107.036 Y138.823 E8.99486
G1 X106.338 Y138.814 E9.02968
G1 X105.803 Y138.767 E9.05648
G1 X105.282 Y138.641 E9.08322
G1 X104.785 Y138.439 E9.10999
G1 X104.324 Y138.166 E9.13672
G1 X103.908 Y137.827 E9.16349
G1 X103.547 Y137.431 E9.19022
G1 X103.249 Y136.985 E9.21698
G1 X103.021 Y136.499 E9.24377
G1 X102.868 Y135.985 E9.27052
G1 X102.785 Y135.311 E9.3044
G1 X102.775 Y134.881 E9.32586
G1 X102.775 Y95.848 E11.27322
G1 X102.784 Y95.183 E11.3064
G1 X102.832 Y94.649 E11.33315
G1 X102.958 Y94.128 E11.35989
G1 X103.16 Y93.631 E11.38666
G1 X103.433 Y93.17 E11.41339
G1 X103.772 Y92.754 E11.44016
G0 F3600 X103.829 Y93.305
G1 F1800 X104.164 Y92.927 E11.46536
G1 X104.555 Y92.606 E11.4906
G1 X104.992 Y92.351 E11.51584
G1 X105.463 Y92.167 E11.54107
G1 X105.957 Y92.061 E11.56628
G1 X106.615 Y92.024 E11.59916
G1 X110.714 Y92.023 E11.80366
G1 X111.412 Y92.033 E11.83848
G1 X111.915 Y92.08 E11.86369
G1 X112.405 Y92.206 E11.88893
G1 X112.869 Y92.408 E11.91418
G1 X113.295 Y92.68 E11.93939
G1 X113.673 Y93.015 E11.96459
G1 X113.993 Y93.406 E11.9898
G1 X114.248 Y93.843 E12.01504
G1 X114.431 Y94.314 E12.04025
G1 X114.538 Y94.808 E12.06547
G1 X114.565 Y95.14 E12.08209
G1 X114.606 Y96.574 E12.15366
G1 X114.627 Y97.546 E12.20216
G1 X114.763 Y100.293 E12.33938
G1 X114.975 Y103.008 E12.47524
G1 X115.265 Y105.739 E12.61226
G1 X115.63 Y108.44 E12.74824
G1 X116.078 Y111.169 E12.88621
G1 X116.639 Y114.059 E13.03308
G1 X116.745 Y114.563 E13.05878
G1 X116.814 Y115.182 E13.08985
G1 X116.82 Y115.723 E13.11684
G1 X116.811 Y117.536 E13.2073
G1 X116.82 Y118.497 E13.25524
G1 X116.811 Y120.336 E13.34699
G1 X116.82 Y121.297 E13.39494
G1 X116.811 Y123.136 E13.48669
G1 X116.82 Y124.097 E13.53463
G1 X116.811 Y125.936 E13.62638
G1 X116.82 Y126.897 E13.67433
G1 X116.811 Y128.736 E13.76608
G1 X116.82 Y129.697 E13.81403
G1 X116.811 Y131.536 E13.90577
G1 X116.815 Y131.994 E13.92863
G1 X116.779 Y132.499 E13.95388
G1 X116.664 Y132.991 E13.97909
G1 X116.473 Y133.459 E14.00431
G1 X116.208 Y133.9 E14.02998
G1 X114.609 Y136.155 E14.16789
G1 X114.496 Y136.323 E14.178
G1 X113.999 Y137.038 E14.22144
G1 X113.678 Y137.429 E14.24668
G1 X113.3 Y137.765 E14.27191
G1 X112.874 Y138.037 E14.29712
G1 X112.41 Y138.239 E14.32237
G1 X111.921 Y138.364 E14.34755
G1 X111.153 Y138.421 E14.38597
G1 X111.045 Y138.423 E14.39136
G1 X107.041 Y138.423 E14.59112
G1 X106.343 Y138.414 E14.62595
G1 X105.839 Y138.367 E14.6512
G1 X105.349 Y138.242 E14.67643
G1 X104.885 Y138.041 E14.70166
G1 X104.459 Y137.77 E14.72685
G1 X104.08 Y137.435 E14.75209
G1 X103.759 Y137.044 E14.77732
G1 X103.504 Y136.608 E14.80252
G1 X103.32 Y136.137 E14.82775
G1 X103.213 Y135.643 E14.85297
G1 X103.176 Y134.967 E14.88674
G1 X103.175 Y95.854 E16.8381
G1 X103.184 Y95.189 E16.87128
G1 X103.231 Y94.685 E16.89653
G1 X103.357 Y94.196 E16.92173
G1 X103.558 Y93.732 E16.94695
G1 X103.829 Y93.305 E16.97219
G1 F1500 E10.47219
;MESH:rackgear - rackgearM1.stl
G0 F3600 X105.71 Y95.637
G0 X106.789 Y95.637
G0 X110.793 Y116.072
;TYPE:WALL-INNER
G1 F1500 E16.97219
G1 F1800 X110.774 Y116.885 E17.01276
G1 X110.83 Y117.22 E17.0297
G1 X111.204 Y117.609 E17.05663
G1 X111.826 Y117.836 E17.08966
G1 X111.827 Y117.837 E17.08973
G1 X112.342 Y118.023 E17.11705
G1 X111.827 Y118.21 E17.13151
G1 X111.201 Y118.438 E17.16475
G1 X110.793 Y118.872 E17.19447
G1 X110.774 Y119.685 E17.23504
G1 X110.83 Y120.02 E17.25199
G1 X111.204 Y120.409 E17.27891
G1 X111.826 Y120.636 E17.31194
G1 X111.827 Y120.637 E17.31201
G1 X112.342 Y120.823 E17.33933
G1 X111.827 Y121.01 E17.3538
G1 X111.201 Y121.238 E17.38704
G1 X110.793 Y121.672 E17.41675
G1 X110.774 Y122.485 E17.45733
G1 X110.83 Y122.82 E17.47427
G1 X111.204 Y123.209 E17.50119
G1 X111.826 Y123.436 E17.53423
G1 X111.827 Y123.437 E17.5343
G1 X112.342 Y123.623 E17.56162
G1 X111.827 Y123.81 E17.57608
G1 X111.201 Y124.038 E17.60932
G1 X110.793 Y124.472 E17.63904
G1 X110.774 Y125.285 E17.67961
G1 X110.83 Y125.62 E17.69656
G1 X111.204 Y126.009 E17.72348
G1 X111.826 Y126.236 E17.75651
G1 X111.827 Y126.237 E17.75658
G1 X112.342 Y126.423 E17.7839
G1 X111.827 Y126.61 E17.79837
G1 X111.201 Y126.838 E17.83161
G1 X110.793 Y127.272 E17.86132
G1 X110.774 Y128.085 E17.9019
G1 X110.83 Y128.42 E17.91884
G1 X111.204 Y128.809 E17.94576
G1 X111.826 Y129.036 E17.9788
G1 X111.827 Y129.037 E17.97887
G1 X112.342 Y129.223 E18.00618
G1 X111.827 Y129.41 E18.02065
G1 X111.201 Y129.638 E18.05389
G1 X110.793 Y130.072 E18.08361
G1 X110.774 Y130.885 E18.12418
G1 X110.83 Y131.22 E18.14112
G1 X111.204 Y131.609 E18.16805
G1 X111.826 Y131.836 E18.20108
G1 X111.827 Y131.837 E18.20115
G1 X112.342 Y132.023 E18.22847
G1 X111.827 Y132.21 E18.24294
G1 X111.201 Y132.438 E18.27617
G1 X110.825 Y132.836 E18.30349
G1 X110.775 Y133.139 E18.31881
G1 X110.775 Y134.623 E18.39285
G1 X106.975 Y134.623 E18.58243
G1 X106.975 Y95.823 E20.51817
G1 X110.775 Y95.823 E20.70775
G1 X110.775 Y114.121 E21.62064
G1 X110.839 Y114.429 E21.63634
G1 X111.204 Y114.809 E21.66263
G1 X111.826 Y115.036 E21.69566
G1 X111.827 Y115.037 E21.69573
G1 X112.342 Y115.223 E21.72305
G1 X111.827 Y115.41 E21.73752
G1 X111.201 Y115.638 E21.77075
G1 X110.793 Y116.072 E21.80047
G0 F3600 X111.189 Y116.234
;TYPE:WALL-OUTER
G1 F1800 X111.175 Y116.857 E21.83156
G1 X111.204 Y117.032 E21.84041
G1 X111.428 Y117.265 E21.85654
G1 X112.986 Y117.832 E21.93925
G1 X113.334 Y117.958 E21.95772
G1 X113.38 Y118.023 E21.96169
G1 X113.334 Y118.088 E21.96566
G1 X112.986 Y118.214 E21.97827
G1 X111.427 Y118.781 E22.06103
G1 X111.189 Y119.034 E22.07836
G1 X111.175 Y119.657 E22.10945
G1 X111.204 Y119.832 E22.1183
G1 X111.428 Y120.065 E22.13442
G1 X112.986 Y120.632 E22.21714
G1 X113.334 Y120.758 E22.2356
G1 X113.38 Y120.823 E22.23958
G1 X113.334 Y120.888 E22.24355
G1 X112.986 Y121.014 E22.25615
G1 X111.427 Y121.581 E22.33892
G1 X111.189 Y121.834 E22.35625
G1 X111.175 Y122.457 E22.38733
G1 X111.204 Y122.632 E22.39618
G1 X111.428 Y122.865 E22.41231
G1 X112.986 Y123.432 E22.49503
G1 X113.334 Y123.558 E22.51349
G1 X113.38 Y123.623 E22.51746
G1 X113.334 Y123.688 E22.52144
G1 X112.986 Y123.814 E22.53404
G1 X111.427 Y124.381 E22.6168
G1 X111.189 Y124.634 E22.63413
G1 X111.175 Y125.257 E22.66522
G1 X111.204 Y125.432 E22.67407
G1 X111.428 Y125.665 E22.6902
G1 X112.986 Y126.232 E22.77291
G1 X113.334 Y126.358 E22.79138
G1 X113.38 Y126.423 E22.79535
G1 X113.334 Y126.488 E22.79932
G1 X112.986 Y126.614 E22.81193
G1 X111.427 Y127.181 E22.89469
G1 X111.189 Y127.434 E22.91202
G1 X111.175 Y128.057 E22.94311
G1 X111.204 Y128.232 E22.95196
G1 X111.428 Y128.465 E22.96808
G1 X112.986 Y129.032 E23.0508
G1 X113.334 Y129.158 E23.06926
G1 X113.38 Y129.223 E23.07324
G1 X113.334 Y129.288 E23.07721
G1 X112.986 Y129.414 E23.08981
G1 X111.427 Y129.981 E23.17258
G1 X111.189 Y130.234 E23.18991
G1 X111.175 Y130.857 E23.221
G1 X111.204 Y131.032 E23.22985
G1 X111.428 Y131.265 E23.24597
G1 X112.986 Y131.832 E23.32869
G1 X113.334 Y131.958 E23.34715
G1 X113.38 Y132.023 E23.35112
G1 X113.334 Y132.088 E23.3551
G1 X112.986 Y132.214 E23.3677
G1 X111.427 Y132.781 E23.45046
G1 X111.2 Y133.022 E23.46698
G1 X111.175 Y133.172 E23.47457
G1 X111.175 Y135.023 E23.56691
G1 X106.575 Y135.023 E23.79641
G1 X106.575 Y95.423 E25.77206
G1 X111.175 Y95.423 E26.00156
G1 X111.175 Y114.08 E26.93236
G1 X111.207 Y114.235 E26.94025
G1 X111.428 Y114.465 E26.95617
G1 X112.986 Y115.032 E27.03888
G1 X113.334 Y115.158 E27.05735
G1 X113.38 Y115.223 E27.06132
G1 X113.334 Y115.288 E27.06529
G1 X112.986 Y115.414 E27.0779
G1 X111.427 Y115.981 E27.16066
G1 X111.189 Y116.234 E27.17799
G0 F3600 X111.185 Y116.434
G0 X110.384 Y116.913
;TYPE:SKIN
G1 F1800 X110.465 Y117.403 E27.20277
G1 X110.986 Y117.944 E27.24024
G1 X111.201 Y118.023 E27.25167
G1 X110.981 Y118.103 E27.26335
G1 X110.407 Y118.714 E27.30517
G1 X110.384 Y119.713 E27.35502
G1 X110.465 Y120.203 E27.3798
G1 X110.986 Y120.744 E27.41727
G1 X111.201 Y120.823 E27.4287
G1 X110.981 Y120.903 E27.44038
G1 X110.407 Y121.514 E27.48221
G1 X110.384 Y122.513 E27.53206
G1 X110.465 Y123.003 E27.55684
G1 X110.986 Y123.544 E27.59431
G1 X111.201 Y123.623 E27.60574
G1 X110.981 Y123.703 E27.61741
G1 X110.407 Y124.314 E27.65924
G1 X110.384 Y125.313 E27.70909
G1 X110.465 Y125.803 E27.73387
G1 X110.986 Y126.344 E27.77134
G1 X111.201 Y126.423 E27.78277
G1 X110.981 Y126.503 E27.79445
G1 X110.407 Y127.114 E27.83627
G1 X110.384 Y128.113 E27.88613
G1 X110.465 Y128.603 E27.9109
G1 X110.986 Y129.144 E27.94838
G1 X111.201 Y129.223 E27.9598
G1 X110.981 Y129.303 E27.97148
G1 X110.407 Y129.914 E28.01331
G1 X110.384 Y130.913 E28.06316
G1 X110.465 Y131.403 E28.08794
G1 X110.986 Y131.944 E28.12541
G1 X111.201 Y132.023 E28.13684
G1 X110.981 Y132.103 E28.14852
G1 X110.46 Y132.655 E28.18639
G1 X110.385 Y133.107 E28.20924
G1 X110.385 Y134.233 E28.26542
G1 X107.365 Y134.233 E28.41609
G1 X107.365 Y96.213 E30.31291
G1 X110.385 Y96.213 E30.46358
G1 X110.385 Y114.162 E31.35906
G1 X110.48 Y114.618 E31.3823
G1 X110.986 Y115.144 E31.41871
G1 X111.201 Y115.223 E31.43014
G1 X110.981 Y115.303 E31.44182
G1 X110.407 Y115.914 E31.48365
G1 X110.384 Y116.913 E31.5335
G0 F3600 X108.03 Y134.051
G1 F1800 X107.544 Y133.566 E31.56775
G0 F3600 X107.544 Y133
G1 F1800 X108.596 Y134.051 E31.64194
G0 F3600 X109.161 Y134.051
G1 F1800 X107.544 Y132.434 E31.75603
G0 F3600 X107.544 Y131.869
G1 F1800 X109.727 Y134.051 E31.91002
G0 F3600 X110.205 Y133.964
G1 F1800 X107.544 Y131.303 E32.09777
G0 F3600 X107.544 Y130.737
G1 F1800 X110.205 Y133.398 E32.28551
G0 F3600 X110.242 Y132.87
G1 F1800 X107.544 Y130.171 E32.47591
G0 F3600 X107.544 Y129.606
G1 F1800 X110.397 Y132.459 E32.6772
G0 F3600 X110.672 Y132.168
G1 F1800 X107.544 Y129.04 E32.8979
G0 F3600 X107.544 Y128.474
G1 F1800 X110.245 Y131.176 E33.0885
G0 F3600 X110.212 Y130.577
G1 F1800 X107.544 Y127.909 E33.27675
G0 F3600 X107.544 Y127.343
G1 F1800 X110.225 Y130.024 E33.46591
G0 F3600 X110.412 Y129.645
G1 F1800 X107.544 Y126.777 E33.66826
G0 F3600 X107.544 Y126.212
G1 F1800 X110.686 Y129.353 E33.88991
G1 X110.756 Y129.423
G0 F3600 X110.24 Y128.342
G1 F1800 X107.544 Y125.646 E34.08013
G0 F3600 X107.544 Y125.08
G1 F1800 X110.213 Y127.749 E34.26844
G0 F3600 X110.225 Y127.196
G1 F1800 X107.544 Y124.515 E34.4576
G0 F3600 X107.544 Y123.949
G1 F1800 X110.426 Y126.831 E34.66094
G0 F3600 X110.7 Y126.539
G1 F1800 X107.544 Y123.383 E34.88361
G0 F3600 X107.544 Y122.818
G1 F1800 X110.234 Y125.507 E35.07337
G0 F3600 X110.213 Y124.921
G1 F1800 X107.544 Y122.252 E35.26168
G0 F3600 X107.544 Y121.686
G1 F1800 X110.226 Y124.368 E35.45091
G0 F3600 X110.44 Y124.017
G1 F1800 X107.544 Y121.121 E35.65524
G0 F3600 X107.544 Y120.555
G1 F1800 X110.714 Y123.725 E35.8789
G1 X110.784 Y123.795
G0 F3600 X110.228 Y122.673
G1 F1800 X107.544 Y119.989 E36.06827
G0 F3600 X107.544 Y119.423
G1 F1800 X110.214 Y122.094 E36.25669
G0 F3600 X110.227 Y121.541
G1 F1800 X107.544 Y118.858 E36.44599
G0 F3600 X107.544 Y118.292
G1 F1800 X110.454 Y121.202 E36.65131
G0 F3600 X110.727 Y120.91
G1 F1800 X107.544 Y117.726 E36.87592
G0 F3600 X107.544 Y117.161
G1 F1800 X110.223 Y119.839 E37.0649
G0 F3600 X110.215 Y119.266
G1 F1800 X107.544 Y116.595 E37.25335
G0 F3600 X107.544 Y116.029
G1 F1800 X110.228 Y118.713 E37.44273
G0 F3600 X110.467 Y118.387
G1 F1800 X107.544 Y115.464 E37.64896
G0 F3600 X107.543 Y114.897
G1 F1800 X110.742 Y118.096 E37.87467
G1 X110.812 Y118.166
G0 F3600 X110.217 Y117.005
G1 F1800 X107.543 Y114.332 E38.0633
G0 F3600 X107.543 Y113.766
G1 F1800 X110.216 Y116.438 E38.25185
G0 F3600 X110.228 Y115.885
G1 F1800 X107.543 Y113.2 E38.4413
G0 F3600 X107.543 Y112.635
