;FLAVOR:Marlin
;TIME:958
;Filament used: 0.487883m
;Layer height: 0.1
;MINX:102.375
;MINY:88
;MINZ:0.3
;MAXX:117.62
;MAXY:136
;MAXZ:5
;Generated with Cura_SteamEngine 4.8.0
M140 S60
M105
M190 S60
M104 S200
M105
M109 S200
M82 ;absolute extrusion mode
G28 ;Home
G1 Z15.0 F6000 ;Move the platform down 15mm
G1 X5 Y-5 F3000
;Prime the extruder
G92 E0
G1 Z2.0 F3000
G1 X15 Y3.5 Z0.3 F5000.0
G1 X175 Y3.5 Z0.3 F1500.0 E20
G1 X175 Y4.5 Z0.3 F5000.0
G1 X85 Y4.5 Z0.3 F1500.0 E30
M420 S1
G92 E0
G92 E0
G92 E0
G1 F1500 E-6.5
;LAYER_COUNT:48
;LAYER:0
M107
G0 F3600 X103.379 Y89.369 Z0.3
;TYPE:SKIRT
G1 F1500 E0
G1 F1800 X103.781 Y88.972 E0.02819
G1 X104.235 Y88.635 E0.0564
G1 X104.732 Y88.366 E0.08459
G1 X105.262 Y88.169 E0.1128
G1 X105.815 Y88.05 E0.14102
G1 X106.593 Y88.002 E0.17991
G1 X106.705 Y88 E0.1855
G1 X110.725 Y88 E0.38606
G1 X111.423 Y88.01 E0.42088
G1 X111.987 Y88.058 E0.44912
G1 X112.537 Y88.185 E0.47728
G1 X113.065 Y88.389 E0.50552
G1 X113.559 Y88.664 E0.53373
G1 X114.008 Y89.007 E0.56192
G1 X114.405 Y89.409 E0.59011
G1 X114.742 Y89.864 E0.61836
G1 X115.01 Y90.361 E0.64653
G1 X115.206 Y90.891 E0.67472
G1 X115.326 Y91.444 E0.70295
G1 X115.364 Y91.894 E0.72548
G1 X115.406 Y93.334 E0.79735
G1 X115.427 Y94.301 E0.84561
G1 X115.561 Y97.005 E0.98068
G1 X115.772 Y99.708 E1.11594
G1 X116.061 Y102.432 E1.2526
G1 X116.425 Y105.118 E1.38783
G1 X116.859 Y107.767 E1.52176
G1 X117.435 Y110.732 E1.67244
G1 X117.528 Y111.176 E1.69508
G1 X117.614 Y111.95 E1.73393
G1 X117.62 Y112.504 E1.76157
G1 X117.611 Y114.26 E1.84918
G1 X117.62 Y115.278 E1.89997
G1 X117.611 Y117.06 E1.98887
G1 X117.62 Y118.078 E2.03966
G1 X117.611 Y119.86 E2.12857
G1 X117.62 Y120.878 E2.17936
G1 X117.611 Y122.66 E2.26827
G1 X117.62 Y123.678 E2.31906
G1 X117.611 Y125.46 E2.40796
G1 X117.62 Y126.478 E2.45875
G1 X117.611 Y128.317 E2.5505
G1 X117.615 Y128.765 E2.57285
G1 X117.579 Y129.329 E2.60105
G1 X117.465 Y129.883 E2.62927
G1 X117.273 Y130.415 E2.65748
G1 X116.943 Y131.016 E2.69169
G1 X116.807 Y131.217 E2.7038
G1 X115.272 Y133.38 E2.83612
G1 X115.152 Y133.557 E2.84679
G1 X114.655 Y134.272 E2.89023
G1 X114.301 Y134.712 E2.91841
G1 X113.888 Y135.098 E2.94661
G1 X113.424 Y135.422 E2.97485
G1 X112.92 Y135.677 E3.00303
G1 X112.384 Y135.859 E3.03127
G1 X111.829 Y135.963 E3.05944
G1 X111.18 Y135.998 E3.09186
G1 X111.045 Y136 E3.0986
G1 X107.03 Y136 E3.29891
G1 X106.332 Y135.991 E3.33373
G1 X105.769 Y135.943 E3.36192
G1 X105.218 Y135.817 E3.39012
G1 X104.69 Y135.615 E3.41833
G1 X104.196 Y135.34 E3.44653
G1 X103.746 Y134.998 E3.47473
G1 X103.348 Y134.596 E3.50296
G1 X103.012 Y134.142 E3.53113
G1 X102.742 Y133.645 E3.55935
G1 X102.545 Y133.115 E3.58756
G1 X102.425 Y132.563 E3.61574
G1 X102.376 Y131.766 E3.65558
G1 X102.375 Y92.62 E5.60858
G1 X102.384 Y91.955 E5.64176
G1 X102.432 Y91.392 E5.66995
G1 X102.558 Y90.841 E5.69815
G1 X102.761 Y90.313 E5.72637
G1 X103.037 Y89.819 E5.75461
G1 X103.379 Y89.369 E5.7828
G0 F3600 X103.772 Y89.531
G1 F1800 X104.169 Y89.171 E5.80954
G1 X104.616 Y88.873 E5.83634
G1 X105.101 Y88.645 E5.86308
G1 X105.615 Y88.492 E5.88984
G1 X106.283 Y88.41 E5.92341
G1 X106.705 Y88.4 E5.94447
G1 X110.72 Y88.4 E6.14478
G1 X111.418 Y88.41 E6.17961
G1 X111.952 Y88.458 E6.20636
G1 X112.473 Y88.584 E6.2331
G1 X112.97 Y88.787 E6.25988
G1 X113.431 Y89.061 E6.28664
G1 X113.846 Y89.4 E6.31337
G1 X114.206 Y89.798 E6.34015
G1 X114.503 Y90.244 E6.36688
G1 X114.731 Y90.73 E6.39366
G1 X114.883 Y91.244 E6.4204
G1 X114.964 Y91.905 E6.45363
G1 X115.006 Y93.343 E6.5254
G1 X115.026 Y94.293 E6.57281
G1 X115.163 Y97.055 E6.71077
G1 X115.373 Y99.745 E6.84539
G1 X115.662 Y102.461 E6.98165
G1 X116.032 Y105.2 E7.11954
G1 X116.466 Y107.843 E7.25317
G1 X117.031 Y110.754 E7.40111
G1 X117.137 Y111.258 E7.4268
G1 X117.214 Y111.954 E7.46174
G1 X117.22 Y112.502 E7.48908
G1 X117.211 Y114.315 E7.57953
G1 X117.22 Y115.276 E7.62748
G1 X117.211 Y117.115 E7.71923
G1 X117.22 Y118.076 E7.76718
G1 X117.211 Y119.915 E7.85893
G1 X117.22 Y120.876 E7.90687
G1 X117.211 Y122.715 E7.99862
G1 X117.22 Y123.676 E8.04657
G1 X117.211 Y125.515 E8.13832
G1 X117.22 Y126.476 E8.18626
G1 X117.211 Y128.315 E8.27801
G1 X117.215 Y128.768 E8.30061
G1 X117.179 Y129.303 E8.32737
G1 X117.064 Y129.827 E8.35413
G1 X116.873 Y130.328 E8.38088
G1 X116.61 Y130.794 E8.40758
G1 X116.481 Y130.986 E8.41912
G1 X114.934 Y133.165 E8.55244
G1 X114.824 Y133.329 E8.56229
G1 X114.327 Y134.044 E8.60573
G1 X113.989 Y134.46 E8.63247
G1 X113.593 Y134.822 E8.65924
G1 X113.147 Y135.12 E8.686
G1 X112.663 Y135.349 E8.71272
G1 X112.149 Y135.504 E8.7395
G1 X111.492 Y135.587 E8.77254
G1 X111.045 Y135.6 E8.79485
G1 X107.036 Y135.6 E8.99486
G1 X106.338 Y135.591 E9.02968
G1 X105.803 Y135.544 E9.05648
G1 X105.282 Y135.418 E9.08322
G1 X104.785 Y135.216 E9.10999
G1 X104.324 Y134.943 E9.13672
G1 X103.908 Y134.604 E9.16349
G1 X103.547 Y134.208 E9.19022
G1 X103.249 Y133.762 E9.21698
G1 X103.021 Y133.276 E9.24377
G1 X102.868 Y132.762 E9.27052
G1 X102.785 Y132.088 E9.3044
G1 X102.775 Y131.658 E9.32586
G1 X102.775 Y92.625 E11.27322
G1 X102.784 Y91.96 E11.3064
G1 X102.832 Y91.426 E11.33315
G1 X102.958 Y90.905 E11.35989
G1 X103.16 Y90.408 E11.38666
G1 X103.433 Y89.947 E11.41339
G1 X103.772 Y89.531 E11.44016
G0 F3600 X103.829 Y90.082
G1 F1800 X104.164 Y89.704 E11.46536
G1 X104.555 Y89.383 E11.4906
G1 X104.992 Y89.128 E11.51584
G1 X105.463 Y88.944 E11.54107
G1 X105.957 Y88.838 E11.56628
G1 X106.615 Y88.801 E11.59916
G1 X110.714 Y88.8 E11.80366
G1 X111.412 Y88.81 E11.83848
G1 X111.915 Y88.857 E11.86369
G1 X112.405 Y88.983 E11.88893
G1 X112.869 Y89.185 E11.91418
G1 X113.295 Y89.457 E11.93939
G1 X113.673 Y89.792 E11.96459
G1 X113.993 Y90.183 E11.9898
G1 X114.248 Y90.62 E12.01504
G1 X114.431 Y91.091 E12.04025
G1 X114.538 Y91.585 E12.06547
G1 X114.565 Y91.917 E12.08209
G1 X114.606 Y93.351 E12.15366
G1 X114.627 Y94.323 E12.20216
G1 X114.763 Y97.07 E12.33938
G1 X114.975 Y99.785 E12.47524
G1 X115.265 Y102.516 E12.61226
G1 X115.63 Y105.217 E12.74824
G1 X116.078 Y107.946 E12.88621
G1 X116.639 Y110.836 E13.03308
G1 X116.745 Y111.34 E13.05878
G1 X116.814 Y111.959 E13.08985
G1 X116.82 Y112.5 E13.11684
G1 X116.811 Y114.313 E13.2073
G1 X116.82 Y115.274 E13.25524
G1 X116.811 Y117.113 E13.34699
G1 X116.82 Y118.074 E13.39494
G1 X116.811 Y119.913 E13.48669
G1 X116.82 Y120.874 E13.53463
G1 X116.811 Y122.713 E13.62638
G1 X116.82 Y123.674 E13.67433
G1 X116.811 Y125.513 E13.76608
G1 X116.82 Y126.474 E13.81403
G1 X116.811 Y128.313 E13.90577
G1 X116.815 Y128.771 E13.92863
G1 X116.779 Y129.276 E13.95388
G1 X116.664 Y129.768 E13.97909
G1 X116.473 Y130.236 E14.00431
G1 X116.208 Y130.677 E14.02998
G1 X114.609 Y132.932 E14.16789
G1 X114.496 Y133.1 E14.178
G1 X113.999 Y133.815 E14.22144
G1 X113.678 Y134.206 E14.24668
G1 X113.3 Y134.542 E14.27191
G1 X112.874 Y134.814 E14.29712
G1 X112.41 Y135.016 E14.32237
G1 X111.921 Y135.141 E14.34755
G1 X111.153 Y135.198 E14.38597
G1 X111.045 Y135.2 E14.39136
G1 X107.041 Y135.2 E14.59112
G1 X106.343 Y135.191 E14.62595
G1 X105.839 Y135.144 E14.6512
G1 X105.349 Y135.019 E14.67643
G1 X104.885 Y134.818 E14.70166
G1 X104.459 Y134.547 E14.72685
G1 X104.08 Y134.212 E14.75209
G1 X103.759 Y133.821 E14.77732
G1 X103.504 Y133.385 E14.80252
G1 X103.32 Y132.914 E14.82775
G1 X103.213 Y132.42 E14.85297
G1 X103.176 Y131.744 E14.88674
G1 X103.175 Y92.631 E16.8381
G1 X103.184 Y91.966 E16.87128
G1 X103.231 Y91.462 E16.89653
G1 X103.357 Y90.973 E16.92173
G1 X103.558 Y90.509 E16.94695
G1 X103.829 Y90.082 E16.97219
G1 F1500 E10.47219
;MESH:rackgear - rackgearM1.stl
G0 F3600 X105.71 Y92.414
G0 X106.789 Y92.414
G0 X110.793 Y112.849
;TYPE:WALL-INNER
G1 F1500 E16.97219
G1 F1800 X110.774 Y113.662 E17.01276
G1 X110.83 Y113.997 E17.0297
G1 X111.204 Y114.386 E17.05663
G1 X111.826 Y114.613 E17.08966
G1 X111.827 Y114.614 E17.08973
G1 X112.342 Y114.8 E17.11705
G1 X111.827 Y114.987 E17.13151
G1 X111.201 Y115.215 E17.16475
G1 X110.793 Y115.649 E17.19447
G1 X110.774 Y116.462 E17.23504
G1 X110.83 Y116.797 E17.25199
G1 X111.204 Y117.186 E17.27891
G1 X111.826 Y117.413 E17.31194
G1 X111.827 Y117.414 E17.31201
G1 X112.342 Y117.6 E17.33933
G1 X111.827 Y117.787 E17.3538
G1 X111.201 Y118.015 E17.38704
G1 X110.793 Y118.449 E17.41675
G1 X110.774 Y119.262 E17.45733
G1 X110.83 Y119.597 E17.47427
G1 X111.204 Y119.986 E17.50119
G1 X111.826 Y120.213 E17.53423
G1 X111.827 Y120.214 E17.5343
G1 X112.342 Y120.4 E17.56162
G1 X111.827 Y120.587 E17.57608
G1 X111.201 Y120.815 E17.60932
G1 X110.793 Y121.249 E17.63904
G1 X110.774 Y122.062 E17.67961
G1 X110.83 Y122.397 E17.69656
G1 X111.204 Y122.786 E17.72348
G1 X111.826 Y123.013 E17.75651
G1 X111.827 Y123.014 E17.75658
G1 X112.342 Y123.2 E17.7839
G1 X111.827 Y123.387 E17.79837
G1 X111.201 Y123.615 E17.83161
G1 X110.793 Y124.049 E17.86132
G1 X110.774 Y124.862 E17.9019
G1 X110.83 Y125.197 E17.91884
G1 X111.204 Y125.586 E17.94576
G1 X111.826 Y125.813 E17.9788
G1 X111.827 Y125.814 E17.97887
G1 X112.342 Y126 E18.00618
G1 X111.827 Y126.187 E18.02065
G1 X111.201 Y126.415 E18.05389
G1 X110.793 Y126.849 E18.08361
G1 X110.774 Y127.662 E18.12418
G1 X110.83 Y127.997 E18.14112
G1 X111.204 Y128.386 E18.16805
G1 X111.826 Y128.613 E18.20108
G1 X111.827 Y128.614 E18.20115
G1 X112.342 Y128.8 E18.22847
G1 X111.827 Y128.987 E18.24294
G1 X111.201 Y129.215 E18.27617
G1 X110.825 Y129.613 E18.30349
G1 X110.775 Y129.916 E18.31881
G1 X110.775 Y131.4 E18.39285
G1 X106.975 Y131.4 E18.58243
G1 X106.975 Y92.6 E20.51817
G1 X110.775 Y92.6 E20.70775
G1 X110.775 Y110.898 E21.62064
G1 X110.839 Y111.206 E21.63634
G1 X111.204 Y111.586 E21.66263
G1 X111.826 Y111.813 E21.69566
G1 X111.827 Y111.814 E21.69573
G1 X112.342 Y112 E21.72305
G1 X111.827 Y112.187 E21.73752
G1 X111.201 Y112.415 E21.77075
G1 X110.793 Y112.849 E21.80047
G0 F3600 X111.189 Y113.011
;TYPE:WALL-OUTER
G1 F1800 X111.175 Y113.634 E21.83156
G1 X111.204 Y113.809 E21.84041
G1 X111.428 Y114.042 E21.85654
G1 X112.986 Y114.609 E21.93925
G1 X113.334 Y114.735 E21.95772
G1 X113.38 Y114.8 E21.96169
G1 X113.334 Y114.865 E21.96566
G1 X112.986 Y114.991 E21.97827
G1 X111.427 Y115.558 E22.06103
G1 X111.189 Y115.811 E22.07836
G1 X111.175 Y116.434 E22.10945
G1 X111.204 Y116.609 E22.1183
G1 X111.428 Y116.842 E22.13442
G1 X112.986 Y117.409 E22.21714
G1 X113.334 Y117.535 E22.2356
G1 X113.38 Y117.6 E22.23958
G1 X113.334 Y117.665 E22.24355
G1 X112.986 Y117.791 E22.25615
G1 X111.427 Y118.358 E22.33892
G1 X111.189 Y118.611 E22.35625
G1 X111.175 Y119.234 E22.38733
G1 X111.204 Y119.409 E22.39618
G1 X111.428 Y119.642 E22.41231
G1 X112.986 Y120.209 E22.49503
G1 X113.334 Y120.335 E22.51349
G1 X113.38 Y120.4 E22.51746
G1 X113.334 Y120.465 E22.52144
G1 X112.986 Y120.591 E22.53404
G1 X111.427 Y121.158 E22.6168
G1 X111.189 Y121.411 E22.63413
G1 X111.175 Y122.034 E22.66522
G1 X111.204 Y122.209 E22.67407
G1 X111.428 Y122.442 E22.6902
G1 X112.986 Y123.009 E22.77291
G1 X113.334 Y123.135 E22.79138
G1 X113.38 Y123.2 E22.79535
G1 X113.334 Y123.265 E22.79932
G1 X112.986 Y123.391 E22.81193
G1 X111.427 Y123.958 E22.89469
G1 X111.189 Y124.211 E22.91202
G1 X111.175 Y124.834 E22.94311
G1 X111.204 Y125.009 E22.95196
G1 X111.428 Y125.242 E22.96808
G1 X112.986 Y125.809 E23.0508
G1 X113.334 Y125.935 E23.06926
G1 X113.38 Y126 E23.07324
G1 X113.334 Y126.065 E23.07721
G1 X112.986 Y126.191 E23.08981
G1 X111.427 Y126.758 E23.17258
G1 X111.189 Y127.011 E23.18991
G1 X111.175 Y127.634 E23.221
G1 X111.204 Y127.809 E23.22985
G1 X111.428 Y128.042 E23.24597
G1 X112.986 Y128.609 E23.32869
G1 X113.334 Y128.735 E23.34715
G1 X113.38 Y128.8 E23.35112
G1 X113.334 Y128.865 E23.3551
G1 X112.986 Y128.991 E23.3677
G1 X111.427 Y129.558 E23.45046
G1 X111.2 Y129.799 E23.46698
G1 X111.175 Y129.949 E23.47457
G1 X111.175 Y131.8 E23.56691
G1 X106.575 Y131.8 E23.79641
G1 X106.575 Y92.2 E25.77206
G1 X111.175 Y92.2 E26.00156
G1 X111.175 Y110.857 E26.93236
G1 X111.207 Y111.012 E26.94025
G1 X111.428 Y111.242 E26.95617
G1 X112.986 Y111.809 E27.03888
G1 X113.334 Y111.935 E27.05735
G1 X113.38 Y112 E27.06132
G1 X113.334 Y112.065 E27.06529
G1 X112.986 Y112.191 E27.0779
G1 X111.427 Y112.758 E27.16066
G1 X111.189 Y113.011 E27.17799
G0 F3600 X111.185 Y113.211
G0 X110.384 Y113.69
;TYPE:SKIN
G1 F1800 X110.465 Y114.18 E27.20277
G1 X110.986 Y114.721 E27.24024
G1 X111.201 Y114.8 E27.25167
G1 X110.981 Y114.88 E27.26335
G1 X110.407 Y115.491 E27.30517
G1 X110.384 Y116.49 E27.35502
G1 X110.465 Y116.98 E27.3798
G1 X110.986 Y117.521 E27.41727
G1 X111.201 Y117.6 E27.4287
G1 X110.981 Y117.68 E27.44038
G1 X110.407 Y118.291 E27.48221
G1 X110.384 Y119.29 E27.53206
G1 X110.465 Y119.78 E27.55684
G1 X110.986 Y120.321 E27.59431
G1 X111.201 Y120.4 E27.60574
G1 X110.981 Y120.48 E27.61741
G1 X110.407 Y121.091 E27.65924
G1 X110.384 Y122.09 E27.70909
G1 X110.465 Y122.58 E27.73387
G1 X110.986 Y123.121 E27.77134
G1 X111.201 Y123.2 E27.78277
G1 X110.981 Y123.28 E27.79445
G1 X110.407 Y123.891 E27.83627
G1 X110.384 Y124.89 E27.88613
G1 X110.465 Y125.38 E27.9109
G1 X110.986 Y125.921 E27.94838
G1 X111.201 Y126 E27.9598
G1 X110.981 Y126.08 E27.97148
G1 X110.407 Y126.691 E28.01331
G1 X110.384 Y127.69 E28.06316
G1 X110.465 Y128.18 E28.08794
G1 X110.986 Y128.721 E28.12541
G1 X111.201 Y128.8 E28.13684
G1 X110.981 Y128.88 E28.14852
G1 X110.46 Y129.432 E28.18639
G1 X110.385 Y129.884 E28.20924
G1 X110.385 Y131.01 E28.26542
G1 X107.365 Y131.01 E28.41609
G1 X107.365 Y92.99 E30.31291
G1 X110.385 Y92.99 E30.46358
G1 X110.385 Y110.939 E31.35906
G1 X110.48 Y111.395 E31.3823
G1 X110.986 Y111.921 E31.41871
G1 X111.201 Y112 E31.43014
G1 X110.981 Y112.08 E31.44182
G1 X110.407 Y112.691 E31.48365
G1 X110.384 Y113.69 E31.5335
G0 F3600 X107.635 Y130.828
G1 F1800 X107.544 Y130.737 E31.53992
G0 F3600 X107.544 Y130.171
G1 F1800 X108.201 Y130.828 E31.58627
G0 F3600 X108.767 Y130.828
G1 F1800 X107.544 Y129.606 E31.67253
G0 F3600 X107.544 Y129.04
G1 F1800 X109.332 Y130.828 E31.79868
G0 F3600 X109.898 Y130.828
G1 F1800 X107.544 Y128.474 E31.96477
G0 F3600 X107.544 Y127.909
G1 F1800 X110.205 Y130.57 E32.15252
G0 F3600 X110.205 Y130.004
G1 F1800 X107.544 Y127.343 E32.34026
G0 F3600 X107.544 Y126.777
G1 F1800 X110.266 Y129.5 E32.53235
G0 F3600 X110.481 Y129.148
G1 F1800 X107.544 Y126.212 E32.73954
G0 F3600 X107.544 Y125.646
G1 F1800 X110.755 Y128.857 E32.96609
G1 X110.825 Y128.927
G0 F3600 X110.211 Y127.748
G1 F1800 X107.544 Y125.08 E33.1543
G0 F3600 X107.544 Y124.515
G1 F1800 X110.216 Y127.186 E33.34279
G0 F3600 X110.228 Y126.633
G1 F1800 X107.544 Y123.949 E33.53216
G0 F3600 X107.544 Y123.383
G1 F1800 X110.495 Y126.334 E33.74037
G0 F3600 X110.768 Y126.042
G1 F1800 X107.544 Y122.818 E33.96784
G0 F3600 X107.544 Y122.252
G1 F1800 X110.206 Y124.913 E34.15562
G0 F3600 X110.216 Y124.358
G1 F1800 X107.544 Y121.686 E34.34414
G0 F3600 X107.544 Y121.121
G1 F1800 X110.235 Y123.811 E34.53397
G0 F3600 X110.509 Y123.52
G1 F1800 X107.544 Y120.555 E34.74317
G0 F3600 X107.544 Y119.989
G1 F1800 X110.783 Y123.228 E34.9717
G1 X110.853 Y123.298
G0 F3600 X110.204 Y122.084
G1 F1800 X107.544 Y119.423 E35.15941
G0 F3600 X107.544 Y118.858
G1 F1800 X110.217 Y121.531 E35.34801
G0 F3600 X110.249 Y120.997
G1 F1800 X107.544 Y118.292 E35.53886
G0 F3600 X107.544 Y117.726
G1 F1800 X110.523 Y120.705 E35.74904
G0 F3600 X110.797 Y120.413
G1 F1800 X107.544 Y117.161 E35.97852
G0 F3600 X107.544 Y116.595
G1 F1800 X110.205 Y119.256 E36.16627
G0 F3600 X110.218 Y118.703
G1 F1800 X107.544 Y116.029 E36.35494
G0 F3600 X107.544 Y115.464
G1 F1800 X110.263 Y118.182 E36.54674
G0 F3600 X110.537 Y117.89
G1 F1800 X107.544 Y114.898 E36.75788
G0 F3600 X107.544 Y114.332
G1 F1800 X110.811 Y117.599 E36.98838
G1 X110.881 Y117.669
G0 F3600 X110.206 Y116.428
G1 F1800 X107.544 Y113.767 E37.17617
G0 F3600 X107.544 Y113.201
G1 F1800 X110.218 Y115.875 E37.36483
G0 F3600 X110.276 Y115.368
G1 F1800 X107.544 Y112.635 E37.55762
G0 F3600 X107.544 Y112.07
G1 F1800 X110.551 Y115.076 E37.76975
G1 X110.621 Y115.146
G0 F3600 X110.296 Y114.256
G1 F1800 X107.543 Y111.503 E37.96399
G0 F3600 X107.543 Y110.937
G1 F1800 X110.206 Y113.6 E38.15188
G0 F3600 X110.219 Y113.047
G1 F1800 X107.543 Y110.372 E38.34065
G0 F3600 X107.543 Y109.806
G1 F1800 X110.29 Y112.553 E38.53446
G0 F3600 X110.563 Y112.26
G1 F1800 X107.543 Y109.24 E38.74754
