;START_OF_HEADER
;HEADER_VERSION:0.1
;FLAVOR:Griffin
;GENERATOR.NAME:Cura_SteamEngine
;GENERATOR.VERSION:main
;GENERATOR.BUILD_DATE:2022-09-13
;TARGET_MACHINE.NAME:Ultimaker S5
;EXTRUDER_TRAIN.0.INITIAL_TEMPERATURE:200
;EXTRUDER_TRAIN.0.MATERIAL.VOLUME_USED:3606
;EXTRUDER_TRAIN.0.MATERIAL.GUID:506c9f0d-e3aa-4bd4-b2d2-23e2425b1aa9
;EXTRUDER_TRAIN.0.NOZZLE.DIAMETER:0.4
;EXTRUDER_TRAIN.0.NOZZLE.NAME:AA 0.4
;BUILD_PLATE.TYPE:glass
;BUILD_PLATE.INITIAL_TEMPERATURE:60
;BUILD_VOLUME.TEMPERATURE:28
;PRINT.TIME:2991
;PRINT.GROUPS:1
;PRINT.SIZE.MIN.X:141.088
;PRINT.SIZE.MIN.Y:96.173
;PRINT.SIZE.MIN.Z:0.2
;PRINT.SIZE.MAX.X:188.918
;PRINT.SIZE.MAX.Y:143.826
;PRINT.SIZE.MAX.Z:7
;END_OF_HEADER
;Generated with Cura_SteamEngine main
T0
M82 ;absolute extrusion mode

G92 E0
M109 S200
G280 S1
G0 Z20.001
G1 F2700 E-6.5
;LAYER_COUNT:49
;LAYER:0
M107
M204 S1000
M205 X20 Y20
G1 F600 Z2.2
G0 F1285.7 X183.731 Y134.732 Z2.2
G0 X180.365 Y137.808
;TYPE:SKIRT
G1 F600 Z0.2
G1 F2700 E0
G1 F600 X179.681 Y138.106 E0.01123
G1 X178.969 Y138.33 E0.02246
G1 X178.504 Y138.423 E0.0296
G1 X178.172 Y138.984 E0.03941
G1 X177.725 Y139.581 E0.05063
G1 X177.216 Y140.127 E0.06186
G1 X176.684 Y140.601 E0.07258
G1 X175.994 Y141.105 E0.08544
G1 X175.023 Y141.633 E0.10208
G1 X174.486 Y141.872 E0.11092
G1 X173.789 Y142.138 E0.12215
G1 X172.633 Y142.413 E0.14003
G1 X171.742 Y142.504 E0.15351
G1 X170.996 Y142.5 E0.16473
G1 X170.255 Y142.416 E0.17596
G1 X169.78 Y142.31 E0.18328
G1 X169.244 Y142.689 E0.19316
G1 X168.593 Y143.052 E0.20437
G1 X167.906 Y143.344 E0.21561
G1 X167.257 Y143.551 E0.22586
G1 X166.428 Y143.733 E0.23863
G1 X165.588 Y143.826 E0.25135
G1 X164.702 Y143.826 E0.26468
G1 X163.957 Y143.786 E0.27591
G1 X163.221 Y143.667 E0.28713
G1 X162.604 Y143.507 E0.29672
G1 X161.897 Y143.269 E0.30795
G1 X161.219 Y142.957 E0.31918
G1 X160.579 Y142.575 E0.33039
G1 X160.231 Y142.313 E0.33695
G1 X159.57 Y142.443 E0.34709
G1 X158.827 Y142.508 E0.35831
G1 X158.081 Y142.493 E0.36954
G1 X157.403 Y142.417 E0.37981
G1 X156.571 Y142.244 E0.39259
G1 X155.526 Y141.877 E0.40926
G1 X154.983 Y141.636 E0.4182
G1 X154.318 Y141.297 E0.42943
G1 X153.32 Y140.608 E0.44768
G1 X152.661 Y140.006 E0.46111
G1 X152.166 Y139.448 E0.47234
G1 X151.734 Y138.84 E0.48356
G1 X151.504 Y138.431 E0.49062
G1 X150.84 Y138.278 E0.50088
G1 X150.135 Y138.035 E0.5121
G1 X149.46 Y137.717 E0.52333
G1 X148.864 Y137.366 E0.53374
G1 X148.174 Y136.867 E0.54655
G1 X147.386 Y136.121 E0.56288
G1 X146.989 Y135.682 E0.57179
G1 X146.519 Y135.103 E0.58301
G1 X146.114 Y134.477 E0.59423
G1 X145.794 Y133.859 E0.6047
G1 X145.502 Y133.173 E0.61592
G1 X145.285 Y132.46 E0.62714
G1 X145.145 Y131.727 E0.63837
G1 X145.113 Y131.335 E0.64429
G1 X144.584 Y130.94 E0.65422
G1 X144.038 Y130.432 E0.66544
G1 X143.548 Y129.869 E0.67668
G1 X143.159 Y129.327 E0.68672
G1 X142.727 Y128.598 E0.69947
G1 X142.373 Y127.818 E0.71236
G1 X142.096 Y126.959 E0.72594
G1 X141.906 Y126.238 E0.73716
G1 X141.755 Y125.061 E0.75502
G1 X141.76 Y124.169 E0.76844
G1 X141.843 Y123.428 E0.77966
G1 X142.006 Y122.7 E0.79089
G1 X142.157 Y122.252 E0.798
G1 X141.813 Y121.628 E0.80872
G1 X141.526 Y120.94 E0.81994
G1 X141.313 Y120.225 E0.83117
G1 X141.178 Y119.519 E0.84199
G1 X141.093 Y118.778 E0.85321
G1 X141.088 Y117.931 E0.86596
G1 X141.179 Y117.055 E0.87921
G1 X141.295 Y116.318 E0.89044
G1 X141.49 Y115.598 E0.90166
G1 X141.707 Y115.013 E0.91105
G1 X142.014 Y114.334 E0.92227
G1 X142.393 Y113.691 E0.9335
G1 X142.838 Y113.093 E0.94471
G1 X143.152 Y112.753 E0.95168
G1 X143.092 Y112.062 E0.96212
G1 X143.107 Y111.316 E0.97335
G1 X143.202 Y110.577 E0.98456
G1 X143.369 Y109.857 E0.99568
G1 X143.593 Y109.146 E1.0069
G1 X143.934 Y108.366 E1.01971
G1 X144.386 Y107.586 E1.03327
G1 X144.794 Y106.962 E1.04449
G1 X145.58 Y106.051 E1.0626
G1 X146.247 Y105.459 E1.07602
G1 X146.855 Y105.026 E1.08725
G1 X147.505 Y104.661 E1.09847
G1 X147.926 Y104.481 E1.10536
G1 X148.149 Y103.831 E1.1157
G1 X148.466 Y103.156 E1.12693
G1 X148.852 Y102.518 E1.13815
G1 X149.293 Y101.933 E1.14917
G1 X149.786 Y101.373 E1.1604
G1 X150.417 Y100.797 E1.17326
G1 X151.138 Y100.272 E1.18668
G1 X151.764 Y99.866 E1.19791
G1 X152.429 Y99.529 E1.20912
G1 X153.032 Y99.291 E1.21888
G1 X153.744 Y99.069 E1.2301
G1 X154.475 Y98.923 E1.24132
G1 X155.218 Y98.857 E1.25255
G1 X155.651 Y98.865 E1.25906
G1 X156.104 Y98.376 E1.26909
G1 X156.666 Y97.886 E1.28031
G1 X157.278 Y97.459 E1.29154
G1 X157.891 Y97.111 E1.30215
G1 X158.67 Y96.762 E1.315
G1 X159.708 Y96.453 E1.33129
G1 X160.29 Y96.328 E1.34025
G1 X161.027 Y96.211 E1.35148
G1 X161.772 Y96.173 E1.36271
G1 X162.422 Y96.201 E1.3725
G1 X163.163 Y96.286 E1.38372
G1 X163.891 Y96.451 E1.39496
G1 X164.597 Y96.692 E1.40618
G1 X164.991 Y96.876 E1.41273
G1 X165.64 Y96.601 E1.42333
G1 X166.354 Y96.386 E1.43455
G1 X167.087 Y96.248 E1.44578
G1 X167.822 Y96.186 E1.45688
G1 X168.568 Y96.18 E1.4681
G1 X169.422 Y96.266 E1.48102
G1 X170.291 Y96.453 E1.4944
G1 X171.01 Y96.649 E1.50561
G1 X172.102 Y97.106 E1.52343
G1 X172.872 Y97.555 E1.53684
G1 X173.472 Y97.998 E1.54806
G1 X174.022 Y98.502 E1.55929
G1 X174.336 Y98.86 E1.56645
G1 X174.989 Y98.868 E1.57628
G1 X175.73 Y98.956 E1.58751
G1 X176.457 Y99.123 E1.59874
G1 X177.102 Y99.335 E1.60895
G1 X177.879 Y99.674 E1.62171
G1 X178.617 Y100.094 E1.63449
G1 X179.343 Y100.623 E1.64801
G1 X179.922 Y101.094 E1.65924
G1 X180.447 Y101.624 E1.67046
G1 X180.857 Y102.124 E1.68019
G1 X181.287 Y102.733 E1.69141
G1 X181.65 Y103.384 E1.70263
G1 X181.941 Y104.071 E1.71386
G1 X182.061 Y104.469 E1.72011
G1 X182.692 Y104.763 E1.73059
G1 X183.331 Y105.149 E1.74182
G1 X183.924 Y105.601 E1.75304
G1 X184.414 Y106.05 E1.76304
G1 X184.986 Y106.678 E1.77583
G1 X185.612 Y107.585 E1.79241
G1 X185.91 Y108.099 E1.80135
G1 X186.249 Y108.764 E1.81259
G1 X186.515 Y109.46 E1.8238
G1 X186.688 Y110.081 E1.8335
G1 X186.836 Y110.812 E1.84472
G1 X186.906 Y111.555 E1.85595
G1 X186.895 Y112.301 E1.86718
G1 X186.842 Y112.74 E1.87383
G1 X187.27 Y113.227 E1.88359
G1 X187.7 Y113.836 E1.89481
G1 X188.062 Y114.488 E1.90603
G1 X188.348 Y115.142 E1.91677
G1 X188.615 Y115.953 E1.92962
G1 X188.82 Y117.052 E1.94645
G1 X188.881 Y117.639 E1.95533
G1 X188.918 Y118.384 E1.96655
G1 X188.875 Y119.128 E1.97777
G1 X188.782 Y119.748 E1.9872
G1 X188.62 Y120.476 E1.99842
G1 X188.382 Y121.183 E2.00965
G1 X188.068 Y121.86 E2.02088
G1 X187.843 Y122.236 E2.02747
G1 X188.045 Y122.897 E2.03788
G1 X188.186 Y123.629 E2.04909
G1 X188.248 Y124.372 E2.06031
G1 X188.242 Y125.057 E2.07062
G1 X188.155 Y125.903 E2.08342
G1 X187.903 Y126.959 E2.09976
G1 X187.721 Y127.523 E2.10868
G1 X187.454 Y128.22 E2.11991
G1 X187.114 Y128.884 E2.13113
G1 X186.755 Y129.446 E2.14117
G1 X186.31 Y130.044 E2.15239
G1 X185.802 Y130.591 E2.16362
G1 X185.24 Y131.081 E2.17484
G1 X184.894 Y131.322 E2.18119
G1 X184.812 Y131.995 E2.19139
G1 X184.644 Y132.721 E2.2026
G1 X184.399 Y133.426 E2.21383
G1 X184.096 Y134.081 E2.22469
G1 X183.731 Y134.732 E2.23593
G1 X183.234 Y135.434 E2.24887
G1 X182.613 Y136.121 E2.2628
G1 X182.084 Y136.647 E2.27403
G1 X181.14 Y137.365 E2.29188
G1 X180.365 Y137.808 E2.30531
G0 F1285.7 X176.106 Y139.835
G1 F600 X175.428 Y140.327 E2.31792
G1 X174.633 Y140.756 E2.33151
G1 X174.096 Y140.995 E2.34036
G1 X173.448 Y141.239 E2.35078
G1 X172.476 Y141.466 E2.3658
G1 X171.646 Y141.547 E2.37835
G1 X170.954 Y141.535 E2.38876
G1 X170.267 Y141.443 E2.39919
G1 X169.554 Y141.243 E2.41034
G1 X169.219 Y141.536 E2.41703
G1 X168.648 Y141.929 E2.42747
G1 X168.037 Y142.254 E2.43788
G1 X167.04 Y142.618 E2.45385
G1 X166.223 Y142.794 E2.46643
G1 X165.297 Y142.866 E2.48041
G1 X164.702 Y142.866 E2.48936
G1 X164.011 Y142.826 E2.49978
G1 X162.996 Y142.628 E2.51534
G1 X162.205 Y142.359 E2.52791
G1 X161.58 Y142.061 E2.53833
G1 X160.993 Y141.694 E2.54875
G1 X160.457 Y141.245 E2.55927
G1 X160.018 Y141.38 E2.56618
G1 X159.337 Y141.506 E2.5766
G1 X158.646 Y141.552 E2.58702
G1 X157.586 Y141.477 E2.60302
G1 X156.768 Y141.303 E2.6156
G1 X155.915 Y140.999 E2.62923
G1 X155.372 Y140.758 E2.63817
G1 X154.756 Y140.441 E2.64859
G1 X153.924 Y139.86 E2.66386
G1 X153.309 Y139.297 E2.67641
G1 X152.857 Y138.773 E2.68683
G1 X152.467 Y138.2 E2.69726
G1 X152.146 Y137.547 E2.70821
G1 X151.682 Y137.49 E2.71524
G1 X151.009 Y137.327 E2.72566
G1 X150.359 Y137.088 E2.73608
G1 X149.416 Y136.582 E2.75219
G1 X148.739 Y136.089 E2.76479
G1 X148.098 Y135.477 E2.77813
G1 X147.701 Y135.038 E2.78703
G1 X147.267 Y134.499 E2.79745
G1 X146.713 Y133.57 E2.81372
G1 X146.387 Y132.798 E2.82633
G1 X146.194 Y132.133 E2.83676
G1 X146.078 Y131.45 E2.84718
G1 X146.055 Y130.787 E2.85716
G1 X145.673 Y130.559 E2.86386
G1 X145.123 Y130.138 E2.87428
G1 X144.625 Y129.656 E2.88471
G1 X143.979 Y128.833 E2.90045
G1 X143.556 Y128.111 E2.91305
G1 X143.192 Y127.229 E2.92741
G1 X143.01 Y126.665 E2.93632
G1 X142.836 Y125.994 E2.94676
G1 X142.714 Y125.007 E2.96172
G1 X142.721 Y124.176 E2.97423
G1 X142.807 Y123.489 E2.98465
G1 X142.972 Y122.816 E2.99507
G1 X143.242 Y122.136 E3.00608
G1 X142.962 Y121.732 E3.01348
G1 X142.636 Y121.121 E3.0239
G1 X142.382 Y120.477 E3.03432
G1 X142.14 Y119.498 E3.0495
G1 X142.049 Y118.671 E3.06202
G1 X142.073 Y117.744 E3.07597
G1 X142.134 Y117.154 E3.0849
G1 X142.245 Y116.47 E3.09532
G1 X142.542 Y115.49 E3.11073
G1 X142.89 Y114.732 E3.12329
G1 X143.248 Y114.14 E3.1337
G1 X143.673 Y113.593 E3.14412
G1 X144.191 Y113.09 E3.15499
G1 X144.101 Y112.621 E3.16217
G1 X144.049 Y111.931 E3.17259
G1 X144.077 Y111.239 E3.18301
G1 X144.255 Y110.229 E3.19844
G1 X144.509 Y109.437 E3.21096
G1 X144.918 Y108.584 E3.22519
G1 X145.217 Y108.068 E3.23417
G1 X145.598 Y107.49 E3.24458
G1 X146.26 Y106.729 E3.25976
G1 X146.884 Y106.179 E3.27228
G1 X147.453 Y105.785 E3.2827
G1 X148.064 Y105.458 E3.29312
G1 X148.738 Y105.208 E3.30394
G1 X148.844 Y104.752 E3.31099
G1 X149.077 Y104.099 E3.32142
G1 X149.384 Y103.478 E3.33185
G1 X149.953 Y102.632 E3.34719
G1 X150.506 Y102.01 E3.35971
G1 X151.221 Y101.399 E3.37387
G1 X151.703 Y101.048 E3.38284
G1 X152.285 Y100.673 E3.39326
G1 X153.233 Y100.232 E3.40899
G1 X154.029 Y99.987 E3.42152
G1 X154.71 Y99.86 E3.43195
G1 X155.401 Y99.813 E3.44237
G1 X156.096 Y99.862 E3.45286
G1 X156.368 Y99.499 E3.45968
G1 X156.844 Y98.997 E3.47009
G1 X157.376 Y98.552 E3.48053
G1 X158.297 Y97.979 E3.49685
G1 X159.061 Y97.641 E3.50942
G1 X159.91 Y97.392 E3.52274
G1 X160.492 Y97.267 E3.5317
G1 X161.176 Y97.161 E3.54211
G1 X162.223 Y97.142 E3.55787
G1 X163.051 Y97.241 E3.57042
G1 X163.725 Y97.402 E3.58085
G1 X164.375 Y97.64 E3.59126
G1 X164.993 Y97.967 E3.60179
G1 X165.418 Y97.733 E3.60909
G1 X166.059 Y97.471 E3.61951
G1 X166.726 Y97.285 E3.62993
G1 X167.74 Y97.144 E3.64533
G1 X168.573 Y97.142 E3.65787
G1 X169.507 Y97.267 E3.67205
G1 X170.089 Y97.392 E3.68101
G1 X170.756 Y97.576 E3.69142
G1 X171.67 Y97.963 E3.70636
G1 X172.386 Y98.385 E3.71886
G1 X172.938 Y98.803 E3.72928
G1 X173.438 Y99.281 E3.73969
G1 X173.892 Y99.857 E3.75073
G1 X174.333 Y99.816 E3.75739
G1 X175.026 Y99.833 E3.76783
G1 X175.711 Y99.929 E3.77823
G1 X176.731 Y100.219 E3.79419
G1 X177.494 Y100.555 E3.80674
G1 X178.296 Y101.048 E3.8209
G1 X178.778 Y101.399 E3.82988
G1 X179.313 Y101.838 E3.84029
G1 X180.023 Y102.604 E3.85601
G1 X180.501 Y103.286 E3.86854
G1 X180.831 Y103.895 E3.87897
G1 X181.088 Y104.538 E3.88939
G1 X181.255 Y105.201 E3.89967
G1 X181.704 Y105.357 E3.90683
G1 X182.328 Y105.657 E3.91725
G1 X182.913 Y106.028 E3.92767
G1 X183.714 Y106.703 E3.94343
G1 X184.273 Y107.323 E3.956
G1 X184.782 Y108.067 E3.96956
G1 X185.08 Y108.581 E3.9785
G1 X185.392 Y109.199 E3.98892
G1 X185.731 Y110.182 E4.00457
G1 X185.894 Y111.002 E4.01715
G1 X185.949 Y111.692 E4.02757
G1 X185.925 Y112.384 E4.03799
G1 X185.805 Y113.079 E4.0486
G1 X186.126 Y113.375 E4.05517
G1 X186.577 Y113.9 E4.06559
G1 X186.965 Y114.474 E4.07601
G1 X187.443 Y115.455 E4.09243
G1 X187.701 Y116.252 E4.10504
G1 X187.865 Y117.151 E4.11879
G1 X187.926 Y117.738 E4.12767
G1 X187.958 Y118.43 E4.1381
G1 X187.866 Y119.451 E4.15352
G1 X187.682 Y120.266 E4.1661
G1 X187.452 Y120.919 E4.17652
G1 X187.149 Y121.541 E4.18693
G1 X186.759 Y122.127 E4.19752
G1 X186.942 Y122.56 E4.20459
G1 X187.137 Y123.225 E4.21502
G1 X187.254 Y123.907 E4.22544
G1 X187.287 Y124.972 E4.24147
G1 X187.198 Y125.803 E4.25405
G1 X186.989 Y126.665 E4.26739
G1 X186.807 Y127.229 E4.27631
G1 X186.557 Y127.874 E4.28672
G1 X186.042 Y128.8 E4.30267
G1 X185.54 Y129.468 E4.31524
G1 X185.063 Y129.97 E4.32566
G1 X184.531 Y130.414 E4.33609
G1 X183.948 Y130.778 E4.34643
G1 X183.94 Y131.24 E4.35339
G1 X183.849 Y131.926 E4.3638
G1 X183.679 Y132.598 E4.37423
G1 X183.303 Y133.537 E4.38945
G1 X182.893 Y134.261 E4.40197
G1 X182.298 Y135.038 E4.4167
G1 X181.901 Y135.477 E4.42561
G1 X181.408 Y135.963 E4.43602
G1 X180.614 Y136.562 E4.45099
G1 X179.89 Y136.972 E4.46351
G1 X179.251 Y137.241 E4.47395
G1 X178.587 Y137.435 E4.48436
G1 X177.863 Y137.541 E4.49537
G1 X177.678 Y137.942 E4.50201
G1 X177.318 Y138.533 E4.51243
G1 X176.891 Y139.078 E4.52285
G1 X176.106 Y139.835 E4.53926
G1 F2700 E-1.96074
G0 F1285.7 X164.369 Y139.986
G1 F2700 E4.53926
G1 F600 X163.344 Y139.738 E4.55513
G1 X162.726 Y139.391 E4.56579
G1 X162.277 Y139.026 E4.5745
G1 X161.701 Y138.394 E4.58737
G1 X161.236 Y137.546 E4.60192
G1 X160.445 Y138.153 E4.61693
G1 X159.415 Y138.588 E4.63375
G1 X158.701 Y138.67 E4.64457
G1 X158.008 Y138.629 E4.65501
G1 X157.299 Y138.463 E4.66597
G1 X156.24 Y137.993 E4.68341
G1 X155.404 Y137.352 E4.69926
G1 X154.981 Y136.79 E4.70984
G1 X154.711 Y136.259 E4.71881
G1 X154.44 Y135.444 E4.73173
G1 X154.361 Y134.486 E4.7462
G1 X153.399 Y134.717 E4.76109
G1 X152.272 Y134.696 E4.77805
G1 X151.585 Y134.479 E4.78889
G1 X150.965 Y134.157 E4.7994
G1 X150.388 Y133.717 E4.81032
G1 X149.612 Y132.858 E4.82774
G1 X149.104 Y131.911 E4.84392
G1 X148.951 Y131.215 E4.85464
G1 X148.925 Y130.665 E4.86293
G1 X149.007 Y129.802 E4.87597
G1 X149.326 Y128.892 E4.89048
G1 X148.345 Y128.708 E4.9055
G1 X147.339 Y128.238 E4.92221
G1 X146.8 Y127.765 E4.933
G1 X146.368 Y127.23 E4.94335
G1 X146.01 Y126.584 E4.95446
G1 X145.649 Y125.464 E4.97217
G1 X145.569 Y124.427 E4.98782
G1 X145.702 Y123.739 E4.99837
G1 X145.91 Y123.196 E5.00712
G1 X146.336 Y122.438 E5.0202
G1 X147.001 Y121.736 E5.03476
G1 X146.179 Y121.171 E5.04977
G1 X145.625 Y120.527 E5.06255
G1 X145.144 Y119.655 E5.07754
G1 X144.975 Y119.008 E5.0876
G1 X144.913 Y118.286 E5.0985
G1 X145.033 Y117.116 E5.1162
G1 X145.385 Y116.127 E5.132
G1 X145.789 Y115.55 E5.1426
G1 X146.211 Y115.13 E5.15156
G1 X146.907 Y114.618 E5.16456
G1 X147.787 Y114.252 E5.1789
G1 X147.267 Y113.401 E5.19391
G1 X146.942 Y112.327 E5.2108
G1 X146.936 Y111.603 E5.22169
G1 X147.045 Y110.936 E5.23186
G1 X147.284 Y110.244 E5.24288
G1 X147.708 Y109.512 E5.25561
G1 X147.993 Y109.101 E5.26314
G1 X148.593 Y108.471 E5.27623
G1 X149.199 Y108.107 E5.28687
G1 X149.733 Y107.902 E5.29548
G1 X150.585 Y107.71 E5.30862
G1 X151.55 Y107.735 E5.32314
G1 X151.421 Y106.746 E5.33815
G1 X151.563 Y105.629 E5.3551
G1 X151.849 Y104.971 E5.36589
G1 X152.217 Y104.409 E5.376
G1 X152.713 Y103.875 E5.38697
G1 X153.669 Y103.178 E5.40478
G1 X154.65 Y102.777 E5.42072
G1 X155.349 Y102.695 E5.43131
G1 X155.927 Y102.728 E5.44003
G1 X156.771 Y102.901 E5.45299
G1 X157.64 Y103.312 E5.46746
G1 X157.924 Y102.355 E5.48248
G1 X158.498 Y101.402 E5.49922
G1 X159.027 Y100.914 E5.51005
G1 X159.621 Y100.534 E5.52066
G1 X160.286 Y100.257 E5.5315
G1 X161.427 Y100.012 E5.54907
G1 X162.484 Y100.043 E5.56498
G1 X163.159 Y100.252 E5.57561
G1 X163.671 Y100.515 E5.58427
G1 X164.373 Y101.016 E5.59725
G1 X164.999 Y101.748 E5.61175
G1 X165.646 Y100.99 E5.62674
G1 X166.576 Y100.344 E5.64378
G1 X167.259 Y100.118 E5.65461
G1 X167.925 Y100.017 E5.66475
G1 X168.654 Y100.03 E5.67572
G1 X169.808 Y100.277 E5.69348
G1 X170.742 Y100.724 E5.70906
G1 X171.274 Y101.185 E5.71965
G1 X171.647 Y101.645 E5.72857
G1 X172.086 Y102.39 E5.74158
G1 X172.359 Y103.312 E5.75605
G1 X173.266 Y102.883 E5.77115
G1 X174.357 Y102.673 E5.78787
G1 X175.067 Y102.739 E5.7986
G1 X175.735 Y102.919 E5.80901
G1 X176.401 Y103.23 E5.82007
G1 X177.351 Y103.922 E5.83776
G1 X178.035 Y104.729 E5.85367
G1 X178.329 Y105.374 E5.86434
G1 X178.472 Y105.913 E5.87273
G1 X178.573 Y106.778 E5.88584
G1 X178.449 Y107.735 E5.90036
