;START_OF_HEADER
;HEADER_VERSION:0.1
;FLAVOR:Griffin
;GENERATOR.NAME:Cura_SteamEngine
;GENERATOR.VERSION:main
;GENERATOR.BUILD_DATE:2022-09-13
;TARGET_MACHINE.NAME:Ultimaker S5
;EXTRUDER_TRAIN.0.INITIAL_TEMPERATURE:200
;EXTRUDER_TRAIN.0.MATERIAL.VOLUME_USED:1254
;EXTRUDER_TRAIN.0.MATERIAL.GUID:506c9f0d-e3aa-4bd4-b2d2-23e2425b1aa9
;EXTRUDER_TRAIN.0.NOZZLE.DIAMETER:0.4
;EXTRUDER_TRAIN.0.NOZZLE.NAME:AA 0.4
;BUILD_PLATE.TYPE:glass
;BUILD_PLATE.INITIAL_TEMPERATURE:60
;BUILD_VOLUME.TEMPERATURE:28
;PRINT.TIME:1296
;PRINT.GROUPS:1
;PRINT.SIZE.MIN.X:155.545
;PRINT.SIZE.MIN.Y:91.503
;PRINT.SIZE.MIN.Z:0.2
;PRINT.SIZE.MAX.X:174.455
;PRINT.SIZE.MAX.Y:148.509
;PRINT.SIZE.MAX.Z:7.2
;END_OF_HEADER
;Generated with Cura_SteamEngine main
T0
M82 ;absolute extrusion mode

G92 E0
M109 S200
G280 S1
G0 Z20.001
G1 F2700 E-6.5
;LAYER_COUNT:72
;LAYER:0
M107
M204 S1000
M205 X20 Y20
G1 F600 Z2.2
G0 F1285.7 X173.478 Y145.104 Z2.2
G0 X170.15 Y147.983
;TYPE:SKIRT
G1 F600 Z0.2
G1 F2700 E0
G1 F600 X169.446 Y148.23 E0.01123
G1 X168.72 Y148.4 E0.02245
G1 X167.842 Y148.509 E0.03576
G1 X162.505 Y148.509 E0.11608
G1 X161.76 Y148.469 E0.1273
G1 X161.024 Y148.35 E0.13852
G1 X160.305 Y148.152 E0.14974
G1 X159.611 Y147.879 E0.16097
G1 X158.95 Y147.532 E0.1722
G1 X158.33 Y147.118 E0.18342
G1 X157.758 Y146.639 E0.19465
G1 X157.24 Y146.102 E0.20588
G1 X156.783 Y145.512 E0.21711
G1 X156.392 Y144.877 E0.22833
G1 X156.071 Y144.204 E0.23955
G1 X155.824 Y143.5 E0.25078
G1 X155.654 Y142.774 E0.262
G1 X155.545 Y141.896 E0.27531
G1 X155.545 Y101.489 E0.88337
G1 X155.585 Y100.744 E0.8946
G1 X155.704 Y100.008 E0.90582
G1 X155.902 Y99.289 E0.91704
G1 X156.175 Y98.595 E0.92827
G1 X156.522 Y97.934 E0.9395
G1 X156.936 Y97.314 E0.95072
G1 X157.415 Y96.742 E0.96195
G1 X157.952 Y96.224 E0.97317
G1 X158.501 Y95.799 E0.98362
G1 X158.973 Y94.981 E0.99783
G1 X159.38 Y94.356 E1.00906
G1 X159.852 Y93.778 E1.02029
G1 X160.383 Y93.254 E1.03151
G1 X160.966 Y92.79 E1.04273
G1 X161.596 Y92.391 E1.05395
G1 X162.266 Y92.061 E1.06519
G1 X162.966 Y91.805 E1.0764
G1 X163.69 Y91.626 E1.08763
G1 X164.429 Y91.525 E1.09885
G1 X165.175 Y91.503 E1.11008
G1 X165.919 Y91.562 E1.12131
G1 X166.652 Y91.7 E1.13254
G1 X167.366 Y91.915 E1.14376
G1 X168.053 Y92.206 E1.15499
G1 X168.705 Y92.568 E1.16621
G1 X169.314 Y92.998 E1.17743
G1 X169.874 Y93.491 E1.18865
G1 X170.378 Y94.041 E1.19988
G1 X170.88 Y94.723 E1.21262
G1 X171.506 Y95.811 E1.23151
G1 X171.67 Y95.92 E1.23448
G1 X172.242 Y96.399 E1.2457
G1 X172.76 Y96.936 E1.25693
G1 X173.217 Y97.526 E1.26816
G1 X173.608 Y98.161 E1.27938
G1 X173.929 Y98.834 E1.2906
G1 X174.176 Y99.538 E1.30183
G1 X174.346 Y100.264 E1.31305
G1 X174.455 Y101.142 E1.32637
G1 X174.455 Y141.549 E1.93443
G1 X174.415 Y142.294 E1.94566
G1 X174.296 Y143.03 E1.95688
G1 X174.098 Y143.749 E1.9681
G1 X173.825 Y144.443 E1.97932
G1 X173.478 Y145.104 E1.99056
G1 X173.064 Y145.724 E2.00177
G1 X172.585 Y146.296 E2.013
G1 X172.048 Y146.814 E2.02423
G1 X171.458 Y147.271 E2.03546
G1 X170.823 Y147.662 E2.04668
G1 X170.15 Y147.983 E2.0579
G0 F1285.7 X167.775 Y144.669
G1 F600 X162.17 Y144.669 E2.14225
G1 X161.523 Y144.51 E2.15228
G1 X161.063 Y144.316 E2.15979
G1 X160.265 Y143.721 E2.17477
G1 X159.947 Y143.336 E2.18228
G1 X159.695 Y142.905 E2.18979
G1 X159.515 Y142.439 E2.19731
G1 X159.385 Y141.829 E2.2067
G1 X159.385 Y101.112 E2.81943
G1 X159.738 Y100.047 E2.83631
G1 X160.333 Y99.249 E2.85129
G1 X160.718 Y98.931 E2.8588
G1 X161.308 Y98.618 E2.86885
G1 X162.467 Y96.609 E2.90376
G1 X162.928 Y96.13 E2.91376
G1 X163.767 Y95.595 E2.92873
G1 X164.24 Y95.435 E2.93625
G1 X164.732 Y95.353 E2.94375
G1 X165.725 Y95.426 E2.95874
G1 X166.2 Y95.58 E2.96625
G1 X167.046 Y96.104 E2.98123
G1 X167.395 Y96.461 E2.98874
G1 X167.704 Y96.903 E2.99686
G1 X168.693 Y98.619 E3.02666
G1 X169.36 Y98.988 E3.03813
G1 X170.053 Y99.702 E3.05311
G1 X170.305 Y100.133 E3.06062
G1 X170.485 Y100.599 E3.06814
G1 X170.615 Y101.209 E3.07752
G1 X170.615 Y141.926 E3.69025
G1 X170.262 Y142.991 E3.70713
G1 X169.667 Y143.789 E3.72211
G1 X169.282 Y144.107 E3.72963
G1 X168.851 Y144.359 E3.73714
G1 X168.385 Y144.539 E3.74466
G1 X167.775 Y144.669 E3.75404
G0 F1285.7 X167.616 Y142.269
G1 F600 X162.342 Y142.269 E3.83341
G1 X162.059 Y142.114 E3.83826
G1 X161.899 Y141.937 E3.84186
G1 X161.785 Y141.67 E3.84622
G1 X161.785 Y101.489 E4.45089
G1 X161.94 Y101.043 E4.45799
G1 X162.337 Y100.789 E4.46508
G1 X162.837 Y100.769 E4.47261
G1 X164.458 Y97.961 E4.52141
G1 X164.734 Y97.792 E4.52628
G1 X165.205 Y97.771 E4.53337
G1 X165.42 Y97.876 E4.53697
G1 X165.625 Y98.101 E4.54155
G1 X167.163 Y100.769 E4.58789
G1 X167.731 Y100.809 E4.59646
G1 X168.101 Y101.101 E4.60356
G1 X168.215 Y101.368 E4.60792
G1 X168.215 Y141.549 E5.21259
G1 X168.06 Y141.995 E5.21969
G1 X167.883 Y142.155 E5.22328
G1 X167.616 Y142.269 E5.22765
G0 F1285.7 X167.567 Y141.789
G1 F600 X162.407 Y141.789 E5.3053
G1 X162.265 Y141.621 E5.30861
G1 X162.265 Y101.391 E5.91401
G1 X162.433 Y101.249 E5.91732
G1 X163.114 Y101.249 E5.92757
G1 X164.842 Y98.256 E5.97958
G1 X165.028 Y98.222 E5.98242
G1 X165.177 Y98.286 E5.98486
G1 X166.885 Y101.249 E6.03633
G1 X167.593 Y101.249 E6.04698
G1 X167.735 Y101.417 E6.05029
G1 X167.735 Y141.647 E6.65569
G1 X167.567 Y141.789 E6.659
G0 F1285.7 X167.495 Y142.749
G1 F600 X162.296 Y142.749 E6.73724
G1 X161.912 Y142.592 E6.74348
G1 X161.665 Y142.406 E6.74813
G1 X161.351 Y141.879 E6.75737
G1 X161.305 Y141.549 E6.76238
G1 X161.305 Y101.252 E7.36879
G1 X161.648 Y100.649 E7.37923
G1 X162.175 Y100.335 E7.38846
G1 X162.56 Y100.289 E7.39429
G1 X164.067 Y97.679 E7.43965
G1 X164.394 Y97.426 E7.44587
G1 X164.678 Y97.305 E7.45051
G1 X165.292 Y97.297 E7.45975
G1 X165.829 Y97.592 E7.46897
G1 X166.041 Y97.862 E7.47414
G1 X167.44 Y100.289 E7.5163
G1 X167.802 Y100.329 E7.52178
G1 X168.335 Y100.632 E7.531
G1 X168.649 Y101.159 E7.54023
G1 X168.695 Y101.489 E7.54525
G1 X168.695 Y141.786 E8.15166
G1 X168.352 Y142.389 E8.1621
G1 X167.825 Y142.703 E8.17133
G1 X167.495 Y142.749 E8.17634
G0 F1285.7 X160.825 Y141.549
G1 F600 X160.825 Y101.211 E8.78336
G1 X161.173 Y100.466 E8.79574
G1 X161.426 Y100.201 E8.80125
G1 X161.73 Y99.998 E8.80675
G1 X162.265 Y99.841 E8.81514
G1 X163.67 Y97.407 E8.85744
G1 X164.038 Y97.085 E8.86479
G1 X164.71 Y96.806 E8.87574
G1 X165.437 Y96.839 E8.8867
G1 X166.082 Y97.175 E8.89764
G1 X166.378 Y97.485 E8.90409
G1 X167.732 Y99.835 E8.9449
G1 X168.205 Y99.967 E8.95229
G1 X168.783 Y100.41 E8.96325
G1 X168.986 Y100.714 E8.96875
G1 X169.118 Y101.056 E8.97427
G1 X169.175 Y101.489 E8.98084
G1 X169.175 Y141.827 E9.58787
G1 X168.827 Y142.572 E9.60024
G1 X168.574 Y142.837 E9.60575
G1 X168.27 Y143.04 E9.61125
G1 X167.928 Y143.172 E9.61677
G1 X167.495 Y143.229 E9.62334
G1 X162.258 Y143.229 E9.70215
G1 X161.795 Y143.071 E9.70951
G1 X161.217 Y142.628 E9.72047
G1 X161.014 Y142.324 E9.72597
G1 X160.882 Y141.982 E9.73149
G1 X160.825 Y141.549 E9.73806
G0 F1285.7 X160.345 Y141.549
G1 F600 X160.345 Y101.211 E10.34509
G1 X160.503 Y100.678 E10.35345
G1 X160.954 Y99.985 E10.36589
G1 X161.271 Y99.716 E10.37215
G1 X161.962 Y99.404 E10.38356
G1 X163.269 Y97.141 E10.42289
G1 X163.673 Y96.758 E10.43126
G1 X164.023 Y96.535 E10.43751
G1 X164.41 Y96.383 E10.44377
G1 X165.234 Y96.314 E10.45621
G1 X166.023 Y96.558 E10.46864
G1 X166.368 Y96.789 E10.47489
G1 X166.746 Y97.163 E10.48289
G1 X168.04 Y99.408 E10.52188
G1 X168.674 Y99.679 E10.53226
G1 X168.999 Y99.938 E10.53851
G1 X169.268 Y100.255 E10.54477
G1 X169.601 Y101.011 E10.5572
G1 X169.655 Y101.489 E10.56444
G1 X169.655 Y141.827 E11.17146
G1 X169.497 Y142.36 E11.17983
G1 X169.046 Y143.053 E11.19227
G1 X168.729 Y143.322 E11.19853
G1 X167.973 Y143.655 E11.21096
G1 X167.495 Y143.709 E11.2182
G1 X162.227 Y143.709 E11.29747
G1 X161.694 Y143.551 E11.30584
G1 X161.001 Y143.1 E11.31828
G1 X160.732 Y142.783 E11.32454
G1 X160.399 Y142.027 E11.33697
G1 X160.345 Y141.549 E11.34421
G0 F1285.7 X159.865 Y141.549
G1 F600 X159.865 Y101.489 E11.94705
G1 X160.023 Y100.588 E11.96081
G1 X160.48 Y99.795 E11.97459
G1 X160.804 Y99.47 E11.98149
G1 X161.18 Y99.206 E11.98841
G1 X161.643 Y98.998 E11.99604
G1 X162.869 Y96.874 E12.03295
G1 X163.302 Y96.44 E12.04218
G1 X163.678 Y96.176 E12.04909
G1 X164.537 Y95.862 E12.06285
G1 X164.995 Y95.821 E12.06977
G1 X165.896 Y95.977 E12.08353
G1 X166.69 Y96.432 E12.0973
G1 X167.129 Y96.867 E12.1066
G1 X168.356 Y98.996 E12.14358
G1 X168.812 Y99.201 E12.15111
G1 X169.189 Y99.464 E12.15802
G1 X169.514 Y99.788 E12.16493
G1 X169.973 Y100.579 E12.17869
G1 X170.093 Y101.022 E12.1856
G1 X170.135 Y101.489 E12.19265
G1 X170.135 Y141.549 E12.79549
G1 X169.977 Y142.45 E12.80926
G1 X169.52 Y143.243 E12.82303
G1 X169.196 Y143.568 E12.82994
G1 X168.405 Y144.027 E12.8437
G1 X167.807 Y144.189 E12.85303
G1 X162.199 Y144.189 E12.93742
G1 X161.604 Y144.031 E12.94668
G1 X160.811 Y143.574 E12.96045
G1 X160.486 Y143.25 E12.96736
G1 X160.027 Y142.459 E12.98112
G1 X159.907 Y142.016 E12.98803
G1 X159.865 Y141.549 E12.99508
G0 F1285.7 X158.905 Y141.766
G1 F600 X158.905 Y101.489 E13.60119
G1 X158.945 Y100.954 E13.60926
G1 X159.064 Y100.431 E13.61734
G1 X159.259 Y99.932 E13.6254
G1 X159.527 Y99.467 E13.63347
G1 X159.86 Y99.047 E13.64154
G1 X160.252 Y98.681 E13.64961
G1 X160.694 Y98.378 E13.65768
G1 X160.969 Y98.244 E13.66228
G1 X161.883 Y96.661 E13.68979
G1 X162.185 Y96.218 E13.69785
G1 X162.55 Y95.825 E13.70593
G1 X162.968 Y95.49 E13.71399
G1 X163.432 Y95.221 E13.72206
G1 X163.931 Y95.024 E13.73013
G1 X164.454 Y94.903 E13.73821
G1 X164.988 Y94.861 E13.74627
G1 X165.523 Y94.899 E13.75434
G1 X166.047 Y95.016 E13.76242
G1 X166.547 Y95.21 E13.77049
G1 X167.013 Y95.475 E13.77856
G1 X167.434 Y95.807 E13.78663
G1 X167.801 Y96.198 E13.7947
G1 X168.12 Y96.663 E13.80318
G1 X169.024 Y98.232 E13.83043
G1 X169.517 Y98.511 E13.83896
G1 X169.937 Y98.844 E13.84702
G1 X170.303 Y99.236 E13.85509
G1 X170.606 Y99.678 E13.86316
G1 X170.841 Y100.161 E13.87124
G1 X171.001 Y100.672 E13.8793
G1 X171.095 Y101.272 E13.88844
G1 X171.095 Y141.549 E14.49454
G1 X171.055 Y142.084 E14.50262
G1 X170.936 Y142.607 E14.51069
G1 X170.741 Y143.106 E14.51875
G1 X170.473 Y143.571 E14.52683
G1 X170.14 Y143.991 E14.53489
G1 X169.748 Y144.357 E14.54296
G1 X169.306 Y144.66 E14.55103
G1 X168.823 Y144.895 E14.55911
G1 X168.312 Y145.055 E14.56717
G1 X167.712 Y145.149 E14.57631
G1 X162.505 Y145.149 E14.65467
G1 X161.97 Y145.109 E14.66274
G1 X161.447 Y144.99 E14.67081
G1 X160.948 Y144.795 E14.67887
G1 X160.483 Y144.527 E14.68695
G1 X160.063 Y144.194 E14.69501
G1 X159.697 Y143.802 E14.70309
G1 X159.394 Y143.36 E14.71115
G1 X159.159 Y142.877 E14.71923
G1 X158.999 Y142.366 E14.72729
G1 X158.905 Y141.766 E14.73643
G0 F1285.7 X158.425 Y141.549
G1 F600 X158.425 Y101.489 E15.33927
G1 X158.465 Y100.919 E15.34787
G1 X158.584 Y100.361 E15.35645
G1 X158.78 Y99.825 E15.36504
G1 X159.049 Y99.321 E15.37364
G1 X159.385 Y98.86 E15.38222
G1 X159.783 Y98.45 E15.39082
G1 X160.234 Y98.1 E15.39941
G1 X160.63 Y97.873 E15.40628
G1 X161.468 Y96.421 E15.43151
G1 X161.787 Y95.948 E15.4401
G1 X162.169 Y95.524 E15.44868
G1 X162.607 Y95.157 E15.45728
G1 X163.092 Y94.855 E15.46588
G1 X163.614 Y94.624 E15.47447
G1 X164.163 Y94.468 E15.48306
G1 X164.728 Y94.39 E15.49164
G1 X165.299 Y94.392 E15.50024
G1 X165.865 Y94.473 E15.50884
G1 X166.413 Y94.633 E15.51743
G1 X166.933 Y94.868 E15.52602
G1 X167.416 Y95.173 E15.53461
G1 X167.851 Y95.542 E15.5432
G1 X168.231 Y95.968 E15.55179
G1 X168.536 Y96.424 E15.56004
G1 X169.375 Y97.879 E15.58532
G1 X169.663 Y98.033 E15.59023
G1 X170.124 Y98.369 E15.59882
G1 X170.534 Y98.767 E15.60742
G1 X170.884 Y99.218 E15.61601
G1 X171.168 Y99.713 E15.6246
G1 X171.38 Y100.243 E15.63319
G1 X171.516 Y100.798 E15.64179
G1 X171.575 Y101.489 E15.65222
G1 X171.575 Y141.549 E16.25506
G1 X171.535 Y142.119 E16.26366
G1 X171.416 Y142.677 E16.27225
G1 X171.22 Y143.213 E16.28084
G1 X170.951 Y143.717 E16.28943
G1 X170.615 Y144.178 E16.29802
G1 X170.217 Y144.588 E16.30662
G1 X169.766 Y144.938 E16.31521
G1 X169.271 Y145.222 E16.32379
G1 X168.741 Y145.434 E16.33238
G1 X168.186 Y145.57 E16.34098
G1 X167.495 Y145.629 E16.35142
G1 X162.505 Y145.629 E16.42651
G1 X161.935 Y145.589 E16.43511
G1 X161.377 Y145.47 E16.4437
G1 X160.841 Y145.274 E16.45228
G1 X160.337 Y145.005 E16.46088
G1 X159.876 Y144.669 E16.46947
G1 X159.466 Y144.271 E16.47806
G1 X159.116 Y143.82 E16.48666
G1 X158.832 Y143.325 E16.49524
G1 X158.62 Y142.795 E16.50383
G1 X158.484 Y142.24 E16.51243
G1 X158.425 Y141.549 E16.52287
G0 F1285.7 X157.945 Y141.549
G1 F600 X157.945 Y101.489 E17.12571
G1 X157.985 Y100.887 E17.13479
G1 X158.104 Y100.295 E17.14388
G1 X158.3 Y99.724 E17.15296
G1 X158.57 Y99.184 E17.16205
G1 X158.909 Y98.685 E17.17112
G1 X159.311 Y98.234 E17.18022
G1 X159.769 Y97.841 E17.1893
G1 X160.288 Y97.505 E17.1986
G1 X161.052 Y96.181 E17.2216
G1 X161.388 Y95.68 E17.23068
G1 X161.787 Y95.227 E17.23977
G1 X162.242 Y94.83 E17.24885
G1 X162.746 Y94.498 E17.25794
G1 X163.289 Y94.235 E17.26701
G1 X163.862 Y94.045 E17.2761
G1 X164.456 Y93.934 E17.28519
G1 X165.058 Y93.901 E17.29427
G1 X165.66 Y93.949 E17.30335
G1 X166.25 Y94.075 E17.31243
G1 X166.819 Y94.279 E17.32153
G1 X167.355 Y94.556 E17.33061
G1 X167.85 Y94.901 E17.33969
G1 X168.296 Y95.308 E17.34877
G1 X168.783 Y95.89 E17.36019
G1 X169.704 Y97.489 E17.38796
G1 X170.299 Y97.893 E17.39878
G1 X170.75 Y98.295 E17.40788
G1 X171.143 Y98.753 E17.41696
G1 X171.473 Y99.259 E17.42605
G1 X171.732 Y99.804 E17.43513
G1 X171.918 Y100.378 E17.44421
G1 X172.026 Y100.972 E17.45329
G1 X172.055 Y101.489 E17.46109
G1 X172.055 Y141.549 E18.06393
G1 X172.015 Y142.151 E18.07301
G1 X171.896 Y142.743 E18.08209
G1 X171.7 Y143.314 E18.09118
G1 X171.43 Y143.854 E18.10026
G1 X171.091 Y144.353 E18.10934
G1 X170.689 Y144.804 E18.11843
G1 X170.231 Y145.197 E18.12752
G1 X169.725 Y145.527 E18.13661
G1 X169.18 Y145.786 E18.14569
G1 X168.606 Y145.972 E18.15477
G1 X168.012 Y146.08 E18.16385
G1 X167.495 Y146.109 E18.17164
G1 X162.505 Y146.109 E18.24674
G1 X161.903 Y146.069 E18.25581
G1 X161.311 Y145.95 E18.2649
G1 X160.74 Y145.754 E18.27399
G1 X160.2 Y145.484 E18.28307
G1 X159.701 Y145.145 E18.29215
G1 X159.25 Y144.743 E18.30124
G1 X158.857 Y144.285 E18.31032
G1 X158.527 Y143.779 E18.31941
G1 X158.268 Y143.234 E18.32849
G1 X158.082 Y142.66 E18.33757
G1 X157.974 Y142.066 E18.34666
G1 X157.945 Y141.549 E18.35445
G0 F1285.7 X157.465 Y141.549
G1 F600 X157.465 Y101.489 E18.95729
G1 X157.505 Y100.856 E18.96684
G1 X157.624 Y100.232 E18.9764
G1 X157.821 Y99.629 E18.98594
G1 X158.092 Y99.055 E18.9955
G1 X158.433 Y98.52 E19.00504
G1 X158.838 Y98.031 E19.0146
G1 X159.302 Y97.598 E19.02415
G1 X159.816 Y97.226 E19.0337
G1 X159.93 Y97.164 E19.03565
G1 X160.636 Y95.941 E19.0569
G1 X160.987 Y95.413 E19.06644
G1 X161.402 Y94.932 E19.076
G1 X161.874 Y94.508 E19.08555
G1 X162.396 Y94.147 E19.0951
G1 X162.959 Y93.853 E19.10466
G1 X163.554 Y93.633 E19.1142
G1 X164.172 Y93.49 E19.12375
G1 X164.804 Y93.425 E19.13331
G1 X165.438 Y93.44 E19.14285
G1 X166.066 Y93.535 E19.15241
G1 X166.676 Y93.708 E19.16195
G1 X167.26 Y93.956 E19.1715
G1 X167.809 Y94.275 E19.18106
G1 X168.312 Y94.662 E19.19061
G1 X168.764 Y95.108 E19.20016
G1 X169.226 Y95.698 E19.21144
G1 X170.073 Y97.168 E19.23697
G1 X170.464 Y97.417 E19.24394
G1 X170.953 Y97.822 E19.2535
G1 X171.386 Y98.286 E19.26305
G1 X171.758 Y98.8 E19.2726
G1 X172.062 Y99.357 E19.28215
G1 X172.294 Y99.948 E19.2917
G1 X172.449 Y100.563 E19.30125
G1 X172.535 Y101.489 E19.31524
G1 X172.535 Y141.549 E19.91808
G1 X172.495 Y142.182 E19.92763
G1 X172.376 Y142.806 E19.93719
G1 X172.179 Y143.409 E19.94673
G1 X171.908 Y143.983 E19.95628
G1 X171.567 Y144.518 E19.96583
G1 X171.162 Y145.007 E19.97539
G1 X170.698 Y145.44 E19.98494
G1 X170.184 Y145.812 E19.99448
G1 X169.627 Y146.116 E20.00403
G1 X169.036 Y146.348 E20.01359
G1 X168.421 Y146.503 E20.02313
G1 X167.495 Y146.589 E20.03713
G1 X162.505 Y146.589 E20.11222
G1 X161.872 Y146.549 E20.12176
G1 X161.248 Y146.43 E20.13132
G1 X160.645 Y146.233 E20.14087
G1 X160.071 Y145.962 E20.15042
G1 X159.536 Y145.621 E20.15997
G1 X159.047 Y145.216 E20.16952
G1 X158.614 Y144.752 E20.17907
G1 X158.242 Y144.238 E20.18862
G1 X157.938 Y143.681 E20.19817
G1 X157.706 Y143.09 E20.20773
G1 X157.551 Y142.475 E20.21727
