;START_OF_HEADER
;HEADER_VERSION:0.1
;FLAVOR:Griffin
;GENERATOR.NAME:Cura_SteamEngine
;GENERATOR.VERSION:main
;GENERATOR.BUILD_DATE:2022-09-13
;TARGET_MACHINE.NAME:Ultimaker S5
;EXTRUDER_TRAIN.0.INITIAL_TEMPERATURE:200
;EXTRUDER_TRAIN.0.MATERIAL.VOLUME_USED:1121
;EXTRUDER_TRAIN.0.MATERIAL.GUID:506c9f0d-e3aa-4bd4-b2d2-23e2425b1aa9
;EXTRUDER_TRAIN.0.NOZZLE.DIAMETER:0.4
;EXTRUDER_TRAIN.0.NOZZLE.NAME:AA 0.4
;BUILD_PLATE.TYPE:glass
;BUILD_PLATE.INITIAL_TEMPERATURE:60
;BUILD_VOLUME.TEMPERATURE:28
;PRINT.TIME:1156
;PRINT.GROUPS:1
;PRINT.SIZE.MIN.X:158.305
;PRINT.SIZE.MIN.Y:94.285
;PRINT.SIZE.MIN.Z:0.2
;PRINT.SIZE.MAX.X:171.695
;PRINT.SIZE.MAX.Y:145.749
;PRINT.SIZE.MAX.Z:7.2
;END_OF_HEADER
;Generated with Cura_SteamEngine main
T0
M82 ;absolute extrusion mode
G28 ;Home
G1 Z15.0 F6000 ;Move the platform down 15mm
G1 X5 Y-5 F3000
;Prime the extruder
G92 E0
G1 Z2.0 F3000
G1 X15 Y3.5 Z0.3 F5000.0
G1 X175 Y3.5 Z0.3 F1500.0 E20
G1 X175 Y4.5 Z0.3 F5000.0
G1 X85 Y4.5 Z0.3 F1500.0 E30
M420 S1
G92 E0
G92 E0
M109 S200
G280 S1
G0 Z20.001
G1 F2700 E-6.5
;LAYER_COUNT:72
;LAYER:0
M107
M204 S1000
M205 X20 Y20
G1 F600 Z2.2
G0 F1285.7 X171.31 Y143.277 Z2.2
G0 X167.496 Y145.749
;TYPE:SKIRT
G1 F600 Z0.2
G1 F2700 E0
G1 F600 X163.158 Y145.749 E0.06528
G1 X162.46 Y145.74 E0.07578
G1 X161.882 Y145.692 E0.08451
G1 X161.317 Y145.566 E0.09322
G1 X160.775 Y145.363 E0.10193
G1 X160.265 Y145.087 E0.11066
G1 X159.798 Y144.744 E0.11938
G1 X159.383 Y144.34 E0.1281
G1 X159.028 Y143.882 E0.13682
G1 X158.739 Y143.38 E0.14553
G1 X158.521 Y142.843 E0.15425
G1 X158.38 Y142.282 E0.16296
G1 X158.305 Y141.545 E0.17411
G1 X158.305 Y102.136 E0.76715
G1 X158.315 Y101.433 E0.77773
G1 X158.364 Y100.856 E0.78644
G1 X158.491 Y100.291 E0.79516
G1 X158.694 Y99.748 E0.80388
G1 X158.971 Y99.239 E0.8126
G1 X159.283 Y98.811 E0.82057
G1 X160.079 Y97.852 E0.83933
G1 X160.189 Y97.698 E0.84218
G1 X161.221 Y96.471 E0.8663
G1 X161.73 Y95.84 E0.8785
G1 X162.124 Y95.415 E0.88722
G1 X162.573 Y95.048 E0.89595
G1 X163.068 Y94.747 E0.90467
G1 X163.599 Y94.517 E0.91338
G1 X164.157 Y94.361 E0.9221
G1 X164.731 Y94.285 E0.93081
G1 X165.311 Y94.288 E0.93954
G1 X165.884 Y94.37 E0.94825
G1 X166.441 Y94.531 E0.95697
G1 X166.97 Y94.767 E0.96569
G1 X167.462 Y95.073 E0.97441
G1 X167.906 Y95.444 E0.98312
G1 X168.265 Y95.834 E0.99109
G1 X169.041 Y96.793 E1.00966
G1 X170.717 Y98.812 E1.04914
G1 X171.055 Y99.283 E1.05787
G1 X171.326 Y99.795 E1.06659
G1 X171.523 Y100.339 E1.07529
G1 X171.644 Y100.906 E1.08402
G1 X171.695 Y101.506 E1.09308
G1 X171.695 Y140.865 E1.68537
G1 X171.686 Y141.592 E1.69631
G1 X171.639 Y142.169 E1.70502
G1 X171.512 Y142.735 E1.71375
G1 X171.31 Y143.277 E1.72246
G1 X171.034 Y143.787 E1.73118
G1 X170.691 Y144.254 E1.7399
G1 X170.287 Y144.669 E1.74862
G1 X169.83 Y145.025 E1.75734
G1 X169.328 Y145.314 E1.76605
G1 X168.791 Y145.532 E1.77477
G1 X168.23 Y145.674 E1.78348
G1 X167.496 Y145.749 E1.79459
G0 F1285.7 X161.392 Y145.087
G1 F600 X160.886 Y144.885 E1.80279
G1 X160.415 Y144.611 E1.81099
G1 X159.988 Y144.271 E1.8192
G1 X159.616 Y143.873 E1.8274
G1 X159.307 Y143.424 E1.8356
G1 X159.066 Y142.935 E1.8438
G1 X158.899 Y142.416 E1.85201
G1 X158.786 Y141.574 E1.86479
G1 X158.785 Y102.143 E2.45817
G1 X158.795 Y101.44 E2.46875
G1 X158.843 Y100.897 E2.47695
G1 X158.97 Y100.367 E2.48515
G1 X159.172 Y99.861 E2.49335
G1 X159.498 Y99.302 E2.50309
G1 X160.484 Y98.115 E2.52631
G1 X160.556 Y98.007 E2.52826
G1 X161.601 Y96.765 E2.55269
G1 X162.104 Y96.141 E2.56475
G1 X162.476 Y95.743 E2.57295
G1 X162.903 Y95.403 E2.58116
G1 X163.375 Y95.13 E2.58937
G1 X163.881 Y94.928 E2.59757
G1 X164.412 Y94.803 E2.60578
G1 X164.955 Y94.756 E2.61398
G1 X165.499 Y94.79 E2.62218
G1 X166.032 Y94.902 E2.63038
G1 X166.544 Y95.091 E2.63859
G1 X167.022 Y95.353 E2.64679
G1 X167.456 Y95.682 E2.65499
G1 X167.892 Y96.136 E2.66446
G1 X168.701 Y97.136 E2.68382
G1 X170.347 Y99.119 E2.7226
G1 X170.664 Y99.563 E2.73081
G1 X170.912 Y100.048 E2.739
G1 X171.087 Y100.565 E2.74722
G1 X171.184 Y101.101 E2.75542
G1 X171.215 Y101.819 E2.76623
G1 X171.215 Y140.859 E3.35372
G1 X171.206 Y141.586 E3.36466
G1 X171.159 Y142.129 E3.37286
G1 X171.033 Y142.66 E3.38108
G1 X170.832 Y143.166 E3.38927
G1 X170.558 Y143.638 E3.39748
G1 X170.219 Y144.064 E3.40568
G1 X169.82 Y144.436 E3.41389
G1 X169.372 Y144.747 E3.42209
G1 X168.883 Y144.988 E3.4303
G1 X168.364 Y145.155 E3.4385
G1 X167.523 Y145.268 E3.45127
G1 X163.164 Y145.269 E3.51687
G1 X162.466 Y145.26 E3.52737
G1 X161.923 Y145.213 E3.53557
G1 X161.392 Y145.087 E3.54379
G0 F1285.7 X159.266 Y141.821
G1 F600 X159.265 Y102.15 E4.14077
G1 X159.275 Y101.447 E4.15135
G1 X159.322 Y100.94 E4.15901
G1 X159.448 Y100.447 E4.16667
G1 X159.65 Y99.98 E4.17433
G1 X160.022 Y99.424 E4.1844
G1 X160.778 Y98.513 E4.20221
G1 X160.924 Y98.316 E4.2059
G1 X161.958 Y97.087 E4.23007
G1 X162.478 Y96.442 E4.24254
G1 X162.827 Y96.073 E4.25018
G1 X163.23 Y95.762 E4.25784
G1 X163.677 Y95.519 E4.2655
G1 X164.156 Y95.348 E4.27315
G1 X164.656 Y95.254 E4.28081
G1 X165.165 Y95.24 E4.28847
G1 X165.669 Y95.306 E4.29612
G1 X166.157 Y95.45 E4.30378
G1 X166.617 Y95.668 E4.31144
G1 X167.036 Y95.956 E4.31909
G1 X167.519 Y96.438 E4.32936
G1 X168.328 Y97.438 E4.34871
G1 X169.978 Y99.426 E4.38759
G1 X170.271 Y99.841 E4.39523
G1 X170.496 Y100.298 E4.4029
G1 X170.646 Y100.784 E4.41055
G1 X170.735 Y101.49 E4.42126
G1 X170.735 Y140.853 E5.01361
G1 X170.726 Y141.58 E5.02456
G1 X170.68 Y142.087 E5.03222
G1 X170.555 Y142.58 E5.03987
G1 X170.354 Y143.047 E5.04752
G1 X170.083 Y143.478 E5.05518
G1 X169.747 Y143.86 E5.06284
G1 X169.356 Y144.186 E5.0705
G1 X168.919 Y144.446 E5.07815
G1 X168.447 Y144.634 E5.0858
G1 X167.77 Y144.788 E5.09624
G1 X163.17 Y144.789 E5.16547
G1 X162.472 Y144.78 E5.17597
G1 X161.966 Y144.733 E5.18362
G1 X161.473 Y144.608 E5.19127
G1 X161.005 Y144.407 E5.19894
G1 X160.575 Y144.136 E5.20659
G1 X160.193 Y143.8 E5.21424
G1 X159.867 Y143.409 E5.2219
G1 X159.607 Y142.972 E5.22956
G1 X159.419 Y142.499 E5.23721
G1 X159.266 Y141.821 E5.24767
G1 F2700 E-1.25233
;MESH:rackgear_v1_rackgearM1.stl
G0 F1285.7 X162.919 Y141.135
G0 X163.432 Y102.34
G1 F2700 E5.24767
G0 F1285.7 X163.434 Y101.656
;TYPE:WALL-OUTER
G1 F600 X163.252 Y101.729 E5.25063
G1 X162.745 Y101.729 E5.25825
G1 X162.745 Y141.309 E5.85387
G1 X167.255 Y141.309 E5.92174
G1 X167.255 Y102.237 E6.50971
G1 X167.255 Y101.729 E6.51736
G1 X166.747 Y101.729 E6.525
G1 X166.566 Y101.656 E6.52794
G1 X165 Y98.939 E6.57513
G1 X163.434 Y101.656 E6.62232
G0 F1285.7 X163.252 Y101.729
G0 X163.248 Y101.729
G0 X163.798 Y101.986
;TYPE:WALL-INNER
G1 F600 X163.225 Y102.22 E6.63164
G1 X163.225 Y140.829 E7.21264
G1 X166.775 Y140.829 E7.26606
G1 X166.775 Y102.237 E7.84681
G1 X166.775 Y102.22 E7.84707
G1 X166.203 Y101.987 E7.85636
G1 X165 Y99.901 E7.8926
G1 X163.798 Y101.986 E7.92882
G0 F1285.7 X164.129 Y102.294
;TYPE:SKIN
G1 F600 X163.665 Y102.497 E7.93606
G1 X163.665 Y140.389 E8.47776
G1 X166.335 Y140.389 E8.51593
G1 X166.335 Y102.903 E9.05183
G1 X166.335 Y102.498 E9.05762
G1 X165.841 Y102.243 E9.06557
G1 X165 Y100.781 E9.08968
G1 X164.129 Y102.294 E9.11464
G0 F1285.7 X164.777 Y101.646
G1 F600 X166.094 Y102.963 E9.14127
G0 F1285.7 X166.094 Y103.642
G1 F600 X164.529 Y102.077 E9.17291
G0 F1285.7 X164.259 Y102.486
G1 F600 X166.094 Y104.321 E9.21001
G0 F1285.7 X166.094 Y105
G1 F600 X163.904 Y102.81 E9.25429
G0 F1285.7 X163.904 Y103.489
G1 F600 X166.094 Y105.679 E9.29856
G0 F1285.7 X166.094 Y106.358
G1 F600 X163.904 Y104.168 E9.34284
G0 F1285.7 X163.904 Y104.846
G1 F600 X166.094 Y107.036 E9.38712
G0 F1285.7 X166.094 Y107.715
G1 F600 X163.904 Y105.525 E9.43139
G0 F1285.7 X163.904 Y106.204
G1 F600 X166.094 Y108.394 E9.47567
G0 F1285.7 X166.094 Y109.073
G1 F600 X163.904 Y106.883 E9.51995
G0 F1285.7 X163.904 Y107.562
G1 F600 X166.094 Y109.752 E9.56422
G0 F1285.7 X166.094 Y110.43
G1 F600 X163.904 Y108.241 E9.60849
G0 F1285.7 X163.904 Y108.919
G1 F600 X166.094 Y111.109 E9.65276
G0 F1285.7 X166.094 Y111.788
G1 F600 X163.904 Y109.598 E9.69704
G0 F1285.7 X163.904 Y110.277
G1 F600 X166.094 Y112.467 E9.74132
G0 F1285.7 X166.094 Y113.146
G1 F600 X163.904 Y110.956 E9.78559
G0 F1285.7 X163.904 Y111.635
G1 F600 X166.094 Y113.825 E9.82987
G0 F1285.7 X166.094 Y114.503
G1 F600 X163.904 Y112.314 E9.87414
G0 F1285.7 X163.904 Y112.992
G1 F600 X166.094 Y115.182 E9.91841
G0 F1285.7 X166.094 Y115.861
G1 F600 X163.904 Y113.671 E9.96269
G0 F1285.7 X163.904 Y114.35
G1 F600 X166.094 Y116.54 E10.00697
G0 F1285.7 X166.094 Y117.219
G1 F600 X163.904 Y115.029 E10.05124
G0 F1285.7 X163.904 Y115.708
G1 F600 X166.094 Y117.898 E10.09552
G0 F1285.7 X166.094 Y118.576
G1 F600 X163.904 Y116.386 E10.1398
G0 F1285.7 X163.904 Y117.065
G1 F600 X166.094 Y119.255 E10.18407
G0 F1285.7 X166.094 Y119.934
G1 F600 X163.904 Y117.744 E10.22835
G0 F1285.7 X163.904 Y118.423
G1 F600 X166.094 Y120.613 E10.27263
G0 F1285.7 X166.094 Y121.292
G1 F600 X163.904 Y119.102 E10.3169
G0 F1285.7 X163.904 Y119.781
G1 F600 X166.094 Y121.97 E10.36117
G0 F1285.7 X166.094 Y122.649
G1 F600 X163.904 Y120.459 E10.40545
G0 F1285.7 X163.904 Y121.138
G1 F600 X166.094 Y123.328 E10.44972
G0 F1285.7 X166.094 Y124.007
G1 F600 X163.904 Y121.817 E10.494
G0 F1285.7 X163.904 Y122.496
G1 F600 X166.094 Y124.686 E10.53828
G0 F1285.7 X166.094 Y125.365
G1 F600 X163.904 Y123.175 E10.58255
G0 F1285.7 X163.904 Y123.853
G1 F600 X166.094 Y126.043 E10.62683
G0 F1285.7 X166.094 Y126.722
G1 F600 X163.904 Y124.532 E10.67111
G0 F1285.7 X163.904 Y125.211
G1 F600 X166.094 Y127.401 E10.71538
G0 F1285.7 X166.094 Y128.08
G1 F600 X163.904 Y125.89 E10.75966
G0 F1285.7 X163.904 Y126.569
G1 F600 X166.094 Y128.759 E10.80394
G0 F1285.7 X166.094 Y129.438
G1 F600 X163.904 Y127.248 E10.84821
G0 F1285.7 X163.904 Y127.926
G1 F600 X166.094 Y130.116 E10.89249
G0 F1285.7 X166.094 Y130.795
G1 F600 X163.904 Y128.605 E10.93677
G0 F1285.7 X163.904 Y129.284
G1 F600 X166.094 Y131.474 E10.98104
G0 F1285.7 X166.094 Y132.153
G1 F600 X163.904 Y129.963 E11.02532
G0 F1285.7 X163.904 Y130.642
G1 F600 X166.094 Y132.832 E11.0696
G0 F1285.7 X166.094 Y133.51
G1 F600 X163.904 Y131.321 E11.11386
G0 F1285.7 X163.904 Y131.999
G1 F600 X166.094 Y134.189 E11.15814
G0 F1285.7 X166.094 Y134.868
G1 F600 X163.904 Y132.678 E11.20242
G0 F1285.7 X163.904 Y133.357
G1 F600 X166.094 Y135.547 E11.24669
G0 F1285.7 X166.094 Y136.226
G1 F600 X163.904 Y134.036 E11.29097
G0 F1285.7 X163.904 Y134.715
G1 F600 X166.094 Y136.905 E11.33525
G0 F1285.7 X166.094 Y137.583
G1 F600 X163.904 Y135.393 E11.37952
G0 F1285.7 X163.904 Y136.072
G1 F600 X166.094 Y138.262 E11.4238
G0 F1285.7 X166.094 Y138.941
G1 F600 X163.904 Y136.751 E11.46808
G0 F1285.7 X163.904 Y137.43
G1 F600 X166.094 Y139.62 E11.51235
G0 F1285.7 X165.943 Y140.148
G1 F600 X163.904 Y138.109 E11.55358
G0 F1285.7 X163.904 Y138.788
G1 F600 X165.264 Y140.148 E11.58107
G0 F1285.7 X164.586 Y140.148
G1 F600 X163.904 Y139.466 E11.59486
M204 S1250
;MESH:NONMESH
G0 X163.904 Y139.466 Z0.3
G0 F1285.7 X163.365 Y139.466
G0 X163.432 Y102.34
G0 X163.404 Y101.628
;TIME_ELAPSED:97.304870
;LAYER:1
M106 S85
;TYPE:WALL-OUTER
;MESH:rackgear_v1_rackgearM1.stl
G1 F900 X163.252 Y101.689 E11.59589
G1 X162.705 Y101.689 E11.59932
G1 X162.705 Y141.349 E11.84799
G1 X167.295 Y141.349 E11.87677
G1 X167.295 Y102.237 E12.12201
G1 X167.295 Y101.689 E12.12545
G1 X166.747 Y101.689 E12.12888
G1 X166.595 Y101.628 E12.12991
G1 X165 Y98.859 E12.14995
G1 X163.404 Y101.628 E12.16999
G0 F5142.9 X163.252 Y101.689
G0 X163.215 Y101.689
G0 X163.706 Y101.904
;TYPE:WALL-INNER
G1 F1200 X163.252 Y102.089 E12.17306
G1 X163.105 Y102.089 E12.17398
G1 X163.105 Y140.949 E12.41764
G1 X166.895 Y140.949 E12.44141
G1 X166.895 Y102.237 E12.68414
G1 X166.895 Y102.089 E12.68507
G1 X166.747 Y102.089 E12.68599
G1 X166.294 Y101.905 E12.68906
G1 X165 Y99.661 E12.7053
G1 X163.706 Y101.904 E12.72154
M204 S1000
G0 F5142.9 X163.964 Y102.054
G0 X166.017 Y102.147
;TYPE:SKIN
G1 F1200 X165 Y100.379 E12.73369
G1 X163.983 Y102.14 E12.7458
G1 X163.465 Y102.376 E12.74919
G1 X163.465 Y140.589 E12.97681
G1 X166.535 Y140.589 E12.9951
G1 X166.535 Y102.851 E13.21989
G1 X166.535 Y102.376 E13.22272
G1 X166.017 Y102.147 E13.2261
G0 F5142.9 X164.872 Y100.999
G1 F1200 X165.033 Y100.839 E13.22745
G0 F5142.9 X165.239 Y101.198
G1 F1200 X163.664 Y102.773 E13.24072
G0 F5142.9 X163.664 Y103.338
G1 F1200 X165.446 Y101.557 E13.25572
G0 F5142.9 X165.652 Y101.916
G1 F1200 X163.664 Y103.904 E13.27247
G0 F5142.9 X163.664 Y104.47
G1 F1200 X165.87 Y102.264 E13.29105
G0 F5142.9 X166.24 Y102.46
G1 F1200 X163.664 Y105.035 E13.31275
G0 F5142.9 X163.664 Y105.601
G1 F1200 X166.334 Y102.932 E13.33524
G0 F5142.9 X166.334 Y103.497
G1 F1200 X163.664 Y106.167 E13.35773
G0 F5142.9 X163.664 Y106.732
G1 F1200 X166.334 Y104.063 E13.38022
G0 F5142.9 X166.334 Y104.629
G1 F1200 X163.664 Y107.298 E13.40271
G0 F5142.9 X163.664 Y107.864
G1 F1200 X166.334 Y105.194 E13.4252
G0 F5142.9 X166.334 Y105.76
G1 F1200 X163.664 Y108.429 E13.44769
G0 F5142.9 X163.664 Y108.995
G1 F1200 X166.334 Y106.326 E13.47017
G0 F5142.9 X166.334 Y106.891
G1 F1200 X163.664 Y109.561 E13.49267
G0 F5142.9 X163.664 Y110.126
G1 F1200 X166.334 Y107.457 E13.51515
G0 F5142.9 X166.334 Y108.023
G1 F1200 X163.664 Y110.692 E13.53764
G0 F5142.9 X163.664 Y111.258
G1 F1200 X166.334 Y108.588 E13.56013
G0 F5142.9 X166.334 Y109.154
G1 F1200 X163.664 Y111.823 E13.58262
G0 F5142.9 X163.664 Y112.389
G1 F1200 X166.334 Y109.72 E13.60511
G0 F5142.9 X166.334 Y110.286
G1 F1200 X163.664 Y112.955 E13.6276
G0 F5142.9 X163.664 Y113.521
G1 F1200 X166.334 Y110.851 E13.65009
G0 F5142.9 X166.334 Y111.417
G1 F1200 X163.664 Y114.086 E13.67258
G0 F5142.9 X163.664 Y114.652
G1 F1200 X166.334 Y111.983 E13.69507
G0 F5142.9 X166.334 Y112.548
G1 F1200 X163.664 Y115.218 E13.71756
G0 F5142.9 X163.664 Y115.783
G1 F1200 X166.334 Y113.114 E13.74005
G0 F5142.9 X166.334 Y113.68
G1 F1200 X163.664 Y116.349 E13.76253
G0 F5142.9 X163.664 Y116.915
G1 F1200 X166.334 Y114.245 E13.78503
G0 F5142.9 X166.334 Y114.811
G1 F1200 X163.664 Y117.48 E13.80751
G0 F5142.9 X163.664 Y118.046
G1 F1200 X166.334 Y115.377 E13.83
G0 F5142.9 X166.334 Y115.942
G1 F1200 X163.664 Y118.612 E13.85249
G0 F5142.9 X163.664 Y119.177
G1 F1200 X166.334 Y116.508 E13.87498
G0 F5142.9 X166.334 Y117.074
G1 F1200 X163.664 Y119.743 E13.89747
G0 F5142.9 X163.664 Y120.309
G1 F1200 X166.334 Y117.639 E13.91996
G0 F5142.9 X166.334 Y118.205
G1 F1200 X163.664 Y120.874 E13.94245
G0 F5142.9 X163.664 Y121.44
G1 F1200 X166.334 Y118.771 E13.96494
G0 F5142.9 X166.334 Y119.336
G1 F1200 X163.664 Y122.006 E13.98743
G0 F5142.9 X163.664 Y122.572
G1 F1200 X166.334 Y119.902 E14.00992
G0 F5142.9 X166.334 Y120.468
G1 F1200 X163.664 Y123.137 E14.03241
G0 F5142.9 X163.664 Y123.703
G1 F1200 X166.334 Y121.034 E14.0549
G0 F5142.9 X166.334 Y121.599
G1 F1200 X163.664 Y124.269 E14.07739
G0 F5142.9 X163.664 Y124.834
G1 F1200 X166.334 Y122.165 E14.09988
G0 F5142.9 X166.334 Y122.731
G1 F1200 X163.664 Y125.4 E14.12237
G0 F5142.9 X163.664 Y125.966
G1 F1200 X166.334 Y123.296 E14.14486
G0 F5142.9 X166.334 Y123.862
G1 F1200 X163.664 Y126.531 E14.16735
G0 F5142.9 X163.664 Y127.097
G1 F1200 X166.334 Y124.428 E14.18983
G0 F5142.9 X166.334 Y124.993
G1 F1200 X163.664 Y127.663 E14.21233
G0 F5142.9 X163.664 Y128.228
G1 F1200 X166.334 Y125.559 E14.23481
G0 F5142.9 X166.334 Y126.125
G1 F1200 X163.664 Y128.794 E14.2573
G0 F5142.9 X163.664 Y129.36
G1 F1200 X166.334 Y126.69 E14.27979
G0 F5142.9 X166.334 Y127.256
G1 F1200 X163.664 Y129.925 E14.30228
G0 F5142.9 X163.664 Y130.491
G1 F1200 X166.334 Y127.822 E14.32477
G0 F5142.9 X166.334 Y128.387
G1 F1200 X163.664 Y131.057 E14.34726
G0 F5142.9 X163.664 Y131.622
G1 F1200 X166.334 Y128.953 E14.36975
G0 F5142.9 X166.334 Y129.519
G1 F1200 X163.664 Y132.188 E14.39224
G0 F5142.9 X163.664 Y132.754
G1 F1200 X166.334 Y130.085 E14.41473
G0 F5142.9 X166.334 Y130.65
G1 F1200 X163.664 Y133.32 E14.43722
G0 F5142.9 X163.664 Y133.885
G1 F1200 X166.334 Y131.216 E14.45971
G0 F5142.9 X166.334 Y131.782
G1 F1200 X163.664 Y134.451 E14.48219
G0 F5142.9 X163.664 Y135.017
G1 F1200 X166.334 Y132.347 E14.50469
G0 F5142.9 X166.334 Y132.913
G1 F1200 X163.664 Y135.582 E14.52717
G0 F5142.9 X163.664 Y136.148
G1 F1200 X166.334 Y133.479 E14.54966
G0 F5142.9 X166.334 Y134.044
