;START_OF_HEADER
;HEADER_VERSION:0.1
;FLAVOR:Griffin
;GENERATOR.NAME:Cura_SteamEngine
;GENERATOR.VERSION:main
;GENERATOR.BUILD_DATE:2022-09-13
;TARGET_MACHINE.NAME:Ultimaker S5
;EXTRUDER_TRAIN.0.INITIAL_TEMPERATURE:200
;EXTRUDER_TRAIN.0.MATERIAL.VOLUME_USED:3412
;EXTRUDER_TRAIN.0.MATERIAL.GUID:506c9f0d-e3aa-4bd4-b2d2-23e2425b1aa9
;EXTRUDER_TRAIN.0.NOZZLE.DIAMETER:0.4
;EXTRUDER_TRAIN.0.NOZZLE.NAME:AA 0.4
;BUILD_PLATE.TYPE:glass
;BUILD_PLATE.INITIAL_TEMPERATURE:60
;BUILD_VOLUME.TEMPERATURE:28
;PRINT.TIME:2792
;PRINT.GROUPS:1
;PRINT.SIZE.MIN.X:144.323
;PRINT.SIZE.MIN.Y:99.42
;PRINT.SIZE.MIN.Z:0.2
;PRINT.SIZE.MAX.X:185.672
;PRINT.SIZE.MAX.Y:140.588
;PRINT.SIZE.MAX.Z:7
;END_OF_HEADER
;Generated with Cura_SteamEngine main
T0
M82 ;absolute extrusion mode
G28 ;Home
G1 Z15.0 F6000 ;Move the platform down 15mm
G1 X5 Y-5 F3000
;Prime the extruder
G92 E0
G1 Z2.0 F3000
G1 X15 Y3.5 Z0.3 F5000.0
G1 X175 Y3.5 Z0.3 F1500.0 E20
G1 X175 Y4.5 Z0.3 F5000.0
G1 X85 Y4.5 Z0.3 F1500.0 E30
M420 S1
G92 E0
G92 E0
M109 S200
G280 S1
G0 Z20.001
G1 F2700 E-6.5
;LAYER_COUNT:49
;LAYER:0
M107
M204 S1000
M205 X20 Y20
G1 F600 Z2.2
G0 F1285.7 X181.084 Y132.828 Z2.2
G0 X177.821 Y135.71
;TYPE:SKIRT
G1 F600 Z0.2
G1 F2700 E0
G1 F600 X175.583 Y137.353 E0.04178
G1 X174.868 Y137.906 E0.05538
G1 X174.451 Y138.217 E0.06321
G1 X173.81 Y138.602 E0.07446
G1 X173.242 Y138.869 E0.08391
G1 X172.625 Y139.105 E0.09385
G1 X170.255 Y139.555 E0.13015
G1 X167.575 Y140.142 E0.17144
G1 X166.108 Y140.486 E0.19411
G1 X165.464 Y140.588 E0.20392
G1 X164.658 Y140.576 E0.21605
G1 X163.878 Y140.481 E0.22788
G1 X161.19 Y139.862 E0.26939
G1 X158.46 Y139.314 E0.31129
G1 X157.71 Y139.17 E0.32278
G1 X156.973 Y138.947 E0.33437
G1 X156.389 Y138.702 E0.3439
G1 X155.797 Y138.401 E0.35389
G1 X153.761 Y136.854 E0.39237
G1 X151.55 Y135.27 E0.4333
G1 X150.49 Y134.55 E0.45258
G1 X149.859 Y133.996 E0.46522
G1 X149.43 Y133.533 E0.47472
G1 X149.029 Y133.03 E0.4844
G1 X147.464 Y130.216 E0.53285
G1 X146.305 Y128.256 E0.56712
G1 X145.712 Y127.278 E0.58433
G1 X145.416 Y126.699 E0.59412
G1 X145.173 Y125.908 E0.60657
G1 X145.022 Y125.123 E0.6186
G1 X144.849 Y123.029 E0.65022
G1 X144.55 Y120.33 E0.69108
G1 X144.356 Y118.795 E0.71437
G1 X144.323 Y118.15 E0.72408
G1 X144.418 Y117.342 E0.73633
G1 X144.601 Y116.546 E0.74862
G1 X145.28 Y114.61 E0.77949
G1 X146.119 Y111.98 E0.82103
G1 X146.571 Y110.482 E0.84458
G1 X146.805 Y109.872 E0.85441
G1 X147.227 Y109.168 E0.86676
G1 X147.711 Y108.529 E0.87883
G1 X149.105 Y107.051 E0.9094
G1 X151.053 Y104.859 E0.95353
G1 X151.959 Y103.807 E0.97442
G1 X152.42 Y103.345 E0.98424
G1 X153.095 Y102.868 E0.99668
G1 X153.786 Y102.483 E1.00859
G1 X156.433 Y101.358 E1.05187
G1 X158.951 Y100.202 E1.09356
G1 X159.547 Y99.921 E1.10348
G1 X160.296 Y99.661 E1.11541
G1 X160.915 Y99.518 E1.12497
G1 X161.553 Y99.42 E1.13468
G1 X164.658 Y99.472 E1.18141
G1 X166.776 Y99.449 E1.21329
G1 X168.215 Y99.423 E1.23495
G1 X168.87 Y99.459 E1.24482
G1 X169.681 Y99.648 E1.25735
G1 X170.431 Y99.91 E1.26931
G1 X172.201 Y100.75 E1.29879
G1 X174.724 Y101.859 E1.34026
G1 X176.228 Y102.489 E1.3648
G1 X176.809 Y102.783 E1.3746
G1 X177.477 Y103.286 E1.38718
G1 X178.046 Y103.816 E1.39888
G1 X179.921 Y105.971 E1.44187
G1 X181.774 Y107.981 E1.48301
G1 X182.259 Y108.497 E1.49367
G1 X182.735 Y109.127 E1.50555
G1 X183.066 Y109.677 E1.51521
G1 X183.361 Y110.259 E1.52503
G1 X184.285 Y113.276 E1.57251
G1 X185.382 Y116.499 E1.62374
G1 X185.562 Y117.269 E1.63564
G1 X185.64 Y117.9 E1.64521
G1 X185.672 Y118.547 E1.65496
G1 X185.291 Y121.652 E1.70204
G1 X185.032 Y124.431 E1.74404
G1 X184.98 Y125.083 E1.75388
G1 X184.886 Y125.694 E1.76318
G1 X184.64 Y126.486 E1.77566
G1 X184.403 Y127.087 E1.78538
G1 X182.718 Y129.902 E1.83475
G1 X181.703 Y131.702 E1.86585
G1 X181.084 Y132.828 E1.88519
G1 X180.725 Y133.38 E1.8951
G1 X180.142 Y134.003 E1.90794
G1 X179.542 Y134.52 E1.91985
G1 X177.821 Y135.71 E1.95134
G0 F1285.7 X173.605 Y138.167
G1 F600 X173.037 Y138.434 E1.96079
G1 X172.484 Y138.643 E1.96968
G1 X170.17 Y139.082 E2.00513
G1 X167.445 Y139.679 E2.04711
G1 X165.998 Y140.018 E2.06947
G1 X165.418 Y140.107 E2.0783
G1 X164.665 Y140.096 E2.08963
G1 X163.985 Y140.013 E2.09994
G1 X161.311 Y139.398 E2.14123
G1 X158.555 Y138.844 E2.18354
G1 X157.801 Y138.699 E2.19509
G1 X157.159 Y138.505 E2.20518
G1 X156.575 Y138.26 E2.21471
G1 X156.049 Y137.989 E2.22362
G1 X154.066 Y136.483 E2.26109
G1 X151.832 Y134.882 E2.30245
G1 X151.13 Y134.405 E2.31522
G1 X150.716 Y134.112 E2.32285
G1 X150.211 Y133.67 E2.33295
G1 X149.782 Y133.207 E2.34245
G1 X149.424 Y132.754 E2.35114
G1 X147.884 Y129.984 E2.39883
G1 X146.718 Y128.012 E2.43331
G1 X146.122 Y127.029 E2.45061
G1 X145.858 Y126.504 E2.45945
G1 X145.632 Y125.767 E2.47105
G1 X145.5 Y125.083 E2.48153
G1 X145.326 Y122.973 E2.51339
G1 X145.021 Y120.22 E2.55507
G1 X144.833 Y118.735 E2.5776
G1 X144.805 Y118.151 E2.5864
G1 X144.894 Y117.398 E2.59781
G1 X145.054 Y116.705 E2.60851
G1 X145.731 Y114.773 E2.63932
G1 X146.576 Y112.126 E2.68113
G1 X147.03 Y110.621 E2.70479
G1 X147.243 Y110.075 E2.71361
G1 X147.639 Y109.415 E2.72519
G1 X148.06 Y108.859 E2.73568
G1 X149.44 Y107.396 E2.76595
G1 X151.413 Y105.176 E2.81064
G1 X152.322 Y104.12 E2.83161
G1 X152.741 Y103.706 E2.84048
G1 X153.372 Y103.26 E2.8521
G1 X153.974 Y102.925 E2.86247
G1 X156.636 Y101.794 E2.906
G1 X159.121 Y100.652 E2.94715
G1 X159.751 Y100.355 E2.95763
G1 X160.404 Y100.129 E2.96803
G1 X161.023 Y99.986 E2.97759
G1 X161.602 Y99.9 E2.9864
G1 X164.691 Y99.951 E3.03289
G1 X166.781 Y99.93 E3.06434
G1 X168.223 Y99.903 E3.08605
G1 X168.811 Y99.938 E3.09491
G1 X169.572 Y100.115 E3.10667
G1 X170.225 Y100.343 E3.11708
G1 X172.004 Y101.186 E3.1467
G1 X174.535 Y102.3 E3.18832
G1 X176.042 Y102.931 E3.2129
G1 X176.568 Y103.202 E3.22181
G1 X177.189 Y103.669 E3.2335
G1 X177.684 Y104.131 E3.24369
G1 X179.563 Y106.29 E3.28676
G1 X181.424 Y108.31 E3.32809
G1 X181.909 Y108.826 E3.33875
G1 X182.324 Y109.374 E3.34909
G1 X182.655 Y109.924 E3.35875
G1 X182.917 Y110.449 E3.36758
G1 X183.834 Y113.439 E3.41464
G1 X184.708 Y116.024 E3.45571
G1 X184.929 Y116.657 E3.4658
G1 X185.086 Y117.328 E3.47617
G1 X185.164 Y117.959 E3.48574
G1 X185.189 Y118.543 E3.49453
G1 X184.813 Y121.617 E3.54114
G1 X184.558 Y124.343 E3.58234
G1 X184.502 Y125.045 E3.59293
G1 X184.366 Y125.747 E3.60369
G1 X184.181 Y126.343 E3.61309
G1 X183.969 Y126.877 E3.62173
G1 X182.309 Y129.649 E3.67035
G1 X181.282 Y131.471 E3.70183
G1 X180.663 Y132.597 E3.72116
G1 X180.341 Y133.088 E3.73
G1 X179.792 Y133.674 E3.74208
G1 X179.269 Y134.125 E3.75248
G1 X177.546 Y135.316 E3.784
G1 X175.277 Y136.982 E3.82636
G1 X174.581 Y137.521 E3.8396
G1 X174.164 Y137.832 E3.84743
G1 X173.605 Y138.167 E3.85724
G1 F2700 E-2.64276
G1 F600 Z2.2
;MESH:gearMk1_v1 - gearM2Z15.stl
G0 F1285.7 X163.772 Y120.072 Z2.2
;TYPE:WALL-OUTER
G1 F600 Z0.2
G1 F2700 E3.85724
G1 F600 X163.776 Y119.576 E3.8647
G1 X163.864 Y119.315 E3.86885
G1 X164.185 Y118.893 E3.87683
G1 X164.436 Y118.727 E3.88136
G1 X164.918 Y118.594 E3.88888
G1 X165.233 Y118.615 E3.89363
G1 X165.683 Y118.796 E3.90093
G1 X166.081 Y119.2 E3.90946
G1 X166.258 Y119.821 E3.91918
G1 X166.153 Y120.325 E3.92693
G1 X165.84 Y120.771 E3.93513
G1 X165.41 Y121.026 E3.94265
G1 X165.086 Y121.095 E3.94764
G1 X164.559 Y121.016 E3.95566
G1 X164.164 Y120.775 E3.96262
G1 X163.865 Y120.374 E3.97015
G1 X163.772 Y120.072 E3.9749
G0 F1285.7 X163.773 Y119.872
G0 X163.308 Y119.47
;TYPE:WALL-INNER
G1 F600 X163.468 Y119.039 E3.98182
G1 X163.833 Y118.558 E3.99091
G1 X164.264 Y118.279 E3.99863
G1 X164.835 Y118.115 E4.00757
G1 X165.377 Y118.157 E4.01575
G1 X165.983 Y118.403 E4.02559
G1 X166.509 Y118.951 E4.03703
G1 X166.747 Y119.788 E4.05012
G1 X166.594 Y120.568 E4.06208
G1 X166.202 Y121.086 E4.07186
G1 X165.644 Y121.446 E4.08185
G1 X165.506 Y121.505 E4.08411
G1 X164.98 Y121.571 E4.09209
G1 X164.331 Y121.442 E4.10204
G1 X163.8 Y121.087 E4.11166
G1 X163.451 Y120.63 E4.12031
G1 X163.292 Y120.086 E4.12884
G1 X163.308 Y119.47 E4.13811
G1 F2700 E-2.36189
G1 F600 Z2.2
G0 F1285.7 X152.698 Y120.684 Z2.2
;TYPE:WALL-OUTER
G1 F600 Z0.2
G1 F2700 E4.13811
G1 F600 X152.811 Y121.299 E4.14752
G1 X152.774 Y121.614 E4.15229
G1 X152.565 Y121.96 E4.15838
G1 X151.6 Y122.426 E4.1745
G1 X150.882 Y122.856 E4.1871
G1 X150.207 Y123.349 E4.19968
G1 X149.576 Y123.905 E4.21233
G1 X149.015 Y124.497 E4.2246
G1 X148.927 Y124.678 E4.22763
G1 X149.152 Y125.378 E4.2387
G1 X149.337 Y125.476 E4.24185
G1 X150.137 Y125.625 E4.25409
G1 X150.971 Y125.704 E4.2667
G1 X151.804 Y125.705 E4.27924
G1 X152.642 Y125.631 E4.2919
G1 X153.692 Y125.439 E4.30796
G1 X154.069 Y125.599 E4.31412
G1 X154.282 Y125.828 E4.31883
G1 X154.553 Y126.395 E4.32829
G1 X154.502 Y126.833 E4.33492
G1 X153.804 Y127.656 E4.35116
G1 X153.342 Y128.319 E4.36332
G1 X152.904 Y129.075 E4.37647
G1 X152.559 Y129.828 E4.38893
G1 X152.291 Y130.591 E4.4011
G1 X152.283 Y130.801 E4.40427
G1 X152.776 Y131.346 E4.41532
G1 X152.984 Y131.361 E4.41846
G1 X153.77 Y131.173 E4.43062
G1 X154.567 Y130.904 E4.44328
G1 X155.332 Y130.564 E4.45588
G1 X156.063 Y130.157 E4.46847
G1 X156.95 Y129.553 E4.48462
G1 X157.354 Y129.547 E4.4907
G1 X157.64 Y129.667 E4.49537
G1 X158.109 Y130.07 E4.50467
G1 X158.252 Y130.494 E4.51141
G1 X157.949 Y131.55 E4.52794
G1 X157.788 Y132.37 E4.54051
G1 X157.704 Y133.188 E4.55289
G1 X157.696 Y134.024 E4.56547
G1 X157.763 Y134.833 E4.57769
G1 X157.839 Y135.027 E4.58082
G1 X158.512 Y135.324 E4.59189
G1 X158.703 Y135.254 E4.59495
G1 X159.35 Y134.758 E4.60722
G1 X159.968 Y134.19 E4.61985
G1 X160.531 Y133.567 E4.63249
G1 X161.033 Y132.899 E4.64506
G1 X161.595 Y131.986 E4.6612
G1 X161.961 Y131.819 E4.66725
G1 X162.273 Y131.813 E4.67195
G1 X162.878 Y131.99 E4.68143
G1 X163.168 Y132.324 E4.68809
G1 X163.315 Y133.38 E4.70413
G1 X163.502 Y134.202 E4.71682
G1 X163.76 Y134.994 E4.72935
G1 X164.095 Y135.766 E4.74202
G1 X164.486 Y136.485 E4.75433
G1 X164.63 Y136.626 E4.75737
G1 X165.37 Y136.625 E4.7685
G1 X165.512 Y136.484 E4.77151
G1 X165.904 Y135.766 E4.78382
G1 X166.238 Y134.995 E4.79647
G1 X166.497 Y134.202 E4.80902
G1 X166.684 Y133.382 E4.82168
G1 X166.834 Y132.316 E4.83788
G1 X167.122 Y131.99 E4.84442
G1 X167.722 Y131.813 E4.85384
G1 X168.033 Y131.818 E4.85852
G1 X168.403 Y131.986 E4.86463
G1 X168.966 Y132.899 E4.88077
G1 X169.468 Y133.567 E4.89335
G1 X170.031 Y134.19 E4.90599
G1 X170.649 Y134.758 E4.91862
G1 X171.295 Y135.254 E4.93087
G1 X171.489 Y135.325 E4.93398
G1 X172.16 Y135.027 E4.94503
G1 X172.236 Y134.833 E4.94817
G1 X172.303 Y134.02 E4.96044
G1 X172.295 Y133.184 E4.97302
G1 X172.208 Y132.348 E4.98567
G1 X172.05 Y131.55 E4.99791
G1 X171.747 Y130.495 E5.01443
G1 X171.877 Y130.083 E5.02093
G1 X172.357 Y129.668 E5.03048
G1 X172.645 Y129.547 E5.03518
G1 X173.047 Y129.553 E5.04123
G1 X173.936 Y130.157 E5.05741
G1 X174.667 Y130.565 E5.07
G1 X175.43 Y130.903 E5.08256
G1 X176.229 Y131.173 E5.09525
G1 X177.015 Y131.361 E5.10741
G1 X177.223 Y131.346 E5.11055
G1 X177.716 Y130.801 E5.12161
G1 X177.708 Y130.591 E5.12477
G1 X177.444 Y129.839 E5.13677
G1 X177.089 Y129.064 E5.1496
G1 X176.657 Y128.319 E5.16256
G1 X176.195 Y127.656 E5.17472
G1 X175.497 Y126.834 E5.19094
G1 X175.446 Y126.397 E5.19756
G1 X175.715 Y125.831 E5.20699
G1 X175.929 Y125.599 E5.21174
G1 X176.304 Y125.44 E5.21787
G1 X177.357 Y125.631 E5.23398
G1 X178.193 Y125.705 E5.24661
G1 X179.026 Y125.704 E5.25914
G1 X179.862 Y125.625 E5.27178
G1 X180.662 Y125.476 E5.28403
G1 X180.847 Y125.378 E5.28718
G1 X181.072 Y124.678 E5.29824
G1 X180.984 Y124.497 E5.30127
G1 X180.422 Y123.904 E5.31356
G1 X179.792 Y123.349 E5.3262
G1 X179.117 Y122.856 E5.33878
G1 X178.396 Y122.424 E5.35143
G1 X177.435 Y121.961 E5.36748
G1 X177.208 Y121.585 E5.37409
G1 X177.225 Y120.948 E5.38368
G1 X177.324 Y120.658 E5.38829
G1 X177.606 Y120.357 E5.3945
G1 X178.64 Y120.107 E5.4105
G1 X179.435 Y119.834 E5.42315
G1 X180.198 Y119.491 E5.43574
G1 X180.928 Y119.08 E5.44835
G1 X181.601 Y118.615 E5.46066
G1 X181.707 Y118.4 E5.46427
G1 X181.715 Y118.349 E5.46504
G1 X181.65 Y117.723 E5.47451
G1 X181.492 Y117.593 E5.47759
G1 X180.741 Y117.281 E5.48983
G1 X179.942 Y117.031 E5.50243
G1 X179.119 Y116.854 E5.5151
G1 X178.288 Y116.753 E5.52769
G1 X177.217 Y116.719 E5.54382
G1 X176.867 Y116.464 E5.55034
G1 X176.727 Y116.219 E5.55458
G1 X176.579 Y115.609 E5.56403
G1 X176.719 Y115.195 E5.5706
G1 X177.569 Y114.533 E5.58682
G1 X178.183 Y113.963 E5.59943
G1 X178.741 Y113.339 E5.61202
G1 X179.243 Y112.665 E5.62467
G1 X179.666 Y111.97 E5.63691
G1 X179.717 Y111.773 E5.63997
G1 X179.346 Y111.133 E5.65111
G1 X179.15 Y111.078 E5.65417
G1 X178.34 Y111.099 E5.66636
G1 X177.507 Y111.196 E5.67898
G1 X176.682 Y111.369 E5.69167
G1 X175.883 Y111.614 E5.70424
G1 X174.894 Y112.02 E5.72033
G1 X174.467 Y111.937 E5.72688
G1 X173.993 Y111.488 E5.7367
G1 X173.85 Y111.226 E5.7412
G1 X173.813 Y110.823 E5.74729
G1 X174.319 Y109.891 E5.76324
G1 X174.657 Y109.086 E5.77638
G1 X174.906 Y108.313 E5.7886
G1 X175.09 Y107.494 E5.80124
G1 X175.196 Y106.691 E5.81343
G1 X175.16 Y106.481 E5.81663
G1 X174.567 Y106.053 E5.82764
G1 X174.358 Y106.083 E5.83081
G1 X173.625 Y106.431 E5.84302
G1 X172.905 Y106.858 E5.85562
G1 X172.224 Y107.349 E5.86826
G1 X171.596 Y107.898 E5.88081
G1 X170.852 Y108.674 E5.89699
G1 X170.378 Y108.755 E5.90422
G1 X169.849 Y108.569 E5.91266
G1 X169.58 Y108.372 E5.91768
G1 X169.383 Y108.021 E5.92373
G1 X169.464 Y106.95 E5.9399
G1 X169.451 Y106.112 E5.95251
G1 X169.361 Y105.278 E5.96513
G1 X169.198 Y104.48 E5.97739
G1 X168.965 Y103.684 E5.98987
G1 X168.849 Y103.51 E5.99302
G1 X168.128 Y103.353 E6.00412
G1 X167.957 Y103.46 E6.00716
G1 X167.424 Y104.082 E6.01948
G1 X166.938 Y104.765 E6.0321
G1 X166.512 Y105.501 E6.0449
G1 X166.164 Y106.252 E6.05735
G1 X165.8 Y107.26 E6.07348
G1 X165.414 Y107.525 E6.08053
G1 X164.82 Y107.57 E6.08949
G1 X164.52 Y107.502 E6.09412
G1 X164.201 Y107.263 E6.10012
G1 X163.839 Y106.263 E6.11612
G1 X163.481 Y105.489 E6.12895
G1 X163.059 Y104.764 E6.14158
G1 X162.573 Y104.08 E6.1542
G1 X162.042 Y103.46 E6.16649
G1 X161.871 Y103.353 E6.16952
G1 X161.15 Y103.51 E6.18063
G1 X161.034 Y103.684 E6.18378
G1 X160.801 Y104.48 E6.19626
G1 X160.635 Y105.299 E6.20883
G1 X160.548 Y106.116 E6.2212
G1 X160.535 Y106.951 E6.23376
G1 X160.615 Y108.021 E6.24991
G1 X160.4 Y108.393 E6.25638
G1 X160.169 Y108.559 E6.26066
G1 X159.608 Y108.758 E6.26961
G1 X159.151 Y108.674 E6.27661
G1 X158.404 Y107.898 E6.29281
G1 X157.772 Y107.347 E6.30543
G1 X157.094 Y106.858 E6.31801
G1 X156.371 Y106.429 E6.33066
G1 X155.641 Y106.083 E6.34282
G1 X155.432 Y106.053 E6.346
G1 X154.839 Y106.481 E6.357
G1 X154.803 Y106.691 E6.36021
G1 X154.909 Y107.492 E6.37237
G1 X155.093 Y108.313 E6.38503
G1 X155.341 Y109.084 E6.39722
G1 X155.68 Y109.891 E6.41039
G1 X156.187 Y110.822 E6.42634
G1 X156.135 Y111.274 E6.43319
G1 X155.779 Y111.744 E6.44206
G1 X155.504 Y111.943 E6.44717
G1 X155.106 Y112.02 E6.45327
G1 X154.118 Y111.615 E6.46934
G1 X153.316 Y111.369 E6.48196
G1 X152.492 Y111.196 E6.49463
G1 X151.661 Y111.099 E6.50722
G1 X150.849 Y111.079 E6.51945
G1 X150.653 Y111.134 E6.52251
G1 X150.282 Y111.773 E6.53363
G1 X150.332 Y111.97 E6.53669
G1 X150.756 Y112.665 E6.54894
G1 X151.256 Y113.337 E6.56154
G1 X151.815 Y113.963 E6.57417
G1 X152.43 Y114.534 E6.5868
G1 X153.274 Y115.187 E6.60286
G1 X153.421 Y115.606 E6.60954
G1 X153.271 Y116.223 E6.6191
G1 X153.114 Y116.485 E6.62369
G1 X152.782 Y116.718 E6.6298
G1 X151.713 Y116.753 E6.64589
G1 X150.88 Y116.854 E6.65852
G1 X150.057 Y117.031 E6.67119
G1 X149.26 Y117.28 E6.68375
G1 X148.507 Y117.593 E6.69602
G1 X148.349 Y117.723 E6.6991
G1 X148.273 Y118.458 E6.71022
G1 X148.398 Y118.615 E6.71324
G1 X149.071 Y119.08 E6.72555
G1 X149.801 Y119.491 E6.73816
G1 X150.562 Y119.833 E6.75072
G1 X151.359 Y120.107 E6.7634
G1 X152.394 Y120.358 E6.77942
G1 X152.698 Y120.684 E6.78613
G0 F1285.7 X152.734 Y120.88
G0 X153.382 Y120.758
G0 X153.409 Y121.859
G0 X152.801 Y122.602
G0 X151.292 Y123.404
G0 X150.04 Y124.405
G0 X151.774 Y125.024
G0 X154.041 Y124.839
G0 X154.853 Y125.458
G0 X155.224 Y126.556
G0 X154.98 Y127.322
G0 X154.317 Y128.112
G0 X153.497 Y129.416
G0 X153.018 Y130.589
G0 X154.346 Y130.257
G0 X155.741 Y129.553
G0 X157.047 Y128.866
G0 X158.115 Y129.175
G0 X158.796 Y129.942
G0 X158.886 Y130.758
