;START_OF_HEADER
;HEADER_VERSION:0.1
;FLAVOR:Griffin
;GENERATOR.NAME:Cura_SteamEngine
;GENERATOR.VERSION:main
;GENERATOR.BUILD_DATE:2022-09-13
;TARGET_MACHINE.NAME:Ultimaker S5
;EXTRUDER_TRAIN.0.INITIAL_TEMPERATURE:200
;EXTRUDER_TRAIN.0.MATERIAL.VOLUME_USED:846
;EXTRUDER_TRAIN.0.MATERIAL.GUID:506c9f0d-e3aa-4bd4-b2d2-23e2425b1aa9
;EXTRUDER_TRAIN.0.NOZZLE.DIAMETER:0.4
;EXTRUDER_TRAIN.0.NOZZLE.NAME:AA 0.4
;BUILD_PLATE.TYPE:glass
;BUILD_PLATE.INITIAL_TEMPERATURE:60
;BUILD_VOLUME.TEMPERATURE:28
;PRINT.TIME:857
;PRINT.GROUPS:1
;PRINT.SIZE.MIN.X:151.843
;PRINT.SIZE.MIN.Y:106.892
;PRINT.SIZE.MIN.Z:0.2
;PRINT.SIZE.MAX.X:178.157
;PRINT.SIZE.MAX.Y:133.108
;PRINT.SIZE.MAX.Z:5
;END_OF_HEADER
;Generated with Cura_SteamEngine main
T0
M82 ;absolute extrusion mode
G28 ;Home
G1 Z15.0 F6000 ;Move the platform down 15mm
G1 X5 Y-5 F3000
;Prime the extruder
G92 E0
G1 Z2.0 F3000
G1 X15 Y3.5 Z0.3 F5000.0
G1 X175 Y3.5 Z0.3 F1500.0 E20
G1 X175 Y4.5 Z0.3 F5000.0
G1 X85 Y4.5 Z0.3 F1500.0 E30
M420 S1
G92 E0
G92 E0
M109 S200
G280 S1
G0 Z20.001
G1 F2700 E-6.5
;LAYER_COUNT:49
;LAYER:0
M107
M204 S1000
M205 X20 Y20
G1 F600 Z2.2
G0 F1285.7 X175.572 Y127.715 Z2.2
G0 X172.468 Y130.63
;TYPE:SKIRT
G1 F600 Z0.2
G1 F2700 E0
G1 F600 X171.489 Y131.348 E0.01827
G1 X170.881 Y131.735 E0.02912
G1 X170.109 Y132.079 E0.04183
G1 X169.426 Y132.331 E0.05279
G1 X168.192 Y132.587 E0.07175
G1 X166.28 Y132.999 E0.10119
G1 X165.578 Y133.102 E0.11186
G1 X164.76 Y133.108 E0.12417
G1 X164.031 Y133.065 E0.13516
G1 X160.786 Y132.375 E0.18509
G1 X160.082 Y132.176 E0.1961
G1 X159.336 Y131.834 E0.20845
G1 X158.724 Y131.503 E0.21892
G1 X156.119 Y129.607 E0.2674
G1 X155.573 Y129.152 E0.2781
G1 X155.027 Y128.547 E0.29036
G1 X154.584 Y127.988 E0.30109
G1 X153.751 Y126.541 E0.32622
G1 X153.703 Y126.47 E0.32751
G1 X153.26 Y125.681 E0.34113
G1 X152.975 Y125.195 E0.34961
G1 X152.656 Y124.558 E0.36033
G1 X152.392 Y123.759 E0.37299
G1 X152.212 Y123.063 E0.38381
G1 X152.023 Y121.31 E0.41034
G1 X151.943 Y120.454 E0.42328
G1 X151.875 Y119.84 E0.43257
G1 X151.843 Y119.123 E0.44337
G1 X151.928 Y118.292 E0.45594
G1 X152.047 Y117.591 E0.46664
G1 X152.582 Y115.925 E0.49298
G1 X152.857 Y115.111 E0.50591
G1 X153.046 Y114.516 E0.5153
G1 X153.308 Y113.847 E0.52611
G1 X153.721 Y113.125 E0.53863
G1 X154.119 Y112.525 E0.54946
G1 X156.304 Y110.1 E0.59859
G1 X156.811 Y109.606 E0.60924
G1 X157.473 Y109.122 E0.62158
G1 X158.077 Y108.738 E0.63235
G1 X161.036 Y107.421 E0.68109
G1 X161.698 Y107.178 E0.6917
G1 X162.52 Y106.999 E0.70436
G1 X163.232 Y106.892 E0.7152
G1 X166.5 Y106.893 E0.76437
G1 X167.213 Y106.94 E0.77513
G1 X168.019 Y107.112 E0.78753
G1 X168.7 Y107.305 E0.79818
G1 X171.664 Y108.625 E0.84701
G1 X172.287 Y108.951 E0.85759
G1 X172.95 Y109.429 E0.86989
G1 X173.512 Y109.894 E0.88086
G1 X174.46 Y110.951 E0.90223
G1 X174.678 Y111.182 E0.90701
G1 X175.154 Y111.723 E0.91785
G1 X175.673 Y112.294 E0.92947
G1 X176.119 Y112.853 E0.94023
G1 X176.536 Y113.57 E0.95271
G1 X176.856 Y114.214 E0.96353
G1 X177.862 Y117.309 E1.0125
G1 X178.035 Y117.993 E1.02312
G1 X178.125 Y118.813 E1.03554
G1 X178.157 Y119.544 E1.04655
G1 X178.004 Y120.932 E1.06756
G1 X177.822 Y122.73 E1.09476
G1 X177.706 Y123.424 E1.10534
G1 X177.453 Y124.229 E1.11804
G1 X177.187 Y124.915 E1.12911
G1 X176.159 Y126.686 E1.15993
G1 X175.572 Y127.715 E1.17776
G1 X175.18 Y128.312 E1.1885
G1 X174.611 Y128.946 E1.20132
G1 X174.097 Y129.449 E1.21215
G1 X173.319 Y130.011 E1.22659
G1 X172.673 Y130.496 E1.23875
G1 X172.468 Y130.63 E1.24243
G0 F1285.7 X168.095 Y132.117
G1 F600 X166.179 Y132.53 E1.27193
G1 X165.324 Y132.624 E1.28487
G1 X164.757 Y132.628 E1.2934
G1 X164.091 Y132.587 E1.30344
G1 X160.886 Y131.905 E1.35275
G1 X160.244 Y131.722 E1.3628
G1 X159.536 Y131.397 E1.37452
G1 X158.815 Y130.976 E1.38709
G1 X156.401 Y129.219 E1.43202
G1 X155.899 Y128.796 E1.4419
G1 X155.383 Y128.225 E1.45348
G1 X154.978 Y127.709 E1.46335
G1 X154.223 Y126.398 E1.48612
G1 X154.122 Y126.235 E1.489
G1 X153.687 Y125.461 E1.50236
G1 X153.389 Y124.952 E1.51124
G1 X153.097 Y124.363 E1.52113
G1 X152.848 Y123.608 E1.53309
G1 X152.684 Y122.964 E1.54309
G1 X152.501 Y121.265 E1.56881
G1 X152.421 Y120.416 E1.58164
G1 X152.352 Y119.787 E1.59116
G1 X152.326 Y119.128 E1.60109
G1 X152.406 Y118.341 E1.61299
G1 X152.517 Y117.693 E1.62289
G1 X153.037 Y116.079 E1.6484
G1 X153.303 Y115.29 E1.66093
G1 X153.503 Y114.661 E1.67087
G1 X153.748 Y114.046 E1.68083
G1 X154.138 Y113.364 E1.69265
G1 X154.508 Y112.809 E1.70269
G1 X156.66 Y110.421 E1.75106
G1 X157.303 Y109.841 E1.7641
G1 X157.756 Y109.51 E1.77254
G1 X158.313 Y109.159 E1.78245
G1 X161.231 Y107.86 E1.83051
G1 X162.047 Y107.593 E1.84343
G1 X162.622 Y107.468 E1.85229
G1 X163.277 Y107.372 E1.86225
G1 X166.499 Y107.373 E1.91073
G1 X167.151 Y107.418 E1.92057
G1 X167.918 Y107.582 E1.93237
G1 X168.544 Y107.761 E1.94217
G1 X171.469 Y109.063 E1.99035
G1 X172.216 Y109.492 E2.00331
G1 X172.67 Y109.819 E2.01173
G1 X173.183 Y110.245 E2.02177
G1 X174.205 Y111.385 E2.04481
G1 X174.317 Y111.499 E2.04721
G1 X174.765 Y112.009 E2.05743
G1 X175.318 Y112.617 E2.0698
G1 X175.727 Y113.134 E2.07972
G1 X176.121 Y113.811 E2.0915
G1 X176.413 Y114.404 E2.10145
G1 X177.405 Y117.457 E2.14976
G1 X177.586 Y118.298 E2.1627
G1 X177.648 Y118.865 E2.17129
G1 X177.675 Y119.54 E2.18145
G1 X177.527 Y120.879 E2.20173
G1 X177.345 Y122.682 E2.229
G1 X177.173 Y123.518 E2.24184
G1 X176.995 Y124.085 E2.25078
G1 X176.749 Y124.715 E2.26096
G1 X175.744 Y126.445 E2.29107
G1 X175.156 Y127.477 E2.30894
G1 X174.792 Y128.025 E2.31884
G1 X174.253 Y128.626 E2.33099
G1 X173.776 Y129.089 E2.34099
G1 X173.038 Y129.621 E2.35468
G1 X172.385 Y130.112 E2.36698
G1 X172.186 Y130.241 E2.37055
G1 X171.205 Y130.96 E2.38885
G1 X170.644 Y131.315 E2.39884
G1 X169.913 Y131.641 E2.41089
G1 X169.288 Y131.87 E2.4209
G1 X168.095 Y132.117 E2.43924
G0 F1285.7 X164.053 Y131.597
G1 F600 X161.086 Y130.966 E2.48488
G1 X160.409 Y130.742 E2.49561
G1 X159.936 Y130.525 E2.50345
G1 X159.38 Y130.2 E2.51314
G1 X156.966 Y128.443 E2.55807
G1 X156.468 Y127.995 E2.56815
G1 X156.095 Y127.582 E2.57652
G1 X155.693 Y127.027 E2.58684
G1 X154.998 Y125.821 E2.60778
G1 X154.959 Y125.764 E2.60882
G1 X154.516 Y124.976 E2.62242
G1 X154.218 Y124.467 E2.6313
G1 X153.937 Y123.846 E2.64156
G1 X153.759 Y123.307 E2.6501
G1 X153.615 Y122.639 E2.66038
G1 X153.457 Y121.175 E2.68254
G1 X153.374 Y120.289 E2.69593
G1 X153.307 Y119.682 E2.70512
G1 X153.304 Y118.997 E2.71543
G1 X153.361 Y118.438 E2.72389
G1 X153.503 Y117.764 E2.73425
G1 X153.946 Y116.386 E2.75603
G1 X154.222 Y115.569 E2.76901
G1 X154.418 Y114.952 E2.77875
G1 X154.694 Y114.325 E2.78906
G1 X154.971 Y113.841 E2.79745
G1 X155.376 Y113.281 E2.80785
G1 X157.374 Y111.063 E2.85278
G1 X157.869 Y110.616 E2.86281
G1 X158.322 Y110.285 E2.87126
G1 X158.916 Y109.941 E2.88159
G1 X161.621 Y108.737 E2.92614
G1 X162.251 Y108.531 E2.93612
G1 X162.826 Y108.406 E2.94497
G1 X163.515 Y108.332 E2.9554
G1 X166.499 Y108.333 E3.0003
G1 X167.175 Y108.404 E3.01053
G1 X167.718 Y108.52 E3.01889
G1 X168.359 Y108.729 E3.02903
G1 X171.079 Y109.94 E3.07384
G1 X171.655 Y110.271 E3.08384
G1 X172.109 Y110.598 E3.09226
G1 X172.628 Y111.065 E3.10276
G1 X173.536 Y112.078 E3.12323
G1 X173.596 Y112.133 E3.12446
G1 X174.055 Y112.655 E3.13492
G1 X174.608 Y113.263 E3.14729
G1 X175.011 Y113.813 E3.15755
G1 X175.291 Y114.294 E3.16592
G1 X175.572 Y114.923 E3.17629
G1 X176.492 Y117.754 E3.22109
G1 X176.632 Y118.403 E3.23108
G1 X176.694 Y118.97 E3.23966
G1 X176.693 Y119.678 E3.25031
G1 X176.576 Y120.744 E3.26645
G1 X176.39 Y122.586 E3.29431
G1 X176.257 Y123.23 E3.30421
G1 X176.079 Y123.797 E3.31315
G1 X175.79 Y124.454 E3.32395
G1 X174.914 Y125.963 E3.35021
G1 X174.322 Y127.002 E3.36821
G1 X173.92 Y127.56 E3.37855
G1 X173.539 Y127.985 E3.38714
G1 X173.02 Y128.451 E3.39764
G1 X172.467 Y128.849 E3.40789
G1 X171.808 Y129.345 E3.42031
G1 X171.629 Y129.459 E3.4235
G1 X170.637 Y130.186 E3.44201
G1 X170.042 Y130.532 E3.45236
G1 X169.522 Y130.764 E3.46093
G1 X168.86 Y130.978 E3.4714
G1 X167.9 Y131.176 E3.48615
G1 X165.977 Y131.591 E3.51576
G1 X165.317 Y131.664 E3.52575
G1 X164.75 Y131.668 E3.53428
G1 X164.053 Y131.597 E3.54483
G0 F1285.7 X159.736 Y130.961
G1 F600 X159.098 Y130.588 E3.55595
G1 X156.684 Y128.831 E3.60088
G1 X156.112 Y128.316 E3.61246
G1 X155.739 Y127.903 E3.62083
G1 X155.277 Y127.267 E3.63266
G1 X154.601 Y126.093 E3.65305
G1 X154.54 Y126 E3.65472
G1 X154.069 Y125.162 E3.66919
G1 X153.804 Y124.709 E3.67709
G1 X153.482 Y123.997 E3.68885
G1 X153.304 Y123.458 E3.69739
G1 X153.137 Y122.69 E3.70922
G1 X152.979 Y121.22 E3.73146
G1 X152.902 Y120.395 E3.74393
G1 X152.829 Y119.734 E3.75394
G1 X152.826 Y118.949 E3.76575
G1 X152.883 Y118.39 E3.77421
G1 X153.047 Y117.616 E3.78612
G1 X153.475 Y116.3 E3.80694
G1 X153.491 Y116.232 E3.80799
G1 X153.781 Y115.373 E3.82164
G1 X153.961 Y114.807 E3.83057
G1 X154.277 Y114.086 E3.84242
G1 X154.554 Y113.602 E3.85081
G1 X155.019 Y112.96 E3.86274
G1 X157.017 Y110.742 E3.90766
G1 X157.586 Y110.228 E3.9192
G1 X158.039 Y109.897 E3.92764
G1 X158.721 Y109.502 E3.93951
G1 X161.426 Y108.298 E3.98406
G1 X162.149 Y108.062 E3.99551
G1 X162.724 Y107.937 E4.00436
G1 X163.515 Y107.852 E4.01633
G1 X166.499 Y107.853 E4.06124
G1 X167.275 Y107.935 E4.07298
G1 X167.818 Y108.051 E4.08134
G1 X168.554 Y108.291 E4.09299
G1 X171.274 Y109.502 E4.13779
G1 X171.935 Y109.881 E4.14926
G1 X172.389 Y110.208 E4.15768
G1 X172.985 Y110.744 E4.16974
G1 X173.877 Y111.739 E4.18985
G1 X173.957 Y111.816 E4.19152
G1 X174.43 Y112.354 E4.2023
G1 X174.963 Y112.94 E4.21422
G1 X175.426 Y113.572 E4.22601
G1 X175.706 Y114.053 E4.23438
G1 X176.029 Y114.774 E4.24627
G1 X176.949 Y117.605 E4.29107
G1 X177.109 Y118.351 E4.30255
G1 X177.171 Y118.918 E4.31113
G1 X177.171 Y119.73 E4.32335
G1 X177.05 Y120.826 E4.33995
G1 X176.867 Y122.634 E4.36729
G1 X176.715 Y123.374 E4.37866
G1 X176.537 Y123.941 E4.3876
G1 X176.309 Y124.515 E4.3969
G1 X175.344 Y126.179 E4.42585
G1 X174.739 Y127.24 E4.44423
G1 X174.277 Y127.88 E4.4561
G1 X173.896 Y128.305 E4.46469
G1 X173.301 Y128.84 E4.47673
G1 X172.721 Y129.258 E4.48749
G1 X172.096 Y129.728 E4.49926
G1 X171.913 Y129.846 E4.50254
G1 X170.921 Y130.573 E4.52104
G1 X170.238 Y130.97 E4.53293
G1 X169.718 Y131.202 E4.5415
G1 X168.957 Y131.448 E4.55354
G1 X167.997 Y131.646 E4.56829
G1 X166.078 Y132.06 E4.59783
G1 X165.32 Y132.144 E4.60931
G1 X164.753 Y132.148 E4.61784
G1 X163.953 Y132.067 E4.62994
G1 X160.986 Y131.436 E4.67559
G1 X160.394 Y131.263 E4.68487
G1 X159.736 Y130.961 E4.69576
G1 F2700 E-1.80424
G1 F600 Z2.2
;MESH:gearMk2_v1- M1Z15.stl
G0 F1285.7 X163.242 Y119.95 Z2.2
;TYPE:WALL-OUTER
G1 F600 Z0.2
G1 F2700 E4.69576
G1 F600 X163.4 Y119.211 E4.70714
G1 X163.72 Y118.73 E4.71583
G1 X164.172 Y118.39 E4.72434
G1 X164.551 Y118.241 E4.73047
G1 X165.095 Y118.182 E4.7387
G1 X165.657 Y118.306 E4.74736
G1 X166.264 Y118.715 E4.75838
G1 X166.597 Y119.206 E4.76731
G1 X166.75 Y119.89 E4.77785
G1 X166.753 Y119.956 E4.77885
G1 X166.608 Y120.625 E4.78915
G1 X166.392 Y121.008 E4.79577
G1 X165.841 Y121.479 E4.80667
G1 X165.297 Y121.664 E4.81532
G1 X164.726 Y121.668 E4.82391
G1 X164.337 Y121.56 E4.82999
G1 X163.853 Y121.268 E4.8385
G1 X163.4 Y120.664 E4.84986
G1 X163.242 Y119.95 E4.86086
G0 F1285.7 X163.283 Y119.755
G0 X162.75 Y119.946
;TYPE:WALL-INNER
G1 F600 X162.946 Y119.032 E4.87493
G1 X163.36 Y118.404 E4.88625
G1 X163.913 Y117.98 E4.89673
G1 X164.394 Y117.785 E4.90454
G1 X165.106 Y117.695 E4.91534
G1 X165.844 Y117.854 E4.9267
G1 X166.614 Y118.372 E4.94067
G1 X167.04 Y119.002 E4.95211
G1 X167.223 Y119.81 E4.96458
G1 X167.231 Y120.004 E4.9675
G1 X167.064 Y120.789 E4.97958
G1 X166.776 Y121.308 E4.98851
G1 X166.072 Y121.912 E5.00247
G1 X165.365 Y122.145 E5.01367
G1 X164.657 Y122.15 E5.02433
G1 X164.131 Y121.994 E5.03258
G1 X163.542 Y121.641 E5.04292
G1 X162.956 Y120.883 E5.05734
G1 X162.75 Y119.946 E5.07177
G1 F2700 E-1.42823
G0 F1285.7 X162.628 Y119.946
G0 X162.9 Y118.879
G0 X163.943 Y117.835
G0 X165.161 Y117.486
G0 X165.161 Y114.65
G1 F2700 E5.07177
G0 F1285.7 X165.476 Y113.844
;TYPE:WALL-OUTER
G1 F600 X165.33 Y113.925 E5.07429
G1 X164.684 Y113.927 E5.08401
G1 X164.525 Y113.847 E5.08669
G1 X164.151 Y112.87 E5.10243
G1 X163.924 Y112.469 E5.10936
G1 X163.412 Y111.829 E5.1217
G1 X163.146 Y111.886 E5.12579
G1 X163.045 Y112.198 E5.13072
G1 X162.899 Y113.139 E5.14505
G1 X162.954 Y114.181 E5.16076
G1 X162.833 Y114.324 E5.16358
G1 X162.268 Y114.575 E5.17288
G1 X162.088 Y114.565 E5.17559
G1 X161.348 Y113.82 E5.19139
G1 X160.978 Y113.552 E5.19827
G1 X160.249 Y113.176 E5.21061
G1 X160.039 Y113.329 E5.21452
G1 X160.167 Y114.126 E5.22667
G1 X160.511 Y115.014 E5.241
G1 X160.779 Y115.544 E5.24994
G1 X160.732 Y115.701 E5.2524
G1 X160.313 Y116.166 E5.26182
G1 X160.151 Y116.212 E5.26436
G1 X159.177 Y115.836 E5.28007
G1 X158.722 Y115.738 E5.28707
G1 X157.91 Y115.692 E5.29931
G1 X157.775 Y115.925 E5.30336
G1 X157.941 Y116.21 E5.30833
G1 X158.539 Y116.943 E5.32256
G1 X159.354 Y117.603 E5.33835
G1 X159.386 Y117.782 E5.34108
G1 X159.196 Y118.36 E5.35024
G1 X159.084 Y118.483 E5.35274
G1 X158.493 Y118.509 E5.36164
G1 X157.555 Y118.656 E5.37593
G1 X156.798 Y118.942 E5.38811
G1 X156.769 Y119.213 E5.39221
G1 X157.036 Y119.403 E5.39714
G1 X157.884 Y119.833 E5.41145
G1 X158.821 Y120.081 E5.42604
G1 X158.988 Y120.196 E5.42909
G1 X159.054 Y120.893 E5.43962
G1 X158.989 Y121.046 E5.44212
G1 X158.056 Y121.519 E5.45787
G1 X157.32 Y122.114 E5.47211
G1 X157.099 Y122.356 E5.47704
G1 X157.186 Y122.621 E5.48124
G1 X157.513 Y122.689 E5.48626
G1 X158.449 Y122.735 E5.50036
G1 X159.486 Y122.57 E5.51617
G1 X159.628 Y122.656 E5.51866
G1 X159.957 Y123.212 E5.52839
G1 X159.96 Y123.367 E5.53072
G1 X159.579 Y123.825 E5.53968
G1 X159.068 Y124.608 E5.55375
G1 X158.772 Y125.366 E5.566
G1 X158.949 Y125.562 E5.56997
G1 X159.726 Y125.351 E5.58209
G1 X160.573 Y124.916 E5.59642
G1 X161.061 Y124.589 E5.60526
G1 X161.2 Y124.605 E5.60737
G1 X161.71 Y124.972 E5.61682
G1 X161.79 Y125.121 E5.61937
G1 X161.631 Y125.685 E5.62818
G1 X161.481 Y126.627 E5.64254
G1 X161.519 Y127.431 E5.65465
G1 X161.757 Y127.536 E5.65856
G1 X162.387 Y127.022 E5.6708
G1 X162.981 Y126.285 E5.68504
G1 X163.294 Y125.79 E5.69386
G1 X163.441 Y125.746 E5.69617
G1 X164.077 Y125.881 E5.70595
G1 X164.198 Y125.997 E5.70847
G1 X164.359 Y127.023 E5.7241
G1 X164.699 Y127.916 E5.73848
G1 X164.859 Y128.197 E5.74335
G1 X165.14 Y128.197 E5.74758
G1 X165.3 Y127.916 E5.75244
G1 X165.64 Y127.023 E5.76682
G1 X165.802 Y125.992 E5.78253
G1 X165.949 Y125.877 E5.78534
G1 X166.577 Y125.741 E5.795
G1 X166.704 Y125.79 E5.79705
G1 X167.018 Y126.285 E5.80587
G1 X167.612 Y127.023 E5.82013
G1 X168.242 Y127.536 E5.83236
G1 X168.48 Y127.431 E5.83627
G1 X168.518 Y126.625 E5.84841
G1 X168.368 Y125.684 E5.86275
G1 X168.218 Y125.229 E5.86996
G1 X168.23 Y125.015 E5.87319
G1 X168.783 Y124.613 E5.88348
G1 X168.938 Y124.589 E5.88584
G1 X169.426 Y124.916 E5.89468
G1 X170.273 Y125.35 E5.909
G1 X171.05 Y125.562 E5.92112
G1 X171.227 Y125.366 E5.92509
G1 X170.931 Y124.608 E5.93734
G1 X170.42 Y123.825 E5.95141
G1 X170.039 Y123.368 E5.96036
G1 X170.042 Y123.214 E5.96268
G1 X170.371 Y122.656 E5.97243
G1 X170.513 Y122.57 E5.97493
G1 X171.55 Y122.735 E5.99073
G1 X172.486 Y122.69 E6.00483
G1 X172.813 Y122.621 E6.00986
G1 X172.898 Y122.357 E6.01403
G1 X172.674 Y122.109 E6.01906
G1 X171.943 Y121.519 E6.0332
G1 X171.009 Y121.045 E6.04896
G1 X170.944 Y120.887 E6.05153
G1 X171.011 Y120.196 E6.06198
G1 X171.178 Y120.08 E6.06504
G1 X172.115 Y119.833 E6.07962
G1 X172.963 Y119.403 E6.09393
G1 X173.229 Y119.212 E6.09886
G1 X173.216 Y119.083 E6.10081
G1 X173.201 Y118.943 E6.10293
G1 X172.444 Y118.656 E6.11511
G1 X171.506 Y118.51 E6.12939
G1 X170.915 Y118.483 E6.1383
G1 X170.813 Y118.381 E6.14047
G1 X170.613 Y117.782 E6.14997
G1 X170.645 Y117.603 E6.15271
G1 X171.46 Y116.943 E6.16849
G1 X172.059 Y116.21 E6.18273
G1 X172.224 Y115.925 E6.18769
G1 X172.089 Y115.692 E6.19174
G1 X171.277 Y115.738 E6.20398
G1 X170.822 Y115.836 E6.21098
G1 X169.843 Y116.213 E6.22677
G1 X169.684 Y116.157 E6.22931
G1 X169.259 Y115.69 E6.23881
G1 X169.22 Y115.545 E6.24107
G1 X169.488 Y115.014 E6.25002
G1 X169.832 Y114.126 E6.26435
G1 X169.96 Y113.329 E6.2765
G1 X169.75 Y113.176 E6.28041
