;START_OF_HEADER
;HEADER_VERSION:0.1
;FLAVOR:Griffin
;GENERATOR.NAME:Cura_SteamEngine
;GENERATOR.VERSION:main
;GENERATOR.BUILD_DATE:2022-09-13
;TARGET_MACHINE.NAME:Ultimaker S5
;EXTRUDER_TRAIN.0.INITIAL_TEMPERATURE:200
;EXTRUDER_TRAIN.0.MATERIAL.VOLUME_USED:935
;EXTRUDER_TRAIN.0.MATERIAL.GUID:506c9f0d-e3aa-4bd4-b2d2-23e2425b1aa9
;EXTRUDER_TRAIN.0.NOZZLE.DIAMETER:0.4
;EXTRUDER_TRAIN.0.NOZZLE.NAME:AA 0.4
;BUILD_PLATE.TYPE:glass
;BUILD_PLATE.INITIAL_TEMPERATURE:60
;BUILD_VOLUME.TEMPERATURE:28
;PRINT.TIME:951
;PRINT.GROUPS:1
;PRINT.SIZE.MIN.X:149.557
;PRINT.SIZE.MIN.Y:104.603
;PRINT.SIZE.MIN.Z:0.2
;PRINT.SIZE.MAX.X:180.443
;PRINT.SIZE.MAX.Y:135.398
;PRINT.SIZE.MAX.Z:5
;END_OF_HEADER
;Generated with Cura_SteamEngine main
T0
M82 ;absolute extrusion mode

G92 E0
M109 S200
G280 S1
G0 Z20.001
G1 F2700 E-6.5
;LAYER_COUNT:49
;LAYER:0
M107
M204 S1000
M205 X20 Y20
G1 F600 Z2.2
G0 F1285.7 X177.278 Y129.307 Z2.2
G1 F600 Z0.2
G0 F1285.7 X163.974 Y135.358
;TYPE:SKIRT
G1 F2700 E0
G1 F600 X163.238 Y135.239 E0.01122
G1 X162.519 Y135.041 E0.02244
G1 X161.823 Y134.767 E0.0337
G1 X161.333 Y134.761 E0.04107
G1 X160.592 Y134.671 E0.05231
G1 X159.865 Y134.503 E0.06353
G1 X158.981 Y134.182 E0.07769
G1 X158.472 Y133.957 E0.08606
G1 X157.807 Y133.619 E0.09729
G1 X157.182 Y133.212 E0.10851
G1 X156.604 Y132.741 E0.11973
G1 X156.068 Y132.196 E0.13123
G1 X155.624 Y131.991 E0.13859
G1 X154.984 Y131.608 E0.14982
G1 X154.388 Y131.159 E0.16105
G1 X153.698 Y130.493 E0.17548
G1 X153.323 Y130.077 E0.18391
G1 X152.854 Y129.497 E0.19513
G1 X152.45 Y128.87 E0.20635
G1 X152.115 Y128.204 E0.21757
G1 X151.854 Y127.504 E0.22882
G1 X151.767 Y127.415 E0.23069
G1 X151.306 Y126.829 E0.24191
G1 X150.91 Y126.196 E0.25314
G1 X150.585 Y125.525 E0.26436
G1 X150.387 Y124.995 E0.27288
G1 X150.213 Y124.464 E0.28129
G1 X150.019 Y123.744 E0.29251
G1 X149.903 Y123.007 E0.30374
G1 X149.867 Y122.262 E0.31496
G1 X149.913 Y121.507 E0.32634
G1 X149.872 Y121.398 E0.3281
G1 X149.688 Y120.675 E0.33932
G1 X149.583 Y119.937 E0.35054
G1 X149.557 Y119.191 E0.36177
G1 X149.592 Y118.614 E0.37047
G1 X149.649 Y118.059 E0.37887
G1 X149.765 Y117.322 E0.39009
G1 X149.959 Y116.602 E0.40132
G1 X150.229 Y115.906 E0.41255
G1 X150.577 Y115.237 E0.4239
G1 X150.584 Y115.119 E0.42568
G1 X150.71 Y114.384 E0.4369
G1 X150.914 Y113.667 E0.44812
G1 X151.194 Y112.975 E0.45935
G1 X151.464 Y112.456 E0.46815
G1 X151.743 Y111.971 E0.47657
G1 X152.149 Y111.346 E0.48779
G1 X152.62 Y110.767 E0.49902
G1 X153.15 Y110.242 E0.51025
G1 X153.742 Y109.771 E0.52163
G1 X153.989 Y109.355 E0.52891
G1 X154.436 Y108.758 E0.54014
G1 X154.945 Y108.212 E0.55137
G1 X155.688 Y107.589 E0.56596
G1 X156.14 Y107.261 E0.57436
G1 X156.767 Y106.856 E0.5856
G1 X157.433 Y106.52 E0.59682
G1 X158.131 Y106.257 E0.60805
G1 X158.801 Y106.084 E0.61846
G1 X159.55 Y105.61 E0.6318
G1 X160.219 Y105.28 E0.64302
G1 X160.92 Y105.024 E0.65425
G1 X161.518 Y104.869 E0.66355
G1 X162.067 Y104.753 E0.672
G1 X162.804 Y104.638 E0.68322
G1 X163.549 Y104.603 E0.69444
G1 X164.294 Y104.648 E0.70568
G1 X165.019 Y104.77 E0.71674
G1 X165.493 Y104.675 E0.72401
G1 X166.236 Y104.608 E0.73524
G1 X166.981 Y104.62 E0.74645
G1 X167.937 Y104.754 E0.76098
G1 X168.484 Y104.87 E0.76939
G1 X169.204 Y105.064 E0.78062
G1 X169.9 Y105.334 E0.79185
G1 X170.562 Y105.676 E0.80306
G1 X171.185 Y106.088 E0.8143
G1 X171.665 Y106.197 E0.82171
G1 X172.371 Y106.438 E0.83294
G1 X173.047 Y106.753 E0.84416
G1 X173.859 Y107.261 E0.85857
G1 X174.311 Y107.589 E0.86698
G1 X174.89 Y108.059 E0.8782
G1 X175.416 Y108.588 E0.88942
G1 X175.882 Y109.17 E0.90064
G1 X176.284 Y109.801 E0.9119
G1 X176.667 Y110.085 E0.91908
G1 X177.215 Y110.592 E0.93031
G1 X177.705 Y111.154 E0.94153
G1 X178.251 Y111.962 E0.95621
G1 X178.531 Y112.447 E0.96464
G1 X178.868 Y113.112 E0.97585
G1 X179.133 Y113.81 E0.98709
G1 X179.322 Y114.531 E0.99831
G1 X179.432 Y115.272 E1.00958
G1 X179.667 Y115.689 E1.01678
G1 X179.961 Y116.374 E1.028
G1 X180.18 Y117.088 E1.03924
G1 X180.35 Y118.059 E1.05407
G1 X180.407 Y118.614 E1.06247
G1 X180.443 Y119.359 E1.07369
G1 X180.399 Y120.104 E1.08492
G1 X180.276 Y120.839 E1.09614
G1 X180.094 Y121.49 E1.10631
G1 X180.132 Y122.377 E1.11967
G1 X180.083 Y123.121 E1.13089
G1 X179.955 Y123.856 E1.14212
G1 X179.786 Y124.464 E1.15161
G1 X179.612 Y124.995 E1.16002
G1 X179.342 Y125.691 E1.17126
G1 X178.999 Y126.353 E1.18248
G1 X178.588 Y126.975 E1.1937
G1 X178.127 Y127.532 E1.20458
G1 X177.973 Y127.989 E1.21183
G1 X177.661 Y128.667 E1.22306
G1 X177.278 Y129.307 E1.23429
G1 X176.676 Y130.077 E1.249
G1 X176.301 Y130.493 E1.25743
G1 X175.772 Y131.02 E1.26866
G1 X175.19 Y131.487 E1.27989
G1 X174.562 Y131.888 E1.2911
G1 X173.901 Y132.217 E1.30221
G1 X173.57 Y132.576 E1.30956
G1 X173.009 Y133.067 E1.32078
G1 X172.398 Y133.495 E1.33201
G1 X171.527 Y133.957 E1.34684
G1 X171.018 Y134.182 E1.35522
G1 X170.321 Y134.446 E1.36644
G1 X169.599 Y134.635 E1.37767
G1 X168.861 Y134.745 E1.3889
G1 X168.185 Y134.773 E1.39908
G1 X167.352 Y135.082 E1.41245
G1 X166.63 Y135.266 E1.42366
G1 X165.891 Y135.371 E1.43489
G1 X165.28 Y135.398 E1.44409
G1 X164.719 Y135.398 E1.45254
G1 X163.974 Y135.358 E1.46376
G0 F1285.7 X159.781 Y133.975
G1 F600 X159.175 Y133.743 E1.47353
G1 X158.666 Y133.518 E1.4819
G1 X158.025 Y133.191 E1.49273
G1 X157.424 Y132.795 E1.50356
G1 X156.871 Y132.334 E1.5144
G1 X156.368 Y131.81 E1.52533
G1 X155.692 Y131.482 E1.53663
G1 X155.086 Y131.095 E1.54746
G1 X154.525 Y130.643 E1.5583
G1 X154.055 Y130.172 E1.56831
G1 X153.68 Y129.756 E1.57674
G1 X153.228 Y129.195 E1.58758
G1 X152.842 Y128.588 E1.5984
G1 X152.525 Y127.942 E1.60923
G1 X152.279 Y127.251 E1.62027
G1 X152.029 Y126.984 E1.62577
G1 X151.599 Y126.407 E1.6366
G1 X151.235 Y125.786 E1.64744
G1 X150.843 Y124.846 E1.66276
G1 X150.669 Y124.315 E1.67117
G1 X150.483 Y123.619 E1.68201
G1 X150.376 Y122.908 E1.69283
G1 X150.348 Y122.189 E1.70366
G1 X150.404 Y121.448 E1.71484
G1 X150.287 Y121.11 E1.72023
G1 X150.127 Y120.408 E1.73106
G1 X150.046 Y119.693 E1.74189
G1 X150.07 Y118.663 E1.75739
G1 X150.127 Y118.108 E1.76579
G1 X150.24 Y117.397 E1.77662
G1 X150.431 Y116.703 E1.78745
G1 X150.698 Y116.035 E1.79828
G1 X151.05 Y115.382 E1.80944
G1 X151.08 Y115.025 E1.81483
G1 X151.22 Y114.319 E1.82567
G1 X151.437 Y113.632 E1.83651
G1 X151.88 Y112.696 E1.85209
G1 X152.159 Y112.211 E1.86051
G1 X152.552 Y111.608 E1.87134
G1 X153.009 Y111.052 E1.88217
G1 X153.526 Y110.551 E1.89301
G1 X154.095 Y110.109 E1.90385
G1 X154.489 Y109.476 E1.91507
G1 X154.937 Y108.913 E1.9259
G1 X155.444 Y108.403 E1.93672
G1 X155.97 Y107.977 E1.9469
G1 X156.422 Y107.649 E1.95531
G1 X157.027 Y107.26 E1.96613
G1 X157.672 Y106.939 E1.97697
G1 X158.348 Y106.693 E1.9878
G1 X159.051 Y106.522 E1.99869
G1 X159.323 Y106.314 E2.00384
G1 X159.941 Y105.944 E2.01468
G1 X160.595 Y105.645 E2.0255
G1 X161.617 Y105.339 E2.04155
G1 X162.166 Y105.223 E2.05
G1 X162.878 Y105.114 E2.06084
G1 X163.597 Y105.084 E2.07167
G1 X164.315 Y105.134 E2.0825
G1 X165.001 Y105.259 E2.09299
G1 X165.737 Y105.127 E2.10424
G1 X166.456 Y105.083 E2.11508
G1 X167.174 Y105.119 E2.1259
G1 X167.837 Y105.224 E2.136
G1 X168.384 Y105.34 E2.14442
G1 X169.079 Y105.528 E2.15525
G1 X169.749 Y105.792 E2.16609
G1 X170.385 Y106.129 E2.17692
G1 X170.97 Y106.528 E2.18758
G1 X171.704 Y106.709 E2.19895
G1 X172.378 Y106.961 E2.20978
G1 X173.02 Y107.287 E2.22062
G1 X173.577 Y107.649 E2.23061
G1 X174.029 Y107.977 E2.23902
G1 X174.587 Y108.432 E2.24985
G1 X175.091 Y108.945 E2.26067
G1 X175.536 Y109.512 E2.27152
G1 X175.907 Y110.113 E2.28215
G1 X176.495 Y110.57 E2.29336
G1 X177.009 Y111.073 E2.30418
G1 X177.464 Y111.631 E2.31501
G1 X177.835 Y112.202 E2.32526
G1 X178.115 Y112.687 E2.33369
G1 X178.44 Y113.329 E2.34452
G1 X178.691 Y114.004 E2.35535
G1 X178.866 Y114.702 E2.36618
G1 X178.961 Y115.404 E2.37684
G1 X179.313 Y116.061 E2.38806
G1 X179.577 Y116.731 E2.3989
G1 X179.765 Y117.425 E2.40972
G1 X179.872 Y118.108 E2.42012
G1 X179.929 Y118.663 E2.42852
G1 X179.963 Y119.382 E2.43935
G1 X179.916 Y120.1 E2.45018
G1 X179.791 Y120.809 E2.46101
G1 X179.591 Y121.486 E2.47163
G1 X179.635 Y121.829 E2.47684
G1 X179.647 Y122.549 E2.48767
G1 X179.579 Y123.265 E2.4985
G1 X179.413 Y124.063 E2.51076
G1 X179.156 Y124.846 E2.52316
G1 X178.894 Y125.516 E2.53399
G1 X178.56 Y126.154 E2.54483
G1 X178.156 Y126.75 E2.55566
G1 X177.714 Y127.27 E2.56593
G1 X177.46 Y127.975 E2.57721
G1 X177.139 Y128.62 E2.58805
G1 X176.749 Y129.225 E2.59888
G1 X176.319 Y129.756 E2.60916
G1 X175.944 Y130.172 E2.61759
G1 X175.433 Y130.679 E2.62842
G1 X174.869 Y131.126 E2.63925
G1 X174.259 Y131.508 E2.65009
G1 X173.627 Y131.812 E2.66064
G1 X173.107 Y132.354 E2.67194
G1 X172.551 Y132.812 E2.68278
G1 X171.949 Y133.205 E2.6936
G1 X171.333 Y133.518 E2.704
G1 X170.824 Y133.743 E2.71237
G1 X170.15 Y133.997 E2.72321
G1 X169.453 Y134.174 E2.73403
G1 X168.74 Y134.274 E2.74487
G1 X168.034 Y134.293 E2.7555
G1 X167.721 Y134.441 E2.76071
G1 X167.04 Y134.674 E2.77154
G1 X166.337 Y134.831 E2.78238
G1 X165.28 Y134.918 E2.79834
G1 X164.719 Y134.918 E2.80678
G1 X164 Y134.878 E2.81762
G1 X163.291 Y134.759 E2.82843
G1 X162.599 Y134.561 E2.83927
G1 X161.944 Y134.292 E2.84992
G1 X161.188 Y134.268 E2.8613
G1 X160.476 Y134.16 E2.87214
G1 X159.781 Y133.975 E2.88296
G0 F1285.7 X156.434 Y130.787
G1 F600 X155.856 Y130.459 E2.89297
G1 X155.322 Y130.064 E2.90296
G1 X154.768 Y129.529 E2.91455
G1 X154.393 Y129.113 E2.92298
G1 X153.979 Y128.594 E2.93297
G1 X153.63 Y128.028 E2.94298
G1 X153.351 Y127.425 E2.95297
G1 X153.141 Y126.763 E2.96343
G1 X153.004 Y126.635 E2.96625
G1 X152.575 Y126.127 E2.97625
G1 X152.211 Y125.572 E2.98624
G1 X151.856 Y124.854 E2.99829
G1 X151.581 Y124.016 E3.01157
G1 X151.413 Y123.373 E3.02157
G1 X151.323 Y122.715 E3.03156
G1 X151.312 Y122.051 E3.04155
G1 X151.391 Y121.353 E3.05213
G1 X151.319 Y121.185 E3.05488
G1 X151.133 Y120.548 E3.06486
G1 X151.025 Y119.892 E3.07487
G1 X150.991 Y119.091 E3.08693
G1 X151.082 Y118.206 E3.10032
G1 X151.189 Y117.551 E3.11031
G1 X151.375 Y116.913 E3.12031
G1 X151.636 Y116.302 E3.13031
G1 X151.99 Y115.697 E3.14085
G1 X151.993 Y115.513 E3.14362
G1 X152.082 Y114.855 E3.15362
G1 X152.25 Y114.213 E3.1636
G1 X152.546 Y113.464 E3.17572
G1 X152.991 Y112.69 E3.18916
G1 X153.356 Y112.135 E3.19915
G1 X153.786 Y111.628 E3.20916
G1 X154.273 Y111.176 E3.21916
G1 X154.836 Y110.772 E3.22958
G1 X155.102 Y110.285 E3.23793
G1 X155.489 Y109.745 E3.24793
G1 X155.937 Y109.255 E3.25792
G1 X156.534 Y108.754 E3.26965
G1 X156.986 Y108.426 E3.27806
G1 X157.546 Y108.069 E3.28805
G1 X158.145 Y107.782 E3.29804
G1 X158.774 Y107.569 E3.30804
G1 X159.444 Y107.431 E3.31833
G1 X159.573 Y107.318 E3.32091
G1 X160.121 Y106.943 E3.33091
G1 X160.71 Y106.637 E3.34089
G1 X161.332 Y106.404 E3.35089
G1 X161.816 Y106.278 E3.35841
G1 X162.365 Y106.162 E3.36686
G1 X163.022 Y106.064 E3.37686
G1 X163.686 Y106.046 E3.38685
G1 X164.347 Y106.107 E3.39684
G1 X165.008 Y106.252 E3.40702
G1 X165.546 Y106.125 E3.41534
G1 X166.206 Y106.05 E3.42534
G1 X166.871 Y106.056 E3.43535
G1 X167.638 Y106.163 E3.447
G1 X168.185 Y106.279 E3.45541
G1 X168.825 Y106.456 E3.46541
G1 X169.44 Y106.708 E3.47541
G1 X170.02 Y107.032 E3.48541
G1 X170.57 Y107.437 E3.49568
G1 X171.123 Y107.542 E3.50416
G1 X171.756 Y107.743 E3.51415
G1 X172.36 Y108.019 E3.52414
G1 X173.013 Y108.426 E3.53572
G1 X173.465 Y108.754 E3.54413
G1 X173.978 Y109.176 E3.55412
G1 X174.437 Y109.656 E3.56412
G1 X174.835 Y110.188 E3.57411
G1 X175.175 Y110.784 E3.58444
G1 X175.626 Y111.096 E3.59269
G1 X176.124 Y111.536 E3.60269
G1 X176.565 Y112.033 E3.61269
G1 X177.004 Y112.682 E3.62448
G1 X177.284 Y113.167 E3.63291
G1 X177.58 Y113.761 E3.6429
G1 X177.804 Y114.387 E3.6529
G1 X177.95 Y115.035 E3.6629
G1 X178.018 Y115.717 E3.67321
G1 X178.305 Y116.188 E3.68151
G1 X178.58 Y116.793 E3.69151
G1 X178.78 Y117.426 E3.7015
G1 X178.917 Y118.206 E3.71342
G1 X178.974 Y118.761 E3.72182
G1 X179.002 Y119.425 E3.73182
G1 X178.95 Y120.087 E3.74181
G1 X178.819 Y120.738 E3.7518
G1 X178.607 Y121.378 E3.76195
G1 X178.64 Y121.543 E3.76448
G1 X178.691 Y122.205 E3.77447
G1 X178.662 Y122.869 E3.78447
G1 X178.554 Y123.524 E3.79446
G1 X178.418 Y124.016 E3.80215
G1 X178.244 Y124.547 E3.81055
G1 X177.999 Y125.164 E3.82054
G1 X177.682 Y125.748 E3.83054
G1 X177.298 Y126.29 E3.84054
G1 X176.849 Y126.783 E3.85057
G1 X176.691 Y127.312 E3.85888
G1 X176.425 Y127.921 E3.86888
G1 X176.089 Y128.494 E3.87888
G1 X175.606 Y129.113 E3.89069
G1 X175.231 Y129.529 E3.89912
G1 X174.757 Y129.995 E3.90913
G1 X174.231 Y130.4 E3.91912
G1 X173.66 Y130.739 E3.92911
G1 X173.038 Y131.013 E3.93934
G1 X172.675 Y131.435 E3.94771
G1 X172.185 Y131.883 E3.9577
G1 X171.644 Y132.269 E3.9677
G1 X170.945 Y132.64 E3.97961
G1 X170.436 Y132.865 E3.98799
G1 X169.813 Y133.096 E3.99799
G1 X169.167 Y133.251 E4.00798
G1 X168.507 Y133.328 E4.01798
G1 X167.834 Y133.323 E4.02811
G1 X167.686 Y133.406 E4.03066
G1 X167.071 Y133.659 E4.04067
G1 X166.431 Y133.837 E4.05067
G1 X165.628 Y133.958 E4.06289
G1 X164.719 Y133.958 E4.07657
G1 X164.056 Y133.918 E4.08656
G1 X163.403 Y133.799 E4.09655
G1 X162.768 Y133.602 E4.10656
G1 X162.144 Y133.319 E4.11687
G1 X161.583 Y133.332 E4.12531
G1 X160.922 Y133.267 E4.13531
G1 X160.274 Y133.122 E4.1453
G1 X159.563 Y132.865 E4.15668
G1 X159.054 Y132.64 E4.16505
G1 X158.464 Y132.335 E4.17505
G1 X157.915 Y131.962 E4.18503
G1 X157.414 Y131.525 E4.19504
G1 X156.949 Y131.003 E4.20556
G1 X156.434 Y130.787 E4.21396
G0 F1285.7 X154.188 Y126.921
G1 F600 X154.012 Y126.283 E4.22392
G1 X153.515 Y125.768 E4.23469
G1 X153.157 Y125.281 E4.24379
G1 X152.867 Y124.752 E4.25287
G1 X152.668 Y124.248 E4.26102
G1 X152.494 Y123.717 E4.26943
G1 X152.344 Y123.132 E4.27852
G1 X152.273 Y122.533 E4.28759
G1 X152.282 Y121.929 E4.29668
G1 X152.38 Y121.264 E4.3068
G1 X152.138 Y120.6 E4.31744
G1 X152.008 Y120.011 E4.32651
G1 X151.957 Y119.409 E4.3356
G1 X151.98 Y118.859 E4.34389
G1 X152.037 Y118.304 E4.35228
G1 X152.138 Y117.709 E4.36137
G1 X152.317 Y117.133 E4.37044
G1 X152.571 Y116.585 E4.37953
G1 X152.93 Y116.018 E4.38963
G1 X152.979 Y115.312 E4.40028
G1 X153.1 Y114.72 E4.40937
G1 X153.297 Y114.15 E4.41845
G1 X153.544 Y113.653 E4.4268
G1 X153.823 Y113.168 E4.43522
G1 X154.158 Y112.666 E4.4443
G1 X154.557 Y112.212 E4.4534
G1 X155.012 Y111.816 E4.46247
G1 X155.591 Y111.431 E4.47294
G1 X155.776 Y111.032 E4.47956
G1 X156.101 Y110.523 E4.48864
G1 X156.489 Y110.061 E4.49772
G1 X157.098 Y109.531 E4.50987
G1 X157.55 Y109.203 E4.51828
G1 X158.061 Y108.882 E4.52736
G1 X158.61 Y108.631 E4.53644
G1 X159.187 Y108.454 E4.54552
G1 X159.832 Y108.348 E4.55536
G1 X160.384 Y107.915 E4.56592
G1 X160.903 Y107.608 E4.57499
G1 X161.459 Y107.372 E4.58408
G1 X162.014 Y107.218 E4.59275
G1 X162.563 Y107.102 E4.60119
G1 X163.161 Y107.016 E4.61028
G1 X163.765 Y107.01 E4.61937
G1 X164.364 Y107.084 E4.62846
G1 X165.019 Y107.256 E4.63865
G1 X165.443 Y107.126 E4.64532
G1 X166.038 Y107.026 E4.6544
G1 X166.641 Y107.005 E4.66348
G1 X167.439 Y107.102 E4.67558
G1 X167.986 Y107.218 E4.68399
G1 X168.567 Y107.382 E4.69308
G1 X169.121 Y107.622 E4.70216
G1 X169.639 Y107.932 E4.71125
G1 X170.176 Y108.36 E4.72158
G1 X170.621 Y108.414 E4.72833
G1 X171.205 Y108.565 E4.7374
G1 X171.764 Y108.793 E4.74649
G1 X172.449 Y109.203 E4.7585
G1 X172.901 Y109.531 E4.76691
G1 X173.365 Y109.917 E4.77599
G1 X173.774 Y110.361 E4.78507
G1 X174.121 Y110.856 E4.79417
G1 X174.438 Y111.465 E4.8045
G1 X174.814 Y111.69 E4.8111
G1 X175.287 Y112.065 E4.82018
G1 X175.706 Y112.499 E4.82926
G1 X176.172 Y113.162 E4.84145
G1 X176.452 Y113.647 E4.84988
G1 X176.719 Y114.189 E4.85897
G1 X176.911 Y114.761 E4.86805
G1 X177.027 Y115.353 E4.87713
G1 X177.068 Y116.039 E4.88747
G1 X177.321 Y116.399 E4.89409
G1 X177.6 Y116.934 E4.90317
G1 X177.806 Y117.502 E4.91227
G1 X177.962 Y118.304 E4.92456
G1 X178.019 Y118.859 E4.93296
G1 X178.041 Y119.462 E4.94204
G1 X177.983 Y120.063 E4.95112
G1 X177.846 Y120.651 E4.96021
G1 X177.619 Y121.251 E4.96986
G1 X177.719 Y121.948 E4.98046
G1 X177.725 Y122.551 E4.98953
G1 X177.651 Y123.151 E4.99863
G1 X177.505 Y123.717 E5.00743
G1 X177.331 Y124.248 E5.01583
G1 X177.106 Y124.808 E5.02492
G1 X176.808 Y125.333 E5.034
G1 X176.444 Y125.814 E5.04308
G1 X175.974 Y126.288 E5.05312
G1 X175.875 Y126.723 E5.05984
