;FLAVOR:Marlin
;TIME:874
;Filament used: 0.349188m
;Layer height: 0.1
;MINX:100.1
;MINY:94.058
;MINZ:0.3
;MAXX:119.9
;MAXY:125.946
;MAXZ:3.2
;Generated with Cura_SteamEngine 4.8.0
M140 S60
M105
M190 S60
M104 S200
M105
M109 S200
M82 ;absolute extrusion mode
G28 ;Home
G1 Z15.0 F6000 ;Move the platform down 15mm
G1 X5 Y-5 F3000
;Prime the extruder
G92 E0
G1 Z2.0 F3000
G1 X15 Y3.5 Z0.3 F5000.0
G1 X175 Y3.5 Z0.3 F1500.0 E20
G1 X175 Y4.5 Z0.3 F5000.0
G1 X85 Y4.5 Z0.3 F1500.0 E30
M420 S1
G92 E0
G92 E0
G92 E0
G1 F1500 E-6.5
;LAYER_COUNT:30
;LAYER:0
M107
G0 F3600 X102.735 Y97.237 Z0.3
;TYPE:SKIRT
G1 F1500 E0
G1 F1350 X103.149 Y96.816 E0.02946
G1 X103.729 Y96.299 E0.06822
G1 X104.334 Y95.842 E0.10605
G1 X104.87 Y95.494 E0.13793
G1 X105.462 Y95.158 E0.17189
G1 X106.191 Y94.821 E0.21196
G1 X106.71 Y94.622 E0.23969
G1 X107.228 Y94.455 E0.26684
G1 X107.786 Y94.31 E0.29561
G1 X108.528 Y94.167 E0.33331
G1 X109.309 Y94.082 E0.3725
G1 X109.955 Y94.058 E0.40475
G1 X110.636 Y94.077 E0.43874
G1 X111.446 Y94.163 E0.47938
G1 X111.981 Y94.258 E0.50649
G1 X112.532 Y94.388 E0.53473
G1 X113.107 Y94.56 E0.56468
G1 X113.772 Y94.804 E0.60001
G1 X114.459 Y95.12 E0.63774
G1 X114.938 Y95.38 E0.66493
G1 X115.396 Y95.659 E0.69169
G1 X115.852 Y95.976 E0.71939
G1 X116.278 Y96.307 E0.74631
G1 X116.681 Y96.656 E0.77291
G1 X117.069 Y97.033 E0.7999
G1 X117.495 Y97.499 E0.8314
G1 X117.942 Y98.054 E0.86695
G1 X118.383 Y98.7 E0.90597
G1 X118.69 Y99.228 E0.93644
G1 X119.039 Y99.933 E0.97569
G1 X119.314 Y100.625 E1.01284
G1 X119.511 Y101.245 E1.0453
G1 X119.684 Y101.942 E1.08112
G1 X119.812 Y102.722 E1.12056
G1 X119.87 Y103.35 E1.15202
G1 X119.892 Y103.933 E1.18113
G1 X119.9 Y104.53 E1.21092
G1 X119.9 Y120.3 E1.99769
G1 X119.889 Y121.017 E2.03346
G1 X119.839 Y121.586 E2.06196
G1 X119.795 Y121.862 E2.0759
G1 X119.667 Y122.412 E2.10407
G1 X119.432 Y123.002 E2.13576
G1 X119.072 Y123.656 E2.173
G1 X118.749 Y124.12 E2.20121
G1 X118.364 Y124.533 E2.22938
G1 X117.844 Y124.953 E2.26273
G1 X117.604 Y125.122 E2.27737
G1 X117.12 Y125.414 E2.30557
G1 X116.6 Y125.634 E2.33374
G1 X115.965 Y125.802 E2.36651
G1 X115.75 Y125.845 E2.37745
G1 X115.05 Y125.922 E2.41258
G1 X113.867 Y125.946 E2.47162
G1 X105.746 Y125.946 E2.87677
G1 X105.028 Y125.935 E2.9126
G1 X104.457 Y125.885 E2.9412
G1 X104.182 Y125.841 E2.95509
G1 X103.632 Y125.712 E2.98327
G1 X103.009 Y125.46 E3.0168
G1 X102.567 Y125.224 E3.0418
G1 X102.361 Y125.099 E3.05382
G1 X101.9 Y124.772 E3.08202
G1 X101.489 Y124.384 E3.11022
G1 X101.095 Y123.893 E3.14163
G1 X100.927 Y123.655 E3.15616
G1 X100.635 Y123.171 E3.18436
G1 X100.413 Y122.651 E3.21257
G1 X100.239 Y121.988 E3.24677
G1 X100.193 Y121.75 E3.25886
G1 X100.121 Y121.068 E3.29307
G1 X100.1 Y119.951 E3.34881
G1 X100.1 Y104.596 E4.11488
G1 X100.111 Y103.829 E4.15315
G1 X100.153 Y103.053 E4.19192
G1 X100.236 Y102.394 E4.22505
G1 X100.373 Y101.682 E4.26123
G1 X100.576 Y100.953 E4.29898
G1 X100.797 Y100.332 E4.33187
G1 X101.097 Y99.644 E4.36931
G1 X101.455 Y98.971 E4.40734
G1 X101.772 Y98.462 E4.43726
G1 X102.222 Y97.839 E4.4756
G1 X102.735 Y97.237 E4.51506
G0 F3600 X103.036 Y97.501
G1 F1350 X103.421 Y97.11 E4.54244
G1 X103.976 Y96.613 E4.57961
G1 X104.571 Y96.165 E4.61676
G1 X105.072 Y95.839 E4.64659
G1 X105.64 Y95.517 E4.67916
G1 X106.353 Y95.186 E4.71838
G1 X106.845 Y94.999 E4.74464
G1 X107.35 Y94.836 E4.77111
G1 X107.868 Y94.702 E4.79781
G1 X108.58 Y94.564 E4.83399
G1 X109.346 Y94.48 E4.87243
G1 X109.949 Y94.458 E4.90254
G1 X110.603 Y94.476 E4.93518
G1 X111.397 Y94.56 E4.97501
G1 X111.903 Y94.651 E5.00066
G1 X112.438 Y94.777 E5.02808
G1 X112.975 Y94.937 E5.05604
G1 X113.613 Y95.171 E5.08994
G1 X114.286 Y95.481 E5.12691
G1 X114.742 Y95.728 E5.15278
G1 X115.185 Y95.999 E5.17869
G1 X115.618 Y96.3 E5.205
G1 X116.031 Y96.621 E5.23109
G1 X116.413 Y96.954 E5.25638
G1 X116.789 Y97.318 E5.28249
G1 X117.187 Y97.755 E5.31198
G1 X117.616 Y98.286 E5.34603
G1 X118.048 Y98.92 E5.38431
G1 X118.334 Y99.411 E5.41266
G1 X118.669 Y100.087 E5.4503
G1 X118.941 Y100.769 E5.48693
G1 X119.124 Y101.346 E5.51713
G1 X119.291 Y102.015 E5.55153
G1 X119.416 Y102.781 E5.59025
G1 X119.47 Y103.366 E5.61956
G1 X119.492 Y103.939 E5.64817
G1 X119.5 Y104.536 E5.67796
G1 X119.5 Y120.294 E6.46412
G1 X119.489 Y121.011 E6.4999
G1 X119.444 Y121.523 E6.52554
G1 X119.4 Y121.799 E6.53949
G1 X119.276 Y122.321 E6.56625
G1 X119.073 Y122.825 E6.59336
G1 X118.729 Y123.451 E6.629
G1 X118.421 Y123.89 E6.65575
G1 X117.853 Y124.444 E6.69534
G1 X117.374 Y124.794 E6.72493
G1 X116.913 Y125.07 E6.75174
G1 X116.417 Y125.274 E6.7785
G1 X115.887 Y125.41 E6.8058
G1 X115.672 Y125.453 E6.81673
G1 X115.041 Y125.522 E6.8484
G1 X113.867 Y125.546 E6.90699
G1 X105.752 Y125.546 E7.31184
G1 X105.034 Y125.535 E7.34767
G1 X104.52 Y125.49 E7.37341
G1 X104.245 Y125.446 E7.38731
G1 X103.723 Y125.322 E7.41407
G1 X103.189 Y125.103 E7.44287
G1 X102.568 Y124.757 E7.47833
G1 X102.132 Y124.445 E7.50508
G1 X101.604 Y123.902 E7.54287
G1 X101.254 Y123.424 E7.57243
G1 X100.978 Y122.964 E7.59919
G1 X100.774 Y122.468 E7.62595
G1 X100.631 Y121.912 E7.65459
G1 X100.585 Y121.674 E7.66668
G1 X100.521 Y121.06 E7.69748
G1 X100.5 Y119.951 E7.75282
G1 X100.5 Y104.601 E8.51863
G1 X100.511 Y103.834 E8.5569
G1 X100.552 Y103.08 E8.59457
G1 X100.629 Y102.464 E8.62555
G1 X100.761 Y101.781 E8.66025
G1 X100.96 Y101.066 E8.69728
G1 X101.166 Y100.486 E8.72799
G1 X101.453 Y99.826 E8.76389
G1 X101.806 Y99.164 E8.80132
G1 X102.099 Y98.693 E8.829
G1 X102.533 Y98.091 E8.86602
G1 X103.036 Y97.501 E8.9047
G0 F3600 X103.337 Y97.765
G1 F1350 X103.692 Y97.404 E8.92996
G1 X104.223 Y96.928 E8.96554
G1 X104.807 Y96.487 E9.00205
G1 X105.274 Y96.185 E9.02979
G1 X105.818 Y95.875 E9.06103
G1 X106.516 Y95.551 E9.09942
G1 X107.091 Y95.338 E9.13002
G1 X107.67 Y95.16 E9.16024
G1 X108.396 Y95 E9.19733
G1 X109.005 Y94.914 E9.22801
G1 X109.576 Y94.867 E9.25659
G1 X109.943 Y94.858 E9.27491
G1 X110.571 Y94.875 E9.30625
G1 X111.348 Y94.957 E9.34523
G1 X111.959 Y95.072 E9.37625
G1 X112.527 Y95.215 E9.40547
G1 X113.241 Y95.454 E9.44304
G1 X113.775 Y95.679 E9.47195
G1 X114.3 Y95.939 E9.50117
G1 X114.975 Y96.339 E9.54032
G1 X115.48 Y96.697 E9.5712
G1 X115.953 Y97.078 E9.6015
G1 X116.509 Y97.604 E9.63969
G1 X116.88 Y98.011 E9.66716
G1 X117.291 Y98.518 E9.69973
G1 X117.714 Y99.14 E9.73725
G1 X117.979 Y99.595 E9.76352
G1 X118.3 Y100.241 E9.79951
G1 X118.568 Y100.912 E9.83556
G1 X118.738 Y101.448 E9.86361
G1 X118.897 Y102.089 E9.89656
G1 X119.02 Y102.839 E9.93448
G1 X119.07 Y103.382 E9.96168
G1 X119.092 Y103.944 E9.98974
G1 X119.1 Y104.541 E10.01953
G1 X119.1 Y120.288 E10.80515
G1 X119.089 Y121.005 E10.84093
G1 X119.005 Y121.736 E10.87764
G1 X118.886 Y122.227 E10.90284
G1 X118.64 Y122.8 E10.93395
G1 X118.385 Y123.246 E10.95958
G1 X118.093 Y123.659 E10.98482
G1 X117.607 Y124.129 E11.01855
G1 X117.143 Y124.467 E11.04719
G1 X116.708 Y124.725 E11.07242
G1 X116.053 Y124.961 E11.10716
G1 X115.594 Y125.061 E11.13059
G1 X115.033 Y125.122 E11.15875
G1 X113.867 Y125.146 E11.21693
G1 X105.758 Y125.146 E11.62149
G1 X105.04 Y125.135 E11.65732
G1 X104.308 Y125.051 E11.69407
G1 X103.817 Y124.932 E11.71928
G1 X103.198 Y124.659 E11.75303
G1 X102.776 Y124.415 E11.77735
G1 X102.366 Y124.119 E11.80258
G1 X101.919 Y123.655 E11.83472
G1 X101.581 Y123.193 E11.86328
G1 X101.323 Y122.759 E11.88847
G1 X101.086 Y122.106 E11.92313
G1 X100.978 Y121.598 E11.94904
G1 X100.921 Y121.053 E11.97638
G1 X100.9 Y119.951 E12.03137
G1 X100.9 Y104.607 E12.79688
G1 X100.911 Y103.84 E12.83515
G1 X100.951 Y103.107 E12.87178
G1 X101.023 Y102.534 E12.90059
G1 X101.148 Y101.881 E12.93376
G1 X101.344 Y101.178 E12.97017
G1 X101.536 Y100.639 E12.99872
G1 X101.809 Y100.008 E13.03302
G1 X102.156 Y99.357 E13.06982
G1 X102.426 Y98.923 E13.09532
G1 X102.844 Y98.343 E13.13099
G1 X103.337 Y97.765 E13.16889
G1 F1500 E6.66889
;MESH:small_lock.stl
G0 F3600 X105.192 Y99.481
G0 X106.169 Y100.312
G0 X109.182 Y101.056
G0 X109.209 Y101.152
;TYPE:WALL-INNER
G1 F1500 E13.16889
G1 F1350 X108.628 Y101.389 E13.20019
G1 X108.11 Y101.742 E13.23147
G1 X107.68 Y102.2 E13.26281
G1 X107.36 Y102.74 E13.29413
G1 X107.162 Y103.334 E13.32536
G1 X107.097 Y103.948 E13.35617
G1 X107.168 Y104.583 E13.38805
G1 X107.371 Y105.176 E13.41932
G1 X107.697 Y105.714 E13.4507
G1 X108.132 Y106.168 E13.48207
G1 X108.654 Y106.518 E13.51342
G1 X109.237 Y106.746 E13.54465
G1 X109.856 Y106.845 E13.57593
G1 X110.484 Y106.808 E13.60731
G1 X111.087 Y106.636 E13.6386
G1 X111.641 Y106.34 E13.66994
G1 X112.118 Y105.931 E13.70128
G1 X112.495 Y105.43 E13.73256
G1 X112.756 Y104.859 E13.76389
G1 X112.887 Y104.246 E13.79516
G1 X112.885 Y103.618 E13.82649
G1 X112.747 Y103.005 E13.85784
G1 X112.481 Y102.437 E13.88913
G1 X112.098 Y101.939 E13.92047
G1 X111.617 Y101.535 E13.95181
G1 X111.06 Y101.245 E13.98314
G1 X110.457 Y101.079 E14.01435
G1 X109.828 Y101.047 E14.04577
G1 X109.209 Y101.152 E14.07709
G0 F3600 X109.182 Y101.056
G0 X110.852 Y98.815
G0 X110.868 Y98.717
G1 F1350 X111.405 Y98.837 E14.10454
G1 X111.962 Y99.024 E14.13385
G1 X112.488 Y99.268 E14.16278
G1 X112.97 Y99.557 E14.19082
G1 X113.434 Y99.909 E14.21988
G1 X113.845 Y100.299 E14.24814
G1 X114.22 Y100.741 E14.27706
G1 X114.538 Y101.21 E14.30533
G1 X114.81 Y101.722 E14.33426
G1 X115.022 Y102.255 E14.36288
G1 X115.177 Y102.812 E14.39172
G1 X115.267 Y103.367 E14.41977
G1 X115.3 Y103.957 E14.44925
G1 X115.3 Y120.898 E15.29444
G1 X115.276 Y121.052 E15.30222
G1 X115.187 Y121.205 E15.31105
G1 X115.058 Y121.299 E15.31901
G1 X114.836 Y121.346 E15.33033
G1 X105.148 Y121.346 E15.81367
G1 X104.994 Y121.322 E15.82145
G1 X104.843 Y121.234 E15.83016
G1 X104.746 Y121.101 E15.83838
G1 X104.7 Y120.883 E15.84949
G1 X104.7 Y103.957 E16.69393
G1 X104.733 Y103.367 E16.72342
G1 X104.823 Y102.812 E16.75147
G1 X104.978 Y102.255 E16.78031
G1 X105.19 Y101.722 E16.80893
G1 X105.462 Y101.21 E16.83785
G1 X105.78 Y100.741 E16.86612
G1 X106.155 Y100.299 E16.89504
G1 X106.566 Y99.909 E16.92331
G1 X107.03 Y99.557 E16.95237
G1 X107.512 Y99.268 E16.9804
G1 X108.038 Y99.024 E17.00933
G1 X108.595 Y98.837 E17.03865
G1 X109.132 Y98.717 E17.0661
G1 X109.718 Y98.654 E17.0955
G1 X110.282 Y98.654 E17.12364
G1 X110.868 Y98.717 E17.15304
G0 F3600 X110.927 Y98.321
;TYPE:WALL-OUTER
G1 F1350 X111.517 Y98.452 E17.1832
G1 X112.11 Y98.652 E17.21442
G1 X112.677 Y98.914 E17.24558
G1 X113.197 Y99.227 E17.27586
G1 X113.688 Y99.599 E17.30659
G1 X114.139 Y100.027 E17.33761
G1 X114.536 Y100.495 E17.36823
G1 X114.882 Y101.006 E17.39902
G1 X115.174 Y101.554 E17.43
G1 X115.4 Y102.124 E17.46059
G1 X115.569 Y102.731 E17.49202
G1 X115.665 Y103.319 E17.52175
G1 X115.7 Y103.957 E17.55363
G1 X115.7 Y120.928 E18.40031
G1 X115.659 Y121.189 E18.41349
G1 X115.492 Y121.477 E18.4301
G1 X115.224 Y121.672 E18.44664
G1 X114.877 Y121.746 E18.46434
G1 X105.118 Y121.746 E18.95122
G1 X104.857 Y121.705 E18.9644
G1 X104.569 Y121.538 E18.98101
G1 X104.373 Y121.268 E18.99765
G1 X104.3 Y120.924 E19.0152
G1 X104.3 Y103.957 E19.86168
G1 X104.335 Y103.319 E19.89356
G1 X104.431 Y102.731 E19.92329
G1 X104.6 Y102.124 E19.95472
G1 X104.826 Y101.554 E19.98531
G1 X105.118 Y101.006 E20.01629
G1 X105.464 Y100.495 E20.04708
G1 X105.861 Y100.027 E20.0777
G1 X106.312 Y99.599 E20.10872
G1 X106.803 Y99.227 E20.13945
G1 X107.323 Y98.914 E20.16973
G1 X107.89 Y98.652 E20.20089
G1 X108.483 Y98.452 E20.23211
G1 X109.073 Y98.321 E20.26227
G1 X109.694 Y98.254 E20.29343
G1 X110.306 Y98.254 E20.32396
G1 X110.927 Y98.321 E20.35512
G0 F3600 X111.122 Y98.364
G0 X111.013 Y98.851
G0 X107.649 Y102.176
G0 X107.123 Y103.326
G0 X107.129 Y104.591
G0 X107.655 Y105.814
G0 X108.016 Y105.469
G1 F1350 X108.391 Y105.86 E20.38215
G1 X108.84 Y106.161 E20.40912
G1 X109.343 Y106.358 E20.43607
G1 X109.876 Y106.443 E20.463
G1 X110.417 Y106.411 E20.49003
G1 X110.936 Y106.263 E20.51696
G1 X111.414 Y106.008 E20.54399
G1 X111.824 Y105.656 E20.57095
G1 X112.149 Y105.224 E20.59792
G1 X112.374 Y104.732 E20.62491
G1 X112.487 Y104.204 E20.65185
G1 X112.485 Y103.663 E20.67884
G1 X112.366 Y103.135 E20.70584
G1 X112.137 Y102.646 E20.73278
G1 X111.807 Y102.217 E20.75978
G1 X111.393 Y101.869 E20.78677
G1 X110.913 Y101.619 E20.81377
G1 X110.393 Y101.476 E20.84067
G1 X109.852 Y101.449 E20.8677
G1 X109.319 Y101.539 E20.89466
G1 X108.818 Y101.743 E20.92165
G1 X108.372 Y102.048 E20.94861
G1 X108.002 Y102.442 E20.97557
G1 X107.726 Y102.907 E21.00255
G1 X107.555 Y103.419 E21.02948
G1 X107.499 Y103.947 E21.05597
G1 X107.561 Y104.495 E21.08349
G1 X107.736 Y105.006 E21.11043
G1 X108.016 Y105.469 E21.13743
G0 F3600 X108.154 Y105.613
G0 X107.385 Y105.952
;TYPE:SKIN
G1 F1350 X107.88 Y106.468 E21.1731
G1 X108.472 Y106.865 E21.20866
G1 X109.134 Y107.124 E21.24413
G1 X109.837 Y107.237 E21.27965
G1 X110.55 Y107.194 E21.31529
G1 X111.234 Y106.999 E21.35077
G1 X111.863 Y106.664 E21.38633
G1 X112.404 Y106.2 E21.42188
G1 X112.832 Y105.631 E21.45741
G1 X113.128 Y104.982 E21.49299
G1 X113.277 Y104.287 E21.52846
G1 X113.275 Y103.574 E21.56403
G1 X113.118 Y102.878 E21.59962
G1 X112.816 Y102.233 E21.63516
G1 X112.381 Y101.668 E21.67073
G1 X111.835 Y101.209 E21.70632
G1 X111.204 Y100.88 E21.74182
G1 X110.519 Y100.691 E21.77727
G1 X109.805 Y100.655 E21.81294
G1 X109.102 Y100.774 E21.84851
G1 X108.443 Y101.044 E21.88404
G1 X107.855 Y101.444 E21.91952
G1 X107.366 Y101.964 E21.95513
G1 X107.003 Y102.577 E21.99067
G1 X106.778 Y103.251 E22.02612
G1 X106.705 Y103.95 E22.06119
G1 X106.786 Y104.669 E22.09729
G1 X107.016 Y105.342 E22.13277
G1 X107.385 Y105.952 E22.16834
G0 F3600 X105.09 Y103.979
G1 F1350 X105.122 Y103.399 E22.19732
G1 X105.203 Y102.903 E22.22239
G1 X105.348 Y102.381 E22.24942
G1 X105.545 Y101.886 E22.276
G1 X105.803 Y101.401 E22.30341
G1 X106.087 Y100.981 E22.3287
G1 X106.437 Y100.569 E22.35567
G1 X106.824 Y100.202 E22.38228
G1 X107.241 Y99.887 E22.40835
G1 X107.708 Y99.606 E22.43554
G1 X108.174 Y99.39 E22.46117
G1 X108.705 Y99.212 E22.48911
G1 X109.191 Y99.103 E22.51396
G1 X109.741 Y99.044 E22.54155
G1 X110.259 Y99.044 E22.5674
G1 X110.809 Y99.103 E22.59499
G1 X111.295 Y99.212 E22.61984
G1 X111.826 Y99.39 E22.64778
G1 X112.292 Y99.606 E22.67341
G1 X112.759 Y99.887 E22.7006
G1 X113.176 Y100.202 E22.72667
G1 X113.563 Y100.569 E22.75328
G1 X113.913 Y100.981 E22.78025
G1 X114.197 Y101.401 E22.80555
G1 X114.455 Y101.886 E22.83295
G1 X114.652 Y102.381 E22.85953
G1 X114.797 Y102.903 E22.88656
G1 X114.878 Y103.399 E22.91164
G1 X114.91 Y103.979 E22.94062
G1 X114.91 Y120.861 E23.78286
G1 X114.892 Y120.935 E23.78666
G1 X114.794 Y120.956 E23.79166
G1 X105.182 Y120.956 E24.27121
G1 X105.111 Y120.938 E24.27486
G1 X105.09 Y120.841 E24.27981
G1 X105.09 Y103.979 E25.12106
G0 F3600 X108.61 Y101.354
G0 X109.826 Y101.008
G0 X114.157 Y101.712
G1 F1350 X112.214 Y99.769 E25.25815
G1 X112.144 Y99.699
G0 F3600 X111.276 Y99.397
G1 F1350 X114.542 Y102.663 E25.48858
G0 F3600 X114.693 Y103.379
G1 F1350 X110.573 Y99.259 E25.77927
G0 F3600 X109.972 Y99.224
G1 F1350 X111.667 Y100.919 E25.89886
G1 X111.737 Y100.989
G0 F3600 X110.749 Y100.567
G1 F1350 X109.439 Y99.257 E25.99129
G0 F3600 X108.957 Y99.34
G1 F1350 X110.106 Y100.489 E26.07236
G0 F3600 X109.564 Y100.513
G1 F1350 X108.516 Y99.465 E26.1463
G0 F3600 X108.104 Y99.619
G1 F1350 X109.08 Y100.595 E26.21516
G0 F3600 X108.674 Y100.754
G1 F1350 X107.724 Y99.804 E26.28219
G0 F3600 X107.371 Y100.017
G1 F1350 X108.286 Y100.932 E26.34675
G0 F3600 X107.949 Y101.16
G1 F1350 X107.047 Y100.259 E26.41036
G0 F3600 X106.746 Y100.523
G1 F1350 X107.636 Y101.413 E26.47315
G0 F3600 X107.362 Y101.705
G1 F1350 X106.465 Y100.808 E26.53644
G0 F3600 X106.209 Y101.118
G1 F1350 X107.118 Y102.027 E26.60057
G0 F3600 X106.908 Y102.382
G1 F1350 X105.981 Y101.456 E26.66594
G0 F3600 X105.782 Y101.822
G1 F1350 X106.743 Y102.783 E26.73375
G0 F3600 X106.601 Y103.207
G1 F1350 X105.607 Y102.213 E26.80388
G0 F3600 X105.463 Y102.635
G1 F1350 X106.547 Y103.719 E26.88036
G0 F3600 X106.563 Y104.3
G1 F1350 X105.352 Y103.089 E26.9658
G0 F3600 X105.291 Y103.593
G1 F1350 X106.715 Y105.018 E27.06631
G1 X106.785 Y105.088
G0 F3600 X105.269 Y105.269
G1 F1350 X114.729 Y114.729 E27.73376
G0 F3600 X114.729 Y114.163
G1 F1350 X105.269 Y104.703 E28.40122
G0 F3600 X105.269 Y104.137
G1 F1350 X114.729 Y113.598 E29.06871
