;FLAVOR:Marlin
;TIME:2565
;Filament used: 1.77887m
;Layer height: 0.1
;MINX:98.5
;MINY:89
;MINZ:0.3
;MAXX:121.5
;MAXY:131
;MAXZ:15
;Generated with Cura_SteamEngine 4.8.0
M140 S60
M105
M190 S60
M104 S200
M105
M109 S200
M82 ;absolute extrusion mode
G28 ;Home
G1 Z15.0 F6000 ;Move the platform down 15mm
G1 X5 Y-5 F3000
;Prime the extruder
G92 E0
G1 Z2.0 F3000
G1 X15 Y3.5 Z0.3 F5000.0
G1 X175 Y3.5 Z0.3 F1500.0 E20
G1 X175 Y4.5 Z0.3 F5000.0
G1 X85 Y4.5 Z0.3 F1500.0 E30
M420 S1
G92 E0
G92 E0
G92 E0
G1 F1500 E-6.5
;LAYER_COUNT:148
;LAYER:0
M107
G0 F3600 X99.504 Y90.369 Z0.3
;TYPE:SKIRT
G1 F1500 E0
G1 F1800 X99.906 Y89.972 E0.02819
G1 X100.36 Y89.635 E0.0564
G1 X100.857 Y89.366 E0.08459
G1 X101.387 Y89.169 E0.1128
G1 X101.94 Y89.05 E0.14102
G1 X102.718 Y89.002 E0.17991
G1 X102.83 Y89 E0.1855
G1 X116.85 Y89 E0.88496
G1 X117.548 Y89.01 E0.91978
G1 X118.112 Y89.058 E0.94802
G1 X118.662 Y89.185 E0.97619
G1 X119.19 Y89.389 E1.00443
G1 X119.684 Y89.664 E1.03263
G1 X120.133 Y90.007 E1.06082
G1 X120.53 Y90.409 E1.08901
G1 X120.867 Y90.864 E1.11726
G1 X121.135 Y91.361 E1.14543
G1 X121.331 Y91.891 E1.17362
G1 X121.451 Y92.444 E1.20185
G1 X121.498 Y93.218 E1.24054
G1 X121.5 Y93.33 E1.24613
G1 X121.5 Y126.314 E2.89171
G1 X121.491 Y127.041 E2.92798
G1 X121.444 Y127.604 E2.95616
G1 X121.318 Y128.155 E2.98436
G1 X121.116 Y128.683 E3.01257
G1 X120.841 Y129.177 E3.04077
G1 X120.499 Y129.627 E3.06897
G1 X120.097 Y130.025 E3.0972
G1 X119.644 Y130.362 E3.12536
G1 X119.147 Y130.632 E3.15358
G1 X118.617 Y130.829 E3.18179
G1 X118.065 Y130.95 E3.20998
G1 X117.282 Y130.998 E3.24912
G1 X117.17 Y131 E3.25471
G1 X103.155 Y131 E3.95392
G1 X102.457 Y130.991 E3.98875
G1 X101.894 Y130.943 E4.01694
G1 X101.343 Y130.817 E4.04514
G1 X100.815 Y130.615 E4.07334
G1 X100.321 Y130.34 E4.10155
G1 X99.871 Y129.998 E4.12975
G1 X99.473 Y129.596 E4.15797
G1 X99.137 Y129.142 E4.18615
G1 X98.867 Y128.645 E4.21437
G1 X98.67 Y128.115 E4.24258
G1 X98.55 Y127.563 E4.27076
G1 X98.501 Y126.766 E4.3106
G1 X98.5 Y93.62 E5.96426
G1 X98.509 Y92.955 E5.99744
G1 X98.557 Y92.392 E6.02563
G1 X98.683 Y91.841 E6.05383
G1 X98.886 Y91.313 E6.08205
G1 X99.162 Y90.819 E6.11028
G1 X99.504 Y90.369 E6.13848
G0 F3600 X99.897 Y90.531
G1 F1800 X100.294 Y90.171 E6.16521
G1 X100.741 Y89.873 E6.19202
G1 X101.226 Y89.645 E6.21875
G1 X101.74 Y89.492 E6.24551
G1 X102.408 Y89.41 E6.27909
G1 X102.83 Y89.4 E6.30015
G1 X116.845 Y89.4 E6.99936
G1 X117.543 Y89.41 E7.03418
G1 X118.077 Y89.458 E7.06093
G1 X118.598 Y89.584 E7.08767
G1 X119.095 Y89.787 E7.11446
G1 X119.556 Y90.061 E7.14121
G1 X119.971 Y90.4 E7.16795
G1 X120.331 Y90.798 E7.19472
G1 X120.628 Y91.244 E7.22146
G1 X120.856 Y91.73 E7.24824
G1 X121.008 Y92.244 E7.27498
G1 X121.09 Y92.909 E7.30841
G1 X121.1 Y93.33 E7.32942
G1 X121.1 Y126.309 E8.97475
G1 X121.091 Y127.036 E9.01102
G1 X121.044 Y127.57 E9.03776
G1 X120.919 Y128.091 E9.06449
G1 X120.717 Y128.588 E9.09126
G1 X120.444 Y129.05 E9.11803
G1 X120.106 Y129.466 E9.14477
G1 X119.709 Y129.827 E9.17154
G1 X119.263 Y130.125 E9.1983
G1 X118.778 Y130.353 E9.22504
G1 X118.264 Y130.507 E9.25181
G1 X117.592 Y130.59 E9.28559
G1 X117.17 Y130.6 E9.30665
G1 X103.161 Y130.6 E10.00556
G1 X102.463 Y130.591 E10.04039
G1 X101.928 Y130.544 E10.06718
G1 X101.407 Y130.418 E10.09393
G1 X100.91 Y130.216 E10.12069
G1 X100.449 Y129.943 E10.14742
G1 X100.033 Y129.604 E10.17419
G1 X99.672 Y129.208 E10.20093
G1 X99.374 Y128.762 E10.22769
G1 X99.146 Y128.276 E10.25447
G1 X98.993 Y127.762 E10.28123
G1 X98.91 Y127.088 E10.31511
G1 X98.9 Y126.658 E10.33656
G1 X98.9 Y93.625 E11.98459
G1 X98.909 Y92.96 E12.01777
G1 X98.957 Y92.426 E12.04452
G1 X99.083 Y91.905 E12.07126
G1 X99.285 Y91.408 E12.09802
G1 X99.558 Y90.947 E12.12475
G1 X99.897 Y90.531 E12.15153
G0 F3600 X99.954 Y91.082
G1 F1800 X100.289 Y90.704 E12.17673
G1 X100.68 Y90.383 E12.20196
G1 X101.117 Y90.128 E12.22721
G1 X101.588 Y89.944 E12.25243
G1 X102.082 Y89.838 E12.27764
G1 X102.74 Y89.801 E12.31052
G1 X116.839 Y89.8 E13.01392
G1 X117.537 Y89.81 E13.04875
G1 X118.04 Y89.857 E13.07395
G1 X118.53 Y89.983 E13.09919
G1 X118.994 Y90.185 E13.12444
G1 X119.42 Y90.457 E13.14966
G1 X119.798 Y90.792 E13.17486
G1 X120.118 Y91.183 E13.20006
G1 X120.373 Y91.62 E13.22531
G1 X120.556 Y92.091 E13.25052
G1 X120.663 Y92.585 E13.27573
G1 X120.699 Y93.24 E13.30846
G1 X120.7 Y126.304 E14.95803
G1 X120.691 Y127.031 E14.9943
G1 X120.645 Y127.534 E15.0195
G1 X120.52 Y128.024 E15.04473
G1 X120.319 Y128.488 E15.06996
G1 X120.048 Y128.915 E15.09519
G1 X119.713 Y129.294 E15.12043
G1 X119.323 Y129.615 E15.14563
G1 X118.887 Y129.871 E15.17085
G1 X118.416 Y130.054 E15.19606
G1 X117.922 Y130.162 E15.22129
G1 X117.26 Y130.199 E15.25437
G1 X103.166 Y130.2 E15.95752
G1 X102.468 Y130.191 E15.99235
G1 X101.964 Y130.144 E16.0176
G1 X101.474 Y130.019 E16.04283
G1 X101.01 Y129.818 E16.06806
G1 X100.584 Y129.547 E16.09325
G1 X100.205 Y129.212 E16.11848
G1 X99.884 Y128.821 E16.14372
G1 X99.629 Y128.385 E16.16892
G1 X99.445 Y127.914 E16.19415
G1 X99.338 Y127.42 E16.21937
G1 X99.301 Y126.744 E16.25314
G1 X99.3 Y93.631 E17.90516
G1 X99.309 Y92.966 E17.93834
G1 X99.356 Y92.462 E17.96359
G1 X99.482 Y91.973 E17.98878
G1 X99.683 Y91.509 E18.01401
G1 X99.954 Y91.082 E18.03924
G1 F1500 E11.53924
;MESH:supporter.stl
G0 F3600 X101.835 Y93.614
G0 X103.114 Y93.614
G0 X116.83 Y126.33
G0 X116.9 Y126.4
;TYPE:WALL-INNER
G1 F1500 E18.03924
G1 F1800 X103.1 Y126.4 E18.72773
G1 X103.1 Y93.6 E20.36413
G1 X116.9 Y93.6 E21.05261
G1 X116.9 Y126.4 E22.68901
G0 F3600 X117.3 Y126.8
;TYPE:WALL-OUTER
G1 F1800 X102.7 Y126.8 E23.41741
G1 X102.7 Y93.2 E25.09372
G1 X117.3 Y93.2 E25.82211
G1 X117.3 Y126.8 E27.49843
G0 F3600 X117.1 Y126.8
G0 X116.51 Y126.01
;TYPE:SKIN
G1 F1800 X103.49 Y126.01 E28.148
G1 X103.49 Y93.99 E29.74548
G1 X116.51 Y93.99 E30.39505
G1 X116.51 Y126.01 E31.99253
G0 F3600 X103.767 Y125.828
G1 F1800 X103.669 Y125.731 E31.99941
G0 F3600 X103.669 Y125.165
G1 F1800 X104.332 Y125.828 E32.04619
G0 F3600 X104.898 Y125.828
G1 F1800 X103.669 Y124.599 E32.1329
G0 F3600 X103.669 Y124.034
G1 F1800 X105.464 Y125.828 E32.25952
G0 F3600 X106.029 Y125.828
G1 F1800 X103.669 Y123.468 E32.42603
G0 F3600 X103.669 Y122.902
G1 F1800 X106.595 Y125.828 E32.63247
G0 F3600 X107.161 Y125.828
G1 F1800 X103.669 Y122.337 E32.87882
G0 F3600 X103.669 Y121.771
G1 F1800 X107.727 Y125.828 E33.16509
G0 F3600 X108.292 Y125.828
G1 F1800 X103.669 Y121.205 E33.49127
G0 F3600 X103.669 Y120.64
G1 F1800 X108.858 Y125.828 E33.85735
G0 F3600 X109.424 Y125.828
G1 F1800 X103.669 Y120.074 E34.26336
G0 F3600 X103.669 Y119.508
G1 F1800 X109.989 Y125.828 E34.70927
G0 F3600 X110.555 Y125.828
G1 F1800 X103.669 Y118.943 E35.19508
G0 F3600 X103.669 Y118.377
G1 F1800 X111.121 Y125.828 E35.72082
G0 F3600 X111.686 Y125.828
G1 F1800 X103.669 Y117.811 E36.28647
G0 F3600 X103.669 Y117.246
G1 F1800 X112.252 Y125.828 E36.89201
G0 F3600 X112.818 Y125.828
G1 F1800 X103.669 Y116.68 E37.53748
G0 F3600 X103.669 Y116.114
G1 F1800 X113.383 Y125.828 E38.22286
G0 F3600 X113.949 Y125.828
G1 F1800 X103.669 Y115.549 E38.94813
G0 F3600 X103.669 Y114.983
G1 F1800 X114.515 Y125.828 E39.71334
G0 F3600 X115.08 Y125.828
G1 F1800 X103.669 Y114.417 E40.51845
G0 F3600 X103.669 Y113.851
G1 F1800 X115.646 Y125.828 E41.36349
G0 F3600 X116.212 Y125.828
G1 F1800 X103.669 Y113.286 E42.24843
G0 F3600 X103.669 Y112.72
G1 F1800 X116.329 Y125.38 E43.14166
G0 F3600 X116.329 Y124.814
G1 F1800 X103.669 Y112.154 E44.0349
G0 F3600 X103.669 Y111.589
G1 F1800 X116.329 Y124.249 E44.92813
G0 F3600 X116.329 Y123.683
G1 F1800 X103.669 Y111.023 E45.82136
G0 F3600 X103.669 Y110.457
G1 F1800 X116.329 Y123.117 E46.71459
G0 F3600 X116.329 Y122.552
G1 F1800 X103.669 Y109.892 E47.60782
G0 F3600 X103.669 Y109.326
G1 F1800 X116.329 Y121.986 E48.50105
G0 F3600 X116.329 Y121.42
G1 F1800 X103.669 Y108.76 E49.39428
G0 F3600 X103.669 Y108.195
G1 F1800 X116.329 Y120.855 E50.28751
G0 F3600 X116.329 Y120.289
G1 F1800 X103.669 Y107.629 E51.18075
G0 F3600 X103.669 Y107.063
G1 F1800 X116.329 Y119.723 E52.07398
G0 F3600 X116.329 Y119.158
G1 F1800 X103.669 Y106.498 E52.96721
G0 F3600 X103.669 Y105.932
G1 F1800 X116.329 Y118.592 E53.86044
G0 F3600 X116.329 Y118.026
G1 F1800 X103.669 Y105.366 E54.75367
G0 F3600 X103.669 Y104.801
G1 F1800 X116.329 Y117.461 E55.6469
G0 F3600 X116.329 Y116.895
G1 F1800 X103.669 Y104.235 E56.54013
G0 F3600 X103.669 Y103.669
G1 F1800 X116.329 Y116.329 E57.43337
G0 F3600 X116.329 Y115.763
G1 F1800 X103.669 Y103.103 E58.3266
G0 F3600 X103.669 Y102.538
G1 F1800 X116.329 Y115.198 E59.21983
G0 F3600 X116.329 Y114.632
G1 F1800 X103.669 Y101.972 E60.11306
G0 F3600 X103.669 Y101.406
G1 F1800 X116.329 Y114.066 E61.00629
G0 F3600 X116.329 Y113.501
G1 F1800 X103.669 Y100.841 E61.89952
G0 F3600 X103.669 Y100.275
G1 F1800 X116.329 Y112.935 E62.79275
G0 F3600 X116.329 Y112.369
G1 F1800 X103.669 Y99.709 E63.68599
G0 F3600 X103.669 Y99.144
G1 F1800 X116.329 Y111.804 E64.57922
G0 F3600 X116.329 Y111.238
G1 F1800 X103.669 Y98.578 E65.47245
G0 F3600 X103.669 Y98.012
G1 F1800 X116.329 Y110.672 E66.36568
G0 F3600 X116.329 Y110.107
G1 F1800 X103.669 Y97.447 E67.25891
G0 F3600 X103.669 Y96.881
G1 F1800 X116.329 Y109.541 E68.15214
G0 F3600 X116.329 Y108.975
G1 F1800 X103.669 Y96.315 E69.04537
G0 F3600 X103.669 Y95.75
G1 F1800 X116.329 Y108.41 E69.93861
G0 F3600 X116.329 Y107.844
G1 F1800 X103.669 Y95.184 E70.83184
G0 F3600 X103.669 Y94.618
G1 F1800 X116.329 Y107.278 E71.72507
G0 F3600 X116.329 Y106.713
G1 F1800 X103.787 Y94.17 E72.61001
G0 F3600 X104.352 Y94.17
G1 F1800 X116.329 Y106.147 E73.45505
G0 F3600 X116.329 Y105.581
G1 F1800 X104.918 Y94.17 E74.26016
G0 F3600 X105.484 Y94.17
G1 F1800 X116.329 Y105.015 E75.02533
G0 F3600 X116.329 Y104.45
G1 F1800 X106.049 Y94.17 E75.75064
G0 F3600 X106.615 Y94.17
G1 F1800 X116.329 Y103.884 E76.43602
G0 F3600 X116.329 Y103.318
G1 F1800 X107.181 Y94.17 E77.08146
G0 F3600 X107.746 Y94.17
G1 F1800 X116.329 Y102.753 E77.68703
G0 F3600 X116.329 Y102.187
G1 F1800 X108.312 Y94.17 E78.25268
G0 F3600 X108.878 Y94.17
G1 F1800 X116.329 Y101.621 E78.77839
G0 F3600 X116.329 Y101.056
G1 F1800 X109.443 Y94.17 E79.26423
G0 F3600 X110.009 Y94.17
G1 F1800 X116.329 Y100.49 E79.71014
G0 F3600 X116.329 Y99.924
G1 F1800 X110.575 Y94.17 E80.11612
G0 F3600 X111.14 Y94.17
G1 F1800 X116.329 Y99.359 E80.48223
G0 F3600 X116.329 Y98.793
G1 F1800 X111.706 Y94.17 E80.80841
G0 F3600 X112.272 Y94.17
G1 F1800 X116.329 Y98.227 E81.09465
G0 F3600 X116.329 Y97.662
G1 F1800 X112.837 Y94.17 E81.34103
G0 F3600 X113.403 Y94.17
G1 F1800 X116.329 Y97.096 E81.54747
G0 F3600 X116.329 Y96.53
G1 F1800 X113.969 Y94.17 E81.71398
G0 F3600 X114.535 Y94.17
G1 F1800 X116.329 Y95.964 E81.84056
G0 F3600 X116.329 Y95.399
G1 F1800 X115.1 Y94.17 E81.92727
G0 F3600 X115.666 Y94.17
G1 F1800 X116.329 Y94.833 E81.97405
G0 F3600 X116.329 Y94.267
G1 F1800 X116.232 Y94.17 E81.9809
;MESH:NONMESH
G0 F600 X116.232 Y94.17 Z0.4
G0 F3600 X116.83 Y126.33
G0 X116.9 Y126.4
;TIME_ELAPSED:62.618413
;LAYER:1
M106 S255
;TYPE:WALL-INNER
;MESH:supporter.stl
G1 F2700 X103.1 Y126.4 E82.21039
G1 X103.1 Y93.6 E82.75586
G1 X116.9 Y93.6 E82.98535
G1 X116.9 Y126.4 E83.53082
G0 F5400 X117.3 Y126.8
;TYPE:WALL-OUTER
G1 F1800 X102.7 Y126.8 E83.77362
G1 X102.7 Y93.2 E84.33239
G1 X117.3 Y93.2 E84.57519
G1 X117.3 Y126.8 E85.13396
G0 F5400 X117.1 Y126.8
G0 X116.51 Y126.01
;TYPE:SKIN
G1 F1800 X103.49 Y126.01 E85.35048
G1 X103.49 Y93.99 E85.88297
G1 X116.51 Y93.99 E86.0995
G1 X116.51 Y126.01 E86.63199
G0 F5400 X116.328 Y125.218
G1 F1800 X115.718 Y125.829 E86.64635
G0 F5400 X115.152 Y125.829
G1 F1800 X116.328 Y124.653 E86.67401
G0 F5400 X116.328 Y124.087
G1 F1800 X114.586 Y125.829 E86.71498
G0 F5400 X114.02 Y125.829
G1 F1800 X116.328 Y123.521 E86.76926
G0 F5400 X116.328 Y122.955
G1 F1800 X113.455 Y125.829 E86.83684
G0 F5400 X112.889 Y125.829
G1 F1800 X116.328 Y122.39 E86.91772
G0 F5400 X116.328 Y121.824
G1 F1800 X112.323 Y125.829 E87.01191
G0 F5400 X111.758 Y125.829
G1 F1800 X116.328 Y121.258 E87.1194
G0 F5400 X116.328 Y120.693
G1 F1800 X111.192 Y125.829 E87.24019
G0 F5400 X110.626 Y125.829
G1 F1800 X116.328 Y120.127 E87.37429
G0 F5400 X116.328 Y119.561
G1 F1800 X110.061 Y125.829 E87.5217
G0 F5400 X109.495 Y125.829
G1 F1800 X116.328 Y118.996 E87.6824
G0 F5400 X116.328 Y118.43
G1 F1800 X108.929 Y125.829 E87.85641
G0 F5400 X108.364 Y125.829
G1 F1800 X116.328 Y117.864 E88.04372
G0 F5400 X116.328 Y117.299
G1 F1800 X107.798 Y125.829 E88.24434
G0 F5400 X107.232 Y125.829
G1 F1800 X116.328 Y116.733 E88.45826
G0 F5400 X116.328 Y116.167
G1 F1800 X106.667 Y125.829 E88.68548
G0 F5400 X106.101 Y125.829
G1 F1800 X116.328 Y115.602 E88.92601
G0 F5400 X116.328 Y115.036
G1 F1800 X105.535 Y125.829 E89.17984
G0 F5400 X104.97 Y125.829
G1 F1800 X116.328 Y114.47 E89.44698
G0 F5400 X116.328 Y113.905
G1 F1800 X104.404 Y125.829 E89.72741
G0 F5400 X103.838 Y125.829
G1 F1800 X116.328 Y113.339 E90.02116
G0 F5400 X116.328 Y112.773
G1 F1800 X103.67 Y125.432 E90.31887
G0 F5400 X103.67 Y124.866
G1 F1800 X116.328 Y112.207 E90.61657
G0 F5400 X116.328 Y111.642
G1 F1800 X103.67 Y124.3 E90.91427
G0 F5400 X103.67 Y123.735
G1 F1800 X116.328 Y111.076 E91.21198
G0 F5400 X116.328 Y110.51
G1 F1800 X103.67 Y123.169 E91.50969
G0 F5400 X103.67 Y122.603
G1 F1800 X116.328 Y109.945 E91.80738
G0 F5400 X116.328 Y109.379
G1 F1800 X103.67 Y122.038 E92.10509
G0 F5400 X103.67 Y121.472
G1 F1800 X116.328 Y108.813 E92.4028
G0 F5400 X116.328 Y108.248
G1 F1800 X103.67 Y120.906 E92.7005
G0 F5400 X103.67 Y120.341
G1 F1800 X116.328 Y107.682 E92.99821
G0 F5400 X116.328 Y107.116
G1 F1800 X103.67 Y119.775 E93.29591
G0 F5400 X103.67 Y119.209
G1 F1800 X116.328 Y106.551 E93.59361
G0 F5400 X116.328 Y105.985
G1 F1800 X103.67 Y118.644 E93.89132
G0 F5400 X103.67 Y118.078
G1 F1800 X116.328 Y105.419 E94.18903
G0 F5400 X116.328 Y104.854
G1 F1800 X103.67 Y117.512 E94.48673
G0 F5400 X103.67 Y116.946
G1 F1800 X116.328 Y104.288 E94.78442
G0 F5400 X116.328 Y103.722
G1 F1800 X103.67 Y116.381 E95.08213
G0 F5400 X103.67 Y115.815
G1 F1800 X116.328 Y103.156 E95.37984
G0 F5400 X116.328 Y102.591
G1 F1800 X103.67 Y115.249 E95.67754
G0 F5400 X103.67 Y114.684
G1 F1800 X116.328 Y102.025 E95.97524
G0 F5400 X116.328 Y101.459
G1 F1800 X103.67 Y114.118 E96.27295
G0 F5400 X103.67 Y113.552
G1 F1800 X116.328 Y100.894 E96.57065
G0 F5400 X116.328 Y100.328
G1 F1800 X103.67 Y112.987 E96.86836
G0 F5400 X103.67 Y112.421
G1 F1800 X116.328 Y99.762 E97.16607
G0 F5400 X116.328 Y99.197
G1 F1800 X103.67 Y111.855 E97.46376
G0 F5400 X103.67 Y111.29
G1 F1800 X116.328 Y98.631 E97.76147
G0 F5400 X116.328 Y98.065
G1 F1800 X103.67 Y110.724 E98.05918
G0 F5400 X103.67 Y110.158
G1 F1800 X116.328 Y97.5 E98.35688
G0 F5400 X116.328 Y96.934
G1 F1800 X103.67 Y109.593 E98.65459
G0 F5400 X103.67 Y109.027
G1 F1800 X116.328 Y96.368 E98.95229
G0 F5400 X116.328 Y95.803
G1 F1800 X103.67 Y108.461 E99.24999
G0 F5400 X103.67 Y107.896
G1 F1800 X116.328 Y95.237 E99.5477
G0 F5400 X116.328 Y94.671
G1 F1800 X103.67 Y107.33 E99.84541
G0 F5400 X103.67 Y106.764
G1 F1800 X116.265 Y94.169 E100.14162
G0 F5400 X115.699 Y94.169
G1 F1800 X103.67 Y106.198 E100.42453
G0 F5400 X103.67 Y105.633
G1 F1800 X115.133 Y94.169 E100.69413
G0 F5400 X114.568 Y94.169
G1 F1800 X103.67 Y105.067 E100.95044
G0 F5400 X103.67 Y104.501
G1 F1800 X114.002 Y94.169 E101.19343
G0 F5400 X113.436 Y94.169
G1 F1800 X103.67 Y103.936 E101.42312
G0 F5400 X103.67 Y103.37
G1 F1800 X112.871 Y94.169 E101.63951
G0 F5400 X112.305 Y94.169
G1 F1800 X103.67 Y102.804 E101.8426
G0 F5400 X103.67 Y102.239
G1 F1800 X111.739 Y94.169 E102.03238
G0 F5400 X111.174 Y94.169
G1 F1800 X103.67 Y101.673 E102.20886
G0 F5400 X103.67 Y101.107
G1 F1800 X110.608 Y94.169 E102.37203
G0 F5400 X110.042 Y94.169
G1 F1800 X103.67 Y100.542 E102.5219
G0 F5400 X103.67 Y99.976
G1 F1800 X109.477 Y94.169 E102.65848
G0 F5400 X108.911 Y94.169
G1 F1800 X103.67 Y99.41 E102.78174
G0 F5400 X103.67 Y98.845
G1 F1800 X108.345 Y94.169 E102.8917
G0 F5400 X107.78 Y94.169
G1 F1800 X103.67 Y98.279 E102.98836
G0 F5400 X103.67 Y97.713
G1 F1800 X107.214 Y94.169 E103.07171
G0 F5400 X106.648 Y94.169
G1 F1800 X103.67 Y97.147 E103.14174
G0 F5400 X103.67 Y96.582
G1 F1800 X106.082 Y94.169 E103.19848
G0 F5400 X105.517 Y94.169
