;FLAVOR:Marlin
;TIME:959
;Filament used: 0.488447m
;Layer height: 0.1
;MINX:102.38
;MINY:89.612
;MINZ:0.3
;MAXX:117.625
;MAXY:137.612
;MAXZ:5
;Generated with Cura_SteamEngine 4.8.0
M140 S60
M105
M190 S60
M104 S200
M105
M109 S200
M82 ;absolute extrusion mode
G28 ;Home
G1 Z15.0 F6000 ;Move the platform down 15mm
G1 X5 Y-5 F3000
;Prime the extruder
G92 E0
G1 Z2.0 F3000
G1 X15 Y3.5 Z0.3 F5000.0
G1 X175 Y3.5 Z0.3 F1500.0 E20
G1 X175 Y4.5 Z0.3 F5000.0
G1 X85 Y4.5 Z0.3 F1500.0 E30
M420 S1
G92 E0
G92 E0
G92 E0
G1 F1500 E-6.5
;LAYER_COUNT:48
;LAYER:0
M107
G0 F3600 X105.643 Y90.967 Z0.3
;TYPE:SKIRT
G1 F1500 E0
G1 F1800 X106.047 Y90.572 E0.02819
G1 X106.503 Y90.237 E0.05642
G1 X107.001 Y89.97 E0.08461
G1 X107.532 Y89.776 E0.11281
G1 X108.085 Y89.659 E0.14101
G1 X108.842 Y89.614 E0.17885
G1 X108.955 Y89.612 E0.18449
G1 X112.975 Y89.612 E0.38504
G1 X113.673 Y89.622 E0.41987
G1 X114.237 Y89.67 E0.44811
G1 X114.787 Y89.797 E0.47627
G1 X115.315 Y90.001 E0.50451
G1 X115.809 Y90.276 E0.53272
G1 X116.258 Y90.619 E0.56091
G1 X116.655 Y91.021 E0.5891
G1 X116.992 Y91.476 E0.61734
G1 X117.26 Y91.973 E0.64551
G1 X117.456 Y92.503 E0.67371
G1 X117.576 Y93.056 E0.70194
G1 X117.623 Y93.83 E0.74062
G1 X117.625 Y93.942 E0.74621
G1 X117.625 Y132.926 E2.69113
G1 X117.616 Y133.653 E2.72741
G1 X117.569 Y134.216 E2.75559
G1 X117.443 Y134.767 E2.78379
G1 X117.241 Y135.295 E2.81199
G1 X116.966 Y135.789 E2.8402
G1 X116.624 Y136.239 E2.8684
G1 X116.222 Y136.637 E2.89662
G1 X115.769 Y136.974 E2.92479
G1 X115.272 Y137.244 E2.95301
G1 X114.742 Y137.441 E2.98122
G1 X114.19 Y137.562 E3.00941
G1 X113.407 Y137.61 E3.04855
G1 X113.295 Y137.612 E3.05414
G1 X109.275 Y137.612 E3.2547
G1 X108.573 Y137.602 E3.28972
G1 X108.01 Y137.554 E3.31791
G1 X107.459 Y137.427 E3.34612
G1 X106.931 Y137.223 E3.37436
G1 X106.438 Y136.948 E3.40253
G1 X105.988 Y136.605 E3.43076
G1 X105.591 Y136.203 E3.45894
G1 X105.219 Y135.699 E3.49019
G1 X103.403 Y133.132 E3.64707
G1 X103.089 Y132.675 E3.67473
G1 X102.803 Y132.188 E3.70291
G1 X102.588 Y131.665 E3.73112
G1 X102.449 Y131.117 E3.75933
G1 X102.386 Y130.46 E3.79225
G1 X102.38 Y129.908 E3.8198
G1 X102.389 Y128.152 E3.9074
G1 X102.38 Y127.134 E3.95819
G1 X102.389 Y125.352 E4.0471
G1 X102.38 Y124.334 E4.09789
G1 X102.389 Y122.552 E4.1868
G1 X102.38 Y121.534 E4.23759
G1 X102.389 Y119.752 E4.32649
G1 X102.38 Y118.734 E4.37728
G1 X102.389 Y116.952 E4.46619
G1 X102.38 Y115.934 E4.51698
G1 X102.389 Y114.095 E4.60873
G1 X102.385 Y113.647 E4.63108
G1 X102.457 Y112.862 E4.67041
G1 X102.546 Y112.397 E4.69403
G1 X102.938 Y110.49 E4.79116
G1 X103.406 Y107.835 E4.92566
G1 X103.804 Y105.139 E5.06162
G1 X104.122 Y102.453 E5.19656
G1 X104.368 Y99.724 E5.33326
G1 X104.533 Y97.046 E5.46712
G1 X104.633 Y93.773 E5.63049
G1 X104.637 Y93.548 E5.64172
G1 X104.687 Y92.985 E5.66991
G1 X104.816 Y92.435 E5.6981
G1 X105.021 Y91.908 E5.72631
G1 X105.299 Y91.416 E5.7545
G1 X105.643 Y90.967 E5.78272
G0 F3600 X106.036 Y91.131
G1 F1800 X106.435 Y90.773 E5.80947
G1 X106.882 Y90.477 E5.83621
G1 X107.369 Y90.251 E5.863
G1 X107.883 Y90.101 E5.88971
G1 X108.534 Y90.022 E5.92243
G1 X108.955 Y90.012 E5.94344
G1 X112.97 Y90.012 E6.14375
G1 X113.668 Y90.022 E6.17857
G1 X114.202 Y90.07 E6.20532
G1 X114.723 Y90.196 E6.23207
G1 X115.22 Y90.399 E6.25885
G1 X115.681 Y90.673 E6.2856
G1 X116.096 Y91.012 E6.31234
G1 X116.456 Y91.41 E6.33911
G1 X116.753 Y91.856 E6.36585
G1 X116.981 Y92.342 E6.39263
G1 X117.133 Y92.856 E6.41937
G1 X117.215 Y93.521 E6.4528
G1 X117.225 Y93.942 E6.47381
G1 X117.225 Y132.921 E8.41848
G1 X117.216 Y133.648 E8.45475
G1 X117.169 Y134.182 E8.4815
G1 X117.044 Y134.703 E8.50823
G1 X116.842 Y135.2 E8.53499
G1 X116.569 Y135.662 E8.56176
G1 X116.231 Y136.078 E8.5885
G1 X115.834 Y136.439 E8.61528
G1 X115.388 Y136.737 E8.64204
G1 X114.903 Y136.965 E8.66877
G1 X114.389 Y137.119 E8.69554
G1 X113.717 Y137.202 E8.72932
G1 X113.295 Y137.212 E8.75038
G1 X109.281 Y137.212 E8.95064
G1 X108.579 Y137.202 E8.98567
G1 X108.045 Y137.154 E9.01242
G1 X107.523 Y137.028 E9.03921
G1 X107.027 Y136.825 E9.06595
G1 X106.566 Y136.551 E9.0927
G1 X106.15 Y136.212 E9.11947
G1 X105.647 Y135.618 E9.15831
G1 X105.524 Y135.436 E9.16927
G1 X103.733 Y132.906 E9.32391
G1 X103.419 Y132.449 E9.35158
G1 X103.149 Y131.985 E9.37836
G1 X102.951 Y131.487 E9.4051
G1 X102.829 Y130.965 E9.43184
G1 X102.786 Y130.455 E9.45738
G1 X102.78 Y129.91 E9.48457
G1 X102.789 Y128.097 E9.57502
G1 X102.78 Y127.136 E9.62297
G1 X102.789 Y125.297 E9.71472
G1 X102.78 Y124.336 E9.76266
G1 X102.789 Y122.497 E9.85441
G1 X102.78 Y121.536 E9.90236
G1 X102.789 Y119.697 E9.99411
G1 X102.78 Y118.736 E10.04205
G1 X102.789 Y116.897 E10.1338
G1 X102.78 Y115.936 E10.18175
G1 X102.789 Y114.097 E10.2735
G1 X102.785 Y113.644 E10.2961
G1 X102.849 Y112.937 E10.33152
G1 X102.938 Y112.478 E10.35484
G1 X103.329 Y110.575 E10.45177
G1 X103.803 Y107.885 E10.58804
G1 X104.198 Y105.213 E10.7228
G1 X104.519 Y102.5 E10.85909
G1 X104.767 Y99.748 E10.99695
G1 X104.933 Y97.05 E11.1318
G1 X105.041 Y93.506 E11.3087
G1 X105.086 Y93.022 E11.33295
G1 X105.215 Y92.501 E11.35973
G1 X105.419 Y92.005 E11.38648
G1 X105.695 Y91.545 E11.41325
G1 X106.036 Y91.131 E11.44
G0 F3600 X106.09 Y91.682
G1 F1800 X106.427 Y91.306 E11.4652
G1 X106.819 Y90.987 E11.49041
G1 X107.257 Y90.733 E11.51567
G1 X107.729 Y90.552 E11.54089
G1 X108.224 Y90.448 E11.56613
G1 X108.865 Y90.413 E11.59815
G1 X112.964 Y90.412 E11.80265
G1 X113.662 Y90.422 E11.83748
G1 X114.165 Y90.469 E11.86268
G1 X114.655 Y90.595 E11.88792
G1 X115.119 Y90.797 E11.91317
G1 X115.545 Y91.069 E11.93839
G1 X115.923 Y91.404 E11.96359
G1 X116.243 Y91.795 E11.98879
G1 X116.498 Y92.232 E12.01404
G1 X116.681 Y92.703 E12.03925
G1 X116.788 Y93.197 E12.06446
G1 X116.824 Y93.852 E12.09719
G1 X116.825 Y132.916 E14.0461
G1 X116.816 Y133.643 E14.08237
G1 X116.77 Y134.146 E14.10757
G1 X116.645 Y134.636 E14.1328
G1 X116.444 Y135.1 E14.15803
G1 X116.173 Y135.527 E14.18326
G1 X115.838 Y135.906 E14.2085
G1 X115.448 Y136.227 E14.2337
G1 X115.012 Y136.483 E14.25892
G1 X114.541 Y136.666 E14.28413
G1 X114.047 Y136.774 E14.30936
G1 X113.385 Y136.811 E14.34244
G1 X109.286 Y136.812 E14.54694
G1 X108.584 Y136.802 E14.58197
G1 X108.081 Y136.755 E14.60717
G1 X107.591 Y136.629 E14.63241
G1 X107.128 Y136.427 E14.65761
G1 X106.701 Y136.156 E14.68284
G1 X106.323 Y135.82 E14.70808
G1 X105.979 Y135.394 E14.73539
G1 X105.895 Y135.269 E14.74291
G1 X104.063 Y132.679 E14.90118
G1 X103.749 Y132.222 E14.92884
G1 X103.496 Y131.784 E14.95408
G1 X103.316 Y131.312 E14.97928
G1 X103.212 Y130.817 E15.00452
G1 X103.18 Y129.968 E15.0469
G1 X103.189 Y128.099 E15.14015
G1 X103.18 Y127.138 E15.1881
G1 X103.189 Y125.299 E15.27985
G1 X103.18 Y124.338 E15.32779
G1 X103.189 Y122.499 E15.41954
G1 X103.18 Y121.538 E15.46749
G1 X103.189 Y119.699 E15.55924
G1 X103.18 Y118.738 E15.60718
G1 X103.189 Y116.899 E15.69893
G1 X103.18 Y115.938 E15.74688
G1 X103.189 Y114.099 E15.83863
G1 X103.185 Y113.641 E15.86148
G1 X103.242 Y113.012 E15.89299
G1 X103.33 Y112.558 E15.91606
G1 X103.723 Y110.647 E16.0134
G1 X104.193 Y107.982 E16.1484
G1 X104.596 Y105.247 E16.28633
G1 X104.921 Y102.512 E16.42374
G1 X105.163 Y99.811 E16.55903
G1 X105.333 Y97.054 E16.69684
G1 X105.441 Y93.514 E16.87353
G1 X105.486 Y93.06 E16.89629
G1 X105.613 Y92.57 E16.92155
G1 X105.817 Y92.108 E16.94674
G1 X106.09 Y91.682 E16.97199
G1 F1500 E10.47199
;MESH:rackgear.stl
G0 F3600 X107.968 Y112.162
G0 X108.696 Y113.041
G0 X109.027 Y114.591
G0 X109.207 Y129.563
;TYPE:WALL-INNER
G1 F1500 E16.97199
G1 F1800 X109.226 Y128.75 E17.01256
G1 X109.17 Y128.415 E17.0295
G1 X108.796 Y128.026 E17.05643
G1 X108.174 Y127.799 E17.08946
G1 X108.173 Y127.798 E17.08953
G1 X107.658 Y127.612 E17.11685
G1 X108.173 Y127.425 E17.13131
G1 X108.799 Y127.197 E17.16455
G1 X109.207 Y126.763 E17.19427
G1 X109.226 Y125.95 E17.23484
G1 X109.17 Y125.614 E17.25184
G1 X108.796 Y125.226 E17.27872
G1 X108.174 Y124.999 E17.31176
G1 X108.173 Y124.998 E17.31183
G1 X107.658 Y124.812 E17.33915
G1 X108.173 Y124.625 E17.35361
G1 X108.799 Y124.397 E17.38685
G1 X109.207 Y123.963 E17.41657
G1 X109.226 Y123.15 E17.45714
G1 X109.17 Y122.814 E17.47413
G1 X108.796 Y122.426 E17.50102
G1 X108.174 Y122.199 E17.53405
G1 X108.173 Y122.198 E17.53413
G1 X107.658 Y122.012 E17.56144
G1 X108.173 Y121.825 E17.57591
G1 X108.799 Y121.597 E17.60915
G1 X109.207 Y121.163 E17.63887
G1 X109.226 Y120.35 E17.67944
G1 X109.17 Y120.015 E17.69638
G1 X108.796 Y119.626 E17.72331
G1 X108.174 Y119.399 E17.75634
G1 X108.173 Y119.398 E17.75641
G1 X107.658 Y119.212 E17.78373
G1 X108.173 Y119.025 E17.79819
G1 X108.799 Y118.797 E17.83143
G1 X109.207 Y118.363 E17.86115
G1 X109.226 Y117.55 E17.90172
G1 X109.17 Y117.214 E17.91872
G1 X108.796 Y116.826 E17.9456
G1 X108.174 Y116.599 E17.97864
G1 X108.173 Y116.598 E17.97871
G1 X107.658 Y116.412 E18.00602
G1 X108.173 Y116.225 E18.02049
G1 X108.799 Y115.997 E18.05373
G1 X109.207 Y115.563 E18.08345
G1 X109.226 Y114.75 E18.12402
G1 X109.17 Y114.414 E18.14101
G1 X108.796 Y114.026 E18.1679
G1 X108.174 Y113.799 E18.20093
G1 X108.173 Y113.798 E18.201
G1 X107.658 Y113.612 E18.22832
G1 X108.173 Y113.425 E18.24279
G1 X108.799 Y113.197 E18.27603
G1 X109.175 Y112.799 E18.30334
G1 X109.225 Y112.496 E18.31866
G1 X109.225 Y94.212 E19.23086
G1 X113.025 Y94.212 E19.42044
G1 X113.025 Y133.012 E21.35618
G1 X109.225 Y133.012 E21.54576
G1 X109.225 Y131.514 E21.6205
G1 X109.161 Y131.206 E21.63619
G1 X108.796 Y130.826 E21.66248
G1 X108.174 Y130.599 E21.69551
G1 X108.173 Y130.598 E21.69558
G1 X107.658 Y130.412 E21.7229
G1 X108.173 Y130.225 E21.73737
G1 X108.799 Y129.997 E21.77061
G1 X109.207 Y129.563 E21.80033
G0 F3600 X108.811 Y129.401
;TYPE:WALL-OUTER
G1 F1800 X108.825 Y128.778 E21.83141
G1 X108.796 Y128.603 E21.84026
G1 X108.572 Y128.37 E21.85639
G1 X107.014 Y127.803 E21.93911
G1 X106.666 Y127.677 E21.95757
G1 X106.62 Y127.612 E21.96154
G1 X106.666 Y127.547 E21.96552
G1 X107.014 Y127.421 E21.97812
G1 X108.573 Y126.854 E22.06088
G1 X108.811 Y126.601 E22.07821
G1 X108.825 Y125.978 E22.1093
G1 X108.796 Y125.802 E22.1182
G1 X108.572 Y125.57 E22.13429
G1 X107.014 Y125.003 E22.21701
G1 X106.666 Y124.877 E22.23547
G1 X106.62 Y124.812 E22.23944
G1 X106.666 Y124.747 E22.24342
G1 X107.014 Y124.621 E22.25602
G1 X108.573 Y124.054 E22.33878
G1 X108.811 Y123.801 E22.35611
G1 X108.825 Y123.178 E22.3872
G1 X108.796 Y123.002 E22.3961
G1 X108.572 Y122.77 E22.41219
G1 X107.014 Y122.203 E22.49491
G1 X106.666 Y122.077 E22.51337
G1 X106.62 Y122.012 E22.51734
G1 X106.666 Y121.947 E22.52132
G1 X107.014 Y121.821 E22.53392
G1 X108.573 Y121.254 E22.61668
G1 X108.811 Y121.001 E22.63401
G1 X108.825 Y120.378 E22.6651
G1 X108.796 Y120.203 E22.67395
G1 X108.572 Y119.97 E22.69008
G1 X107.014 Y119.403 E22.77279
G1 X106.666 Y119.277 E22.79126
G1 X106.62 Y119.212 E22.79523
G1 X106.666 Y119.147 E22.7992
G1 X107.014 Y119.021 E22.81181
G1 X108.573 Y118.454 E22.89457
G1 X108.811 Y118.201 E22.9119
G1 X108.825 Y117.578 E22.94299
G1 X108.796 Y117.402 E22.95189
G1 X108.572 Y117.17 E22.96798
G1 X107.014 Y116.603 E23.05069
G1 X106.666 Y116.477 E23.06916
G1 X106.62 Y116.412 E23.07313
G1 X106.666 Y116.347 E23.0771
G1 X107.014 Y116.221 E23.08971
G1 X108.573 Y115.654 E23.17247
G1 X108.811 Y115.401 E23.1898
G1 X108.825 Y114.778 E23.22089
G1 X108.796 Y114.602 E23.22979
G1 X108.572 Y114.37 E23.24588
G1 X107.014 Y113.803 E23.32859
G1 X106.666 Y113.677 E23.34706
G1 X106.62 Y113.612 E23.35103
G1 X106.666 Y113.547 E23.355
G1 X107.014 Y113.421 E23.36761
G1 X108.573 Y112.854 E23.45037
G1 X108.8 Y112.613 E23.46689
G1 X108.825 Y112.463 E23.47447
G1 X108.825 Y93.812 E24.40498
G1 X113.425 Y93.812 E24.63447
G1 X113.425 Y133.412 E26.61012
G1 X108.825 Y133.412 E26.83962
G1 X108.825 Y131.555 E26.93227
G1 X108.793 Y131.4 E26.94016
G1 X108.572 Y131.17 E26.95607
G1 X107.014 Y130.603 E27.03879
G1 X106.666 Y130.477 E27.05726
G1 X106.62 Y130.412 E27.06123
G1 X106.666 Y130.347 E27.0652
G1 X107.014 Y130.221 E27.0778
G1 X108.573 Y129.654 E27.16057
G1 X108.811 Y129.401 E27.1779
G0 F3600 X108.815 Y129.201
G0 X109.616 Y128.722
;TYPE:SKIN
G1 F1800 X109.535 Y128.232 E27.20268
G1 X109.014 Y127.691 E27.24015
G1 X108.799 Y127.612 E27.25157
G1 X109.019 Y127.532 E27.26325
G1 X109.593 Y126.921 E27.30508
G1 X109.616 Y125.923 E27.35488
G1 X109.535 Y125.431 E27.37976
G1 X109.014 Y124.89 E27.41723
G1 X108.8 Y124.812 E27.42859
G1 X109.019 Y124.732 E27.44023
G1 X109.593 Y124.121 E27.48205
G1 X109.616 Y123.123 E27.53185
G1 X109.535 Y122.631 E27.55673
G1 X109.014 Y122.09 E27.5942
G1 X108.8 Y122.012 E27.60556
G1 X109.019 Y121.932 E27.6172
G1 X109.593 Y121.321 E27.65902
G1 X109.616 Y120.322 E27.70887
G1 X109.535 Y119.832 E27.73365
G1 X109.014 Y119.291 E27.77112
G1 X108.799 Y119.212 E27.78255
G1 X109.019 Y119.132 E27.79423
G1 X109.593 Y118.521 E27.83606
G1 X109.616 Y117.523 E27.88586
G1 X109.535 Y117.031 E27.91074
G1 X109.014 Y116.49 E27.94821
G1 X108.8 Y116.412 E27.95957
G1 X109.019 Y116.332 E27.9712
G1 X109.593 Y115.721 E28.01303
G1 X109.616 Y114.723 E28.06283
G1 X109.535 Y114.231 E28.08771
G1 X109.014 Y113.69 E28.12518
G1 X108.8 Y113.612 E28.13654
G1 X109.019 Y113.532 E28.14817
G1 X109.54 Y112.98 E28.18604
G1 X109.615 Y112.528 E28.2089
G1 X109.615 Y94.602 E29.10323
G1 X112.635 Y94.602 E29.2539
G1 X112.635 Y132.622 E31.15073
G1 X109.615 Y132.622 E31.3014
G1 X109.615 Y131.473 E31.35872
G1 X109.52 Y131.017 E31.38196
G1 X109.014 Y130.491 E31.41837
G1 X108.799 Y130.412 E31.4298
G1 X109.019 Y130.332 E31.44148
G1 X109.593 Y129.721 E31.4833
G1 X109.616 Y128.722 E31.53316
G0 F3600 X110.379 Y132.441
G1 F1800 X109.795 Y131.857 E31.57436
G0 F3600 X109.751 Y131.247
G1 F1800 X110.945 Y132.441 E31.6586
G0 F3600 X111.51 Y132.441
G1 F1800 X109.33 Y130.261 E31.81241
G0 F3600 X109.604 Y129.969
G1 F1800 X112.076 Y132.441 E31.98683
G0 F3600 X112.455 Y132.254
G1 F1800 X109.776 Y129.575 E32.17585
G0 F3600 X109.788 Y129.021
G1 F1800 X112.455 Y131.688 E32.36402
G0 F3600 X112.455 Y131.123
G1 F1800 X109.747 Y128.414 E32.55512
G1 X109.677 Y128.344
G0 F3600 X109.344 Y127.446
G1 F1800 X112.455 Y130.557 E32.77461
G0 F3600 X112.455 Y129.991
G1 F1800 X109.618 Y127.154 E32.97478
G0 F3600 X109.776 Y126.746
G1 F1800 X112.455 Y129.425 E33.1638
G0 F3600 X112.455 Y128.86
G1 F1800 X109.788 Y126.193 E33.35197
G0 F3600 X109.741 Y125.58
G1 F1800 X112.455 Y128.294 E33.54346
G0 F3600 X112.455 Y127.728
G1 F1800 X109.358 Y124.631 E33.76197
G0 F3600 X109.631 Y124.339
G1 F1800 X112.455 Y127.163 E33.96121
G0 F3600 X112.455 Y126.597
G1 F1800 X109.776 Y123.919 E34.1502
G0 F3600 X109.789 Y123.366
G1 F1800 X112.455 Y126.031 E34.33826
G0 F3600 X112.455 Y125.466
G1 F1800 X109.735 Y122.746 E34.53017
G1 X109.665 Y122.676
G0 F3600 X109.371 Y121.816
G1 F1800 X112.455 Y124.9 E34.74777
G0 F3600 X112.455 Y124.334
G1 F1800 X109.645 Y121.524 E34.94603
G0 F3600 X109.777 Y121.091
G1 F1800 X112.455 Y123.769 E35.13497
G0 F3600 X112.455 Y123.203
G1 F1800 X109.79 Y120.538 E35.323
G0 F3600 X109.73 Y119.912
G1 F1800 X112.455 Y122.637 E35.51527
G0 F3600 X112.455 Y122.072
G1 F1800 X109.385 Y119.001 E35.73191
G0 F3600 X109.659 Y118.71
G1 F1800 X112.455 Y121.506 E35.92918
G0 F3600 X112.455 Y120.94
G1 F1800 X109.777 Y118.262 E36.11813
G0 F3600 X109.791 Y117.71
G1 F1800 X112.455 Y120.375 E36.30612
G0 F3600 X112.455 Y119.809
G1 F1800 X109.725 Y117.079 E36.49874
G1 X109.655 Y117.009
G0 F3600 X109.399 Y116.187
G1 F1800 X112.455 Y119.243 E36.71436
G0 F3600 X112.455 Y118.677
G1 F1800 X109.672 Y115.895 E36.91068
G0 F3600 X109.778 Y115.435
G1 F1800 X112.455 Y118.112 E37.09955
G0 F3600 X112.455 Y117.546
G1 F1800 X109.791 Y114.882 E37.28751
G0 F3600 X109.719 Y114.245
G1 F1800 X112.455 Y116.98 E37.48052
G0 F3600 X112.455 Y116.415
G1 F1800 X109.414 Y113.373 E37.69511
G0 F3600 X109.687 Y113.081
G1 F1800 X112.455 Y115.849 E37.89041
G0 F3600 X112.455 Y115.283
G1 F1800 X109.783 Y112.611 E38.07893
G0 F3600 X109.794 Y112.057
G1 F1800 X112.455 Y114.718 E38.26668
G0 F3600 X112.455 Y114.152
G1 F1800 X109.794 Y111.491 E38.45443
G0 F3600 X109.794 Y110.925
G1 F1800 X112.454 Y113.586 E38.64214
G0 F3600 X112.454 Y113.02
G1 F1800 X109.794 Y110.36 E38.82982
G0 F3600 X109.794 Y109.794
G1 F1800 X112.454 Y112.454 E39.0175
G0 F3600 X112.454 Y111.889
