;FLAVOR:Marlin
;TIME:19733
;Filament used: 9.98556m
;Layer height: 0.1
;MINX:70.408
;MINY:70.408
;MINZ:0.3
;MAXX:149.592
;MAXY:149.592
;MAXZ:7.5
;Generated with Cura_SteamEngine 4.8.0
M140 S60
M105
M190 S60
M104 S200
M105
M109 S200
M82 ;absolute extrusion mode
G28 ;Home
G1 Z15.0 F6000 ;Move the platform down 15mm
G1 X5 Y-5 F3000
;Prime the extruder
G92 E0
G1 Z2.0 F3000
G1 X15 Y3.5 Z0.3 F5000.0
G1 X175 Y3.5 Z0.3 F1500.0 E20
G1 X175 Y4.5 Z0.3 F5000.0
G1 X85 Y4.5 Z0.3 F1500.0 E30
M420 S1
G92 E0
G92 E0
G92 E0
G1 F1500 E-6.5
;LAYER_COUNT:73
;LAYER:0
M107
G0 F3600 X82.053 Y81.956 Z0.3
;TYPE:SKIRT
G1 F1500 E0
G1 F1800 X82.457 Y81.561 E0.02819
G1 X82.902 Y81.193 E0.057
G1 X83.18 Y81.005 E0.07374
G1 X84.026 Y80.486 E0.12326
G1 X85.336 Y79.704 E0.19937
G1 X87.657 Y78.228 E0.3366
G1 X89.895 Y76.715 E0.47137
G1 X92.165 Y75.084 E0.61083
G1 X92.852 Y74.563 E0.65384
G1 X93.396 Y74.165 E0.68747
G1 X93.894 Y73.856 E0.71671
G1 X94.225 Y73.692 E0.73514
G1 X94.954 Y73.378 E0.77474
G1 X95.445 Y73.183 E0.8011
G1 X96.022 Y73.008 E0.83118
G1 X96.311 Y72.952 E0.84587
G1 X97.401 Y72.779 E0.90093
G1 X98.555 Y72.613 E0.95909
G1 X101.278 Y72.143 E1.09695
G1 X103.946 Y71.605 E1.23274
G1 X106.567 Y70.997 E1.36697
G1 X107.978 Y70.633 E1.43967
G1 X108.811 Y70.461 E1.48211
G1 X109.309 Y70.421 E1.50703
G1 X110.127 Y70.408 E1.54785
G1 X110.634 Y70.415 E1.57315
G1 X111.246 Y70.476 E1.60383
G1 X111.538 Y70.535 E1.61869
G1 X112.525 Y70.77 E1.66931
G1 X113.917 Y71.124 E1.74097
G1 X116.607 Y71.726 E1.87849
G1 X119.275 Y72.241 E2.01406
G1 X121.963 Y72.684 E2.14997
G1 X123.076 Y72.838 E2.20603
G1 X123.596 Y72.919 E2.23228
G1 X124.151 Y73.048 E2.26071
G1 X124.488 Y73.162 E2.27846
G1 X125.189 Y73.438 E2.31605
G1 X125.75 Y73.68 E2.34653
G1 X126.248 Y73.944 E2.37465
G1 X126.525 Y74.128 E2.39124
G1 X127.334 Y74.714 E2.44107
G1 X128.518 Y75.597 E2.51476
G1 X130.748 Y77.163 E2.65071
G1 X133.004 Y78.654 E2.78562
G1 X135.336 Y80.103 E2.9226
G1 X136.196 Y80.607 E2.97233
G1 X136.738 Y80.936 E3.00396
G1 X137.19 Y81.257 E3.03162
G1 X137.482 Y81.51 E3.05089
G1 X138.108 Y82.116 E3.09436
G1 X138.434 Y82.45 E3.11765
G1 X138.831 Y82.934 E3.14888
G1 X138.992 Y83.178 E3.16346
G1 X139.514 Y84.026 E3.21314
G1 X140.296 Y85.336 E3.28926
G1 X141.772 Y87.657 E3.42648
G1 X143.298 Y89.913 E3.56237
G1 X144.9 Y92.144 E3.69939
G1 X145.432 Y92.845 E3.7433
G1 X145.824 Y93.378 E3.77631
G1 X146.146 Y93.896 E3.80674
G1 X146.308 Y94.225 E3.82503
G1 X146.62 Y94.95 E3.86441
G1 X146.813 Y95.434 E3.89041
G1 X146.985 Y95.993 E3.91958
G1 X147.048 Y96.308 E3.93561
G1 X147.221 Y97.392 E3.99038
G1 X147.391 Y98.579 E4.0502
G1 X147.857 Y101.278 E4.18685
G1 X148.395 Y103.946 E4.32263
G1 X149.003 Y106.567 E4.45687
G1 X149.366 Y107.976 E4.52946
G1 X149.536 Y108.788 E4.57085
G1 X149.579 Y109.306 E4.59678
G1 X149.592 Y110.127 E4.63774
G1 X149.585 Y110.634 E4.66304
G1 X149.524 Y111.246 E4.69372
G1 X149.465 Y111.538 E4.70859
G1 X149.23 Y112.525 E4.75921
G1 X148.876 Y113.917 E4.83086
G1 X148.274 Y116.607 E4.96839
G1 X147.759 Y119.275 E5.10395
G1 X147.316 Y121.963 E5.23987
G1 X147.162 Y123.075 E5.29587
G1 X147.081 Y123.596 E5.32218
G1 X146.952 Y124.152 E5.35065
G1 X146.837 Y124.491 E5.36851
G1 X146.562 Y125.188 E5.4059
G1 X146.321 Y125.75 E5.4364
G1 X146.047 Y126.263 E5.46542
G1 X145.873 Y126.525 E5.48111
G1 X145.286 Y127.334 E5.53098
G1 X144.415 Y128.502 E5.60367
G1 X142.832 Y130.756 E5.74108
G1 X141.341 Y133.012 E5.87599
G1 X139.892 Y135.344 E6.01297
G1 X139.397 Y136.187 E6.06174
G1 X139.069 Y136.73 E6.09339
G1 X138.74 Y137.194 E6.12177
G1 X138.49 Y137.482 E6.14079
G1 X137.88 Y138.112 E6.18454
G1 X137.545 Y138.438 E6.20786
G1 X137.094 Y138.81 E6.23703
G1 X136.825 Y138.991 E6.25321
G1 X135.974 Y139.514 E6.30304
G1 X134.664 Y140.296 E6.37916
G1 X132.343 Y141.772 E6.51638
G1 X130.105 Y143.285 E6.65116
G1 X127.835 Y144.916 E6.79061
G1 X127.148 Y145.437 E6.83363
G1 X126.604 Y145.835 E6.86725
G1 X126.102 Y146.146 E6.89672
G1 X125.772 Y146.31 E6.9151
G1 X125.145 Y146.581 E6.94918
G1 X125.041 Y146.624 E6.95479
G1 X124.548 Y146.819 E6.98124
G1 X123.99 Y146.989 E7.01034
G1 X123.689 Y147.048 E7.02565
G1 X122.598 Y147.221 E7.08076
G1 X121.445 Y147.387 E7.13887
G1 X118.713 Y147.858 E7.27719
G1 X116.083 Y148.388 E7.41103
G1 X113.402 Y149.01 E7.54834
G1 X112.022 Y149.367 E7.61946
G1 X111.189 Y149.539 E7.66189
G1 X110.691 Y149.579 E7.68682
G1 X109.873 Y149.592 E7.72763
G1 X109.368 Y149.585 E7.75283
G1 X108.794 Y149.531 E7.78159
G1 X108.458 Y149.465 E7.79868
G1 X107.476 Y149.23 E7.84905
G1 X106.069 Y148.873 E7.92147
G1 X103.387 Y148.274 E8.05857
G1 X100.746 Y147.762 E8.19279
G1 X98.037 Y147.316 E8.32976
G1 X96.925 Y147.162 E8.38577
G1 X96.404 Y147.081 E8.41207
G1 X95.848 Y146.952 E8.44055
G1 X95.51 Y146.837 E8.45836
G1 X94.699 Y146.516 E8.50188
G1 X94.251 Y146.322 E8.52623
G1 X93.737 Y146.047 E8.55531
G1 X93.474 Y145.871 E8.5711
G1 X92.643 Y145.268 E8.62233
G1 X91.521 Y144.432 E8.69213
G1 X89.261 Y142.844 E8.82994
G1 X86.971 Y141.331 E8.96687
G1 X84.656 Y139.892 E9.10286
G1 X83.809 Y139.395 E9.15185
G1 X83.264 Y139.065 E9.18364
G1 X82.809 Y138.742 E9.21148
G1 X82.517 Y138.489 E9.23075
G1 X81.888 Y137.88 E9.27443
G1 X81.562 Y137.545 E9.29775
G1 X81.197 Y137.104 E9.32631
G1 X81.003 Y136.816 E9.34364
G1 X80.486 Y135.974 E9.39293
G1 X79.695 Y134.65 E9.46988
G1 X78.228 Y132.343 E9.60627
G1 X76.698 Y130.079 E9.7426
G1 X75.105 Y127.863 E9.87876
G1 X74.563 Y127.148 E9.92352
G1 X74.165 Y126.604 E9.95715
G1 X73.854 Y126.102 E9.98661
G1 X73.69 Y125.772 E10.00499
G1 X73.419 Y125.145 E10.03907
G1 X73.185 Y124.561 E10.07046
G1 X73.006 Y123.966 E10.10146
G1 X72.952 Y123.689 E10.11554
G1 X72.779 Y122.599 E10.1706
G1 X72.613 Y121.445 E10.22877
G1 X72.144 Y118.728 E10.36632
G1 X71.603 Y116.047 E10.50277
G1 X70.997 Y113.433 E10.63664
G1 X70.635 Y112.027 E10.70908
G1 X70.458 Y111.176 E10.75244
G1 X70.421 Y110.694 E10.77656
G1 X70.408 Y109.867 E10.81783
G1 X70.416 Y109.355 E10.84337
G1 X70.477 Y108.751 E10.87366
G1 X70.535 Y108.462 E10.88837
G1 X70.774 Y107.459 E10.93981
G1 X71.124 Y106.083 E11.01064
G1 X71.726 Y103.393 E11.14817
G1 X72.241 Y100.725 E11.28373
G1 X72.684 Y98.037 E11.41964
G1 X72.838 Y96.925 E11.47565
G1 X72.92 Y96.398 E11.50226
G1 X73.056 Y95.823 E11.53174
G1 X73.162 Y95.512 E11.54813
G1 X73.438 Y94.811 E11.58572
G1 X73.679 Y94.25 E11.61618
G1 X73.973 Y93.704 E11.64712
G1 X74.132 Y93.469 E11.66127
G1 X74.732 Y92.642 E11.71225
G1 X75.584 Y91.498 E11.78341
G1 X77.157 Y89.26 E11.91988
G1 X78.67 Y86.97 E12.05682
G1 X80.111 Y84.652 E12.19299
G1 X80.605 Y83.808 E12.24178
G1 X80.937 Y83.26 E12.27374
G1 X81.268 Y82.795 E12.30222
G1 X81.511 Y82.517 E12.32064
G1 X82.053 Y81.956 E12.35956
G0 F3600 X82.411 Y82.163
G1 F1800 X82.735 Y81.848 E12.3821
G1 X83.131 Y81.52 E12.40776
G1 X83.39 Y81.346 E12.42332
G1 X84.231 Y80.829 E12.47257
G1 X85.575 Y80.027 E12.55066
G1 X87.85 Y78.581 E12.68514
G1 X90.147 Y77.027 E12.8235
G1 X92.354 Y75.442 E12.95906
G1 X93.089 Y74.885 E13.00507
G1 X93.633 Y74.487 E13.0387
G1 X94.089 Y74.205 E13.06545
G1 X94.384 Y74.059 E13.08187
G1 X95.102 Y73.75 E13.12087
G1 X95.593 Y73.555 E13.14723
G1 X96.106 Y73.4 E13.17396
G1 X96.374 Y73.347 E13.18759
G1 X97.458 Y73.175 E13.24235
G1 X98.643 Y73.005 E13.30208
G1 X101.32 Y72.543 E13.43761
G1 X104.043 Y71.993 E13.5762
G1 X106.679 Y71.382 E13.7112
G1 X108.071 Y71.022 E13.78293
G1 X108.857 Y70.858 E13.82299
G1 X109.316 Y70.82 E13.84597
G1 X110.023 Y70.808 E13.88124
G1 X110.628 Y70.815 E13.91143
G1 X111.172 Y70.87 E13.93871
G1 X111.445 Y70.924 E13.95259
G1 X112.427 Y71.157 E14.00294
G1 X113.837 Y71.515 E14.07552
G1 X116.548 Y72.123 E14.21413
G1 X119.205 Y72.635 E14.34913
G1 X121.878 Y73.076 E14.48429
G1 X123.015 Y73.233 E14.54155
G1 X123.535 Y73.314 E14.56781
G1 X124.042 Y73.433 E14.59379
G1 X124.341 Y73.534 E14.60954
G1 X125.042 Y73.81 E14.64712
G1 X125.591 Y74.047 E14.67695
G1 X126.033 Y74.281 E14.70191
G1 X126.291 Y74.452 E14.71735
G1 X127.095 Y75.035 E14.76689
G1 X128.272 Y75.912 E14.84012
G1 X130.519 Y77.491 E14.97714
G1 X132.803 Y79 E15.11371
G1 X135.118 Y80.439 E15.2497
G1 X135.988 Y80.949 E15.30001
G1 X136.53 Y81.278 E15.33165
G1 X136.945 Y81.573 E15.35705
G1 X137.205 Y81.798 E15.3742
G1 X137.755 Y82.329 E15.41234
G1 X138.148 Y82.73 E15.44036
G1 X138.5 Y83.16 E15.46808
G1 X138.651 Y83.387 E15.48168
G1 X139.171 Y84.231 E15.53114
G1 X139.973 Y85.575 E15.60922
G1 X141.435 Y87.874 E15.74515
G1 X142.957 Y90.124 E15.88067
G1 X144.558 Y92.354 E16.01763
G1 X145.11 Y93.082 E16.06321
G1 X145.502 Y93.615 E16.09622
G1 X145.797 Y94.092 E16.1242
G1 X145.941 Y94.384 E16.14044
G1 X146.213 Y95.013 E16.17463
G1 X146.441 Y95.582 E16.20521
G1 X146.594 Y96.079 E16.23116
G1 X146.653 Y96.371 E16.24602
G1 X146.825 Y97.449 E16.30048
G1 X147 Y98.673 E16.36217
G1 X147.457 Y101.32 E16.49618
G1 X148.007 Y104.043 E16.63478
G1 X148.618 Y106.679 E16.76977
G1 X148.977 Y108.069 E16.8414
G1 X149.139 Y108.836 E16.88051
G1 X149.18 Y109.313 E16.90439
G1 X149.192 Y110.023 E16.93982
G1 X149.185 Y110.628 E16.97
G1 X149.13 Y111.172 E16.99728
G1 X149.076 Y111.445 E17.01117
G1 X148.843 Y112.427 E17.06152
G1 X148.485 Y113.837 E17.1341
G1 X147.877 Y116.548 E17.27271
G1 X147.365 Y119.205 E17.40771
G1 X146.924 Y121.878 E17.54286
G1 X146.767 Y123.014 E17.60008
G1 X146.686 Y123.535 E17.62638
G1 X146.567 Y124.043 E17.65241
G1 X146.465 Y124.344 E17.66827
G1 X146.15 Y125.138 E17.71089
G1 X145.954 Y125.591 E17.73551
G1 X145.711 Y126.047 E17.76129
G1 X145.549 Y126.29 E17.77586
G1 X144.965 Y127.095 E17.82548
G1 X144.083 Y128.279 E17.89914
G1 X142.514 Y130.511 E18.03525
G1 X141 Y132.803 E18.17229
G1 X139.556 Y135.126 E18.30875
G1 X139.055 Y135.981 E18.35819
G1 X138.727 Y136.524 E18.38984
G1 X138.425 Y136.948 E18.41581
G1 X138.202 Y137.205 E18.43279
G1 X137.671 Y137.755 E18.47093
G1 X137.266 Y138.151 E18.49919
G1 X136.865 Y138.482 E18.52513
G1 X136.615 Y138.65 E18.54016
G1 X135.769 Y139.171 E18.58973
G1 X134.425 Y139.973 E18.66781
G1 X132.15 Y141.419 E18.8023
G1 X129.853 Y142.973 E18.94066
G1 X127.646 Y144.558 E19.07622
G1 X126.911 Y145.115 E19.12223
G1 X126.367 Y145.513 E19.15586
G1 X125.907 Y145.797 E19.18283
G1 X125.614 Y145.942 E19.19914
G1 X124.894 Y146.252 E19.23825
G1 X124.401 Y146.447 E19.2647
G1 X123.905 Y146.598 E19.29056
G1 X123.626 Y146.653 E19.30475
G1 X122.541 Y146.825 E19.35956
G1 X121.357 Y146.995 E19.41923
G1 X118.672 Y147.459 E19.55517
G1 X115.986 Y148 E19.69187
G1 X113.326 Y148.616 E19.82809
G1 X111.929 Y148.978 E19.90009
G1 X111.143 Y149.142 E19.94015
G1 X110.684 Y149.18 E19.96312
G1 X109.977 Y149.192 E19.9984
G1 X109.374 Y149.185 E20.02849
G1 X108.863 Y149.137 E20.05409
G1 X108.551 Y149.076 E20.06995
G1 X107.575 Y148.843 E20.12001
G1 X106.158 Y148.483 E20.19296
G1 X103.479 Y147.885 E20.3299
G1 X100.78 Y147.362 E20.46706
G1 X98.122 Y146.924 E20.60146
G1 X96.986 Y146.767 E20.65867
G1 X96.465 Y146.686 E20.68497
G1 X95.957 Y146.567 E20.711
G1 X95.656 Y146.465 E20.72686
G1 X94.956 Y146.189 E20.7644
G1 X94.41 Y145.954 E20.79406
G1 X93.953 Y145.711 E20.81988
G1 X93.709 Y145.548 E20.83452
G1 X92.882 Y144.948 E20.88549
G1 X91.721 Y144.083 E20.95772
G1 X89.49 Y142.515 E21.09377
G1 X87.197 Y141 E21.23088
G1 X84.874 Y139.556 E21.36734
G1 X84.017 Y139.053 E21.41692
G1 X83.472 Y138.723 E21.44871
G1 X83.054 Y138.426 E21.47429
G1 X82.794 Y138.201 E21.49144
G1 X82.245 Y137.671 E21.52951
G1 X81.849 Y137.266 E21.55777
G1 X81.524 Y136.874 E21.58318
G1 X81.344 Y136.607 E21.59924
G1 X80.83 Y135.769 E21.64829
G1 X80.033 Y134.435 E21.72581
G1 X78.57 Y132.133 E21.86189
G1 X77.037 Y129.867 E21.99838
G1 X75.442 Y127.647 E22.13476
G1 X74.885 Y126.911 E22.18081
G1 X74.487 Y126.367 E22.21444
G1 X74.203 Y125.907 E22.24141
G1 X74.058 Y125.614 E22.25772
G1 X73.752 Y124.902 E22.29638
G1 X73.557 Y124.413 E22.32265
G1 X73.397 Y123.884 E22.35022
G1 X73.347 Y123.626 E22.36333
G1 X73.175 Y122.542 E22.41809
G1 X73.005 Y121.357 E22.47782
G1 X72.543 Y118.679 E22.6134
G1 X71.993 Y115.957 E22.75194
G1 X71.382 Y113.321 E22.88694
G1 X71.023 Y111.933 E22.95846
G1 X70.856 Y111.132 E22.99929
G1 X70.82 Y110.687 E23.02156
G1 X70.808 Y109.977 E23.05699
G1 X70.816 Y109.361 E23.08772
G1 X70.87 Y108.824 E23.11465
G1 X70.924 Y108.554 E23.12838
G1 X71.161 Y107.557 E23.17951
G1 X71.515 Y106.163 E23.25127
G1 X72.123 Y103.452 E23.38988
G1 X72.635 Y100.795 E23.52487
G1 X73.076 Y98.122 E23.66003
G1 X73.233 Y96.986 E23.71725
G1 X73.315 Y96.459 E23.74386
G1 X73.44 Y95.935 E23.77073
G1 X73.534 Y95.659 E23.78528
G1 X73.81 Y94.958 E23.82286
G1 X74.046 Y94.409 E23.85268
G1 X74.308 Y93.923 E23.88022
G1 X74.456 Y93.704 E23.89341
G1 X75.053 Y92.881 E23.94414
G1 X75.917 Y91.721 E24.0163
G1 X77.486 Y89.489 E24.15241
G1 X79.001 Y87.196 E24.28952
G1 X80.446 Y84.87 E24.42614
G1 X80.947 Y84.015 E24.47558
G1 X81.279 Y83.467 E24.50754
G1 X81.583 Y83.042 E24.53361
G1 X81.799 Y82.795 E24.54998
G1 X82.411 Y82.163 E24.59388
G1 F1500 E18.09388
;MESH:?????????v2 - gearM4Z16.stl
G0 F3600 X84.201 Y83.954
G0 X85.109 Y84.862
G0 X109.831 Y107.001
G0 X109.836 Y107.1
;TYPE:WALL-INNER
G1 F1500 E24.59388
G1 F1800 X109.219 Y107.204 E24.62509
G1 X108.635 Y107.437 E24.65646
G1 X108.116 Y107.791 E24.6878
G1 X107.685 Y108.248 E24.71914
G1 X107.363 Y108.786 E24.75042
G1 X107.163 Y109.382 E24.78179
G1 X107.097 Y110.006 E24.81309
G1 X107.166 Y110.631 E24.84446
G1 X107.368 Y111.225 E24.87577
G1 X107.692 Y111.762 E24.90706
G1 X108.125 Y112.217 E24.93839
G1 X108.646 Y112.568 E24.96973
G1 X109.23 Y112.799 E25.00107
G1 X109.848 Y112.9 E25.03231
G1 X110.476 Y112.864 E25.06369
G1 X111.08 Y112.696 E25.09497
G1 X111.635 Y112.399 E25.12637
G1 X112.112 Y111.992 E25.15765
G1 X112.491 Y111.492 E25.18896
G1 X112.754 Y110.921 E25.22032
G1 X112.887 Y110.308 E25.25161
G1 X112.886 Y109.679 E25.283
G1 X112.749 Y109.068 E25.31424
G1 X112.485 Y108.498 E25.34557
G1 X112.105 Y107.999 E25.37687
G1 X111.624 Y107.593 E25.40827
G1 X111.069 Y107.301 E25.43956
G1 X110.464 Y107.134 E25.47087
G1 X109.836 Y107.1 E25.50225
G0 F3600 X109.831 Y107.001
G0 X136.637 Y105.92
G0 X136.719 Y105.864
G1 F1800 X137.212 Y106.328 E25.53602
G1 X137.768 Y106.523 E25.56542
G1 X139.782 Y106.89 E25.66755
G1 X141.652 Y107.431 E25.76467
G1 X143.459 Y108.163 E25.86194
G1 X145.161 Y109.064 E25.95802
G1 X145.309 Y109.199 E25.96801
G1 X145.395 Y109.446 E25.98106
G1 X145.395 Y110.526 E26.03494
G1 X145.349 Y110.734 E26.04557
G1 X145.183 Y110.925 E26.05819
G1 X143.467 Y111.834 E26.15508
G1 X141.652 Y112.569 E26.25277
G1 X139.782 Y113.11 E26.34989
G1 X137.761 Y113.478 E26.45238
G1 X137.201 Y113.678 E26.48204
G1 X136.713 Y114.145 E26.51574
G1 X136.488 Y114.701 E26.54566
G1 X136.27 Y115.799 E26.60151
G1 X136.269 Y116.406 E26.6318
G1 X136.546 Y117.02 E26.6654
G1 X136.984 Y117.413 E26.69476
G1 X138.697 Y118.516 E26.79641
G1 X140.221 Y119.736 E26.8938
G1 X141.628 Y121.12 E26.99226
G1 X142.842 Y122.589 E27.08734
G1 X142.927 Y122.77 E27.09732
G1 X142.914 Y123.03 E27.11031
G1 X142.499 Y124.03 E27.16432
G1 X142.376 Y124.205 E27.17499
G1 X142.153 Y124.318 E27.18747
G1 X140.222 Y124.502 E27.28424
G1 X138.267 Y124.485 E27.38178
G1 X136.311 Y124.268 E27.47996
G1 X134.316 Y123.838 E27.58178
G1 X133.722 Y123.808 E27.61145
G1 X133.095 Y124.052 E27.64502
G1 X132.672 Y124.479 E27.675
G1 X132.05 Y125.41 E27.73086
G1 X131.819 Y125.97 E27.76109
G1 X131.838 Y126.643 E27.79468
G1 X132.093 Y127.176 E27.82415
G1 X133.258 Y128.856 E27.92615
G1 X134.197 Y130.564 E28.02339
G1 X134.962 Y132.368 E28.12115
G1 X135.524 Y134.194 E28.21647
G1 X135.533 Y134.403 E28.2269
G1 X135.417 Y134.64 E28.24007
G1 X134.658 Y135.399 E28.29362
G1 X134.478 Y135.514 E28.30428
G1 X134.224 Y135.533 E28.31698
G1 X132.368 Y134.962 E28.41386
G1 X130.562 Y134.196 E28.51174
G1 X128.856 Y133.258 E28.60886
G1 X127.17 Y132.089 E28.71122
G1 X126.632 Y131.836 E28.74088
G1 X125.959 Y131.82 E28.77447
G1 X125.405 Y132.053 E28.80445
G1 X124.475 Y132.675 E28.86027
G1 X124.045 Y133.104 E28.89057
G1 X123.807 Y133.734 E28.92417
G1 X123.838 Y134.322 E28.95355
G1 X124.266 Y136.296 E29.05432
G1 X124.485 Y138.267 E29.15326
G1 X124.502 Y140.222 E29.2508
G1 X124.321 Y142.123 E29.34607
G1 X124.251 Y142.315 E29.35626
G1 X124.058 Y142.487 E29.36916
G1 X123.058 Y142.902 E29.42318
G1 X122.851 Y142.938 E29.43366
