;FLAVOR:Marlin
;TIME:12867
;Filament used: 8.00444m
;Layer height: 0.1
;MINX:31.8
;MINY:5.894
;MINZ:0.3
;MAXX:188.2
;MAXY:214.117
;MAXZ:1
;Generated with Cura_SteamEngine 4.8.0
M140 S60
M105
M190 S60
M104 S200
M105
M109 S200
M82 ;absolute extrusion mode
G28 ;Home
G1 Z15.0 F6000 ;Move the platform down 15mm
G1 X5 Y-5 F3000
;Prime the extruder
G92 E0
G1 Z2.0 F3000
G1 X15 Y3.5 Z0.3 F5000.0
G1 X175 Y3.5 Z0.3 F1500.0 E20
G1 X175 Y4.5 Z0.3 F5000.0
G1 X85 Y4.5 Z0.3 F1500.0 E30
M420 S1
G92 E0
G92 E0
G92 E0
G1 F1500 E-6.5
;LAYER_COUNT:8
;LAYER:0
M107
G0 F3600 X46.084 Y32.563 Z0.3
;TYPE:SKIRT
G1 F1500 E0
G1 F1800 X46.422 Y32.091 E0.02896
G1 X50.588 Y26.689 E0.36931
G1 X51.042 Y26.119 E0.40566
G1 X51.427 Y25.681 E0.43475
G1 X56.096 Y20.751 E0.77351
G1 X56.624 Y20.211 E0.81119
G1 X57.021 Y19.841 E0.83826
G1 X62.202 Y15.372 E1.17962
G1 X62.764 Y14.902 E1.21617
G1 X63.205 Y14.568 E1.24377
G1 X68.793 Y10.659 E1.584
G1 X69.401 Y10.246 E1.62067
G1 X69.861 Y9.965 E1.64756
G1 X75.81 Y6.641 E1.98754
G1 X76.477 Y6.28 E2.02538
G1 X76.939 Y6.075 E2.0506
G1 X77.428 Y5.946 E2.07583
G1 X77.931 Y5.895 E2.10105
G1 X78.435 Y5.924 E2.12624
G1 X78.98 Y6.048 E2.15412
G1 X81.683 Y6.917 E2.29578
G1 X84.306 Y7.679 E2.43205
G1 X86.968 Y8.371 E2.56927
G1 X89.656 Y8.99 E2.70688
G1 X92.319 Y9.521 E2.84236
G1 X95.014 Y9.982 E2.97876
G1 X97.708 Y10.365 E3.11452
G1 X100.444 Y10.675 E3.25189
G1 X103.187 Y10.907 E3.38923
G1 X105.903 Y11.06 E3.52495
G1 X108.654 Y11.137 E3.66225
G1 X111.371 Y11.137 E3.7978
G1 X114.124 Y11.058 E3.9352
G1 X116.87 Y10.902 E4.07242
G1 X119.585 Y10.669 E4.20837
G1 X122.286 Y10.362 E4.34399
G1 X125.001 Y9.975 E4.48082
G1 X127.73 Y9.506 E4.61896
G1 X130.37 Y8.976 E4.7533
G1 X133.069 Y8.355 E4.89147
G1 X135.702 Y7.669 E5.02722
G1 X138.321 Y6.906 E5.16331
G1 X139.743 Y6.46 E5.23766
G1 X141.015 Y6.049 E5.30436
G1 X141.507 Y5.932 E5.32959
G1 X142.011 Y5.894 E5.3548
G1 X142.515 Y5.936 E5.38003
G1 X143.006 Y6.057 E5.40526
G1 X143.752 Y6.398 E5.44618
G1 X143.849 Y6.45 E5.45168
G1 X149.684 Y9.705 E5.78502
G1 X150.3 Y10.061 E5.82051
G1 X150.793 Y10.38 E5.84981
G1 X156.289 Y14.204 E6.18384
G1 X156.866 Y14.619 E6.2193
G1 X157.301 Y14.966 E6.24706
G1 X162.367 Y19.297 E6.57958
G1 X162.926 Y19.789 E6.61673
G1 X163.32 Y20.17 E6.64408
G1 X167.932 Y24.981 E6.97657
G1 X168.459 Y25.545 E7.01508
G1 X168.816 Y25.968 E7.0427
G1 X172.93 Y31.217 E7.37542
G1 X173.384 Y31.814 E7.41284
G1 X173.703 Y32.277 E7.44089
G1 X177.311 Y37.961 E7.77677
G1 X177.677 Y38.556 E7.81162
G1 X177.959 Y39.071 E7.84092
G1 X180.94 Y44.996 E8.17182
G1 X181.279 Y45.693 E8.21049
G1 X181.5 Y46.214 E8.23872
G1 X183.888 Y52.431 E8.57099
G1 X184.144 Y53.127 E8.60798
G1 X184.299 Y53.616 E8.63358
G1 X184.327 Y53.711 E8.63852
G1 X186.084 Y60.125 E8.9703
G1 X186.27 Y60.848 E9.00755
G1 X186.385 Y61.401 E9.03573
G1 X187.501 Y67.982 E9.36874
G1 X187.612 Y68.689 E9.40445
G1 X187.669 Y69.22 E9.43109
G1 X188.132 Y75.934 E9.76685
G1 X188.16 Y76.481 E9.79417
G1 X188.187 Y77.851 E9.86254
G1 X188.2 Y194.847 E15.69949
G1 X188.172 Y196.517 E15.78282
G1 X188.166 Y196.696 E15.79175
G1 X188.134 Y197.357 E15.82477
G1 X188.051 Y198.116 E15.86286
G1 X187.984 Y198.59 E15.88675
G1 X187.879 Y199.267 E15.92093
G1 X187.722 Y199.99 E15.95784
G1 X187.595 Y200.503 E15.9842
G1 X187.421 Y201.151 E16.01768
G1 X187.178 Y201.879 E16.05597
G1 X187.028 Y202.288 E16.0777
G1 X186.777 Y202.945 E16.11279
G1 X186.588 Y203.375 E16.13622
G1 X186.265 Y204.039 E16.17306
G1 X185.934 Y204.69 E16.2095
G1 X185.512 Y205.402 E16.25079
G1 X185.313 Y205.716 E16.26934
G1 X184.918 Y206.323 E16.30547
G1 X184.671 Y206.667 E16.3266
G1 X184.207 Y207.26 E16.36416
G1 X183.723 Y207.854 E16.40239
G1 X183.192 Y208.428 E16.4414
G1 X182.883 Y208.744 E16.46345
G1 X182.378 Y209.244 E16.4989
G1 X181.828 Y209.727 E16.53542
G1 X181.436 Y210.049 E16.56073
G1 X180.942 Y210.446 E16.59235
G1 X180.303 Y210.899 E16.63143
G1 X179.884 Y211.175 E16.65646
G1 X179.316 Y211.538 E16.69009
G1 X178.627 Y211.921 E16.72942
G1 X178.199 Y212.142 E16.75345
G1 X177.599 Y212.441 E16.78689
G1 X176.826 Y212.767 E16.82875
G1 X176.489 Y212.898 E16.84679
G1 X175.808 Y213.153 E16.88307
G1 X175.021 Y213.391 E16.92409
G1 X174.684 Y213.482 E16.9415
G1 X173.943 Y213.672 E16.97967
G1 X173.189 Y213.817 E17.01797
G1 X172.748 Y213.887 E17.04025
G1 X172.063 Y213.987 E17.07479
G1 X171.22 Y214.057 E17.11699
G1 X170.824 Y214.078 E17.13677
G1 X169.968 Y214.11 E17.17951
G1 X169.391 Y214.117 E17.2083
G1 X50.663 Y214.117 E23.13166
G1 X49.87 Y214.106 E23.17123
G1 X49.196 Y214.079 E23.20488
G1 X48.889 Y214.063 E23.22022
G1 X48.198 Y214.016 E23.25477
G1 X47.428 Y213.916 E23.29351
G1 X46.96 Y213.841 E23.31716
G1 X46.294 Y213.725 E23.35088
G1 X45.871 Y213.629 E23.37252
G1 X45.138 Y213.434 E23.41037
G1 X44.42 Y213.228 E23.44763
G1 X43.63 Y212.945 E23.4895
G1 X43.33 Y212.828 E23.50556
G1 X42.617 Y212.539 E23.54394
G1 X41.902 Y212.196 E23.58351
G1 X41.481 Y211.978 E23.60716
G1 X40.907 Y211.67 E23.63966
G1 X40.228 Y211.25 E23.67949
G1 X39.901 Y211.033 E23.69907
G1 X39.287 Y210.616 E23.7361
G1 X38.667 Y210.136 E23.77522
G1 X38.294 Y209.827 E23.79939
G1 X37.787 Y209.396 E23.83258
G1 X37.458 Y209.087 E23.8551
G1 X36.924 Y208.549 E23.89292
G1 X36.427 Y208.027 E23.92888
G1 X35.938 Y207.444 E23.96684
G1 X35.648 Y207.078 E23.99014
G1 X35.232 Y206.535 E24.02427
G1 X34.763 Y205.839 E24.06614
G1 X34.556 Y205.51 E24.08553
G1 X34.166 Y204.87 E24.12292
G1 X33.834 Y204.242 E24.15836
G1 X33.619 Y203.804 E24.1827
G1 X33.332 Y203.198 E24.21616
G1 X33.018 Y202.414 E24.25829
G1 X32.879 Y202.034 E24.27848
G1 X32.647 Y201.372 E24.31347
G1 X32.427 Y200.588 E24.3541
G1 X32.328 Y200.189 E24.37461
G1 X32.165 Y199.492 E24.41032
G1 X32.032 Y198.704 E24.45019
G1 X31.979 Y198.324 E24.46933
G1 X31.885 Y197.57 E24.50724
G1 X31.855 Y197.191 E24.52621
G1 X31.826 Y196.47 E24.56221
G1 X31.8 Y194.845 E24.64329
G1 X31.8 Y78.947 E30.42546
G1 X31.814 Y78.026 E30.47142
G1 X31.834 Y77.53 E30.49618
G1 X32.165 Y70.99 E30.82288
G1 X32.211 Y70.286 E30.85808
G1 X32.276 Y69.726 E30.88621
G1 X33.311 Y62.948 E31.22828
G1 X33.427 Y62.255 E31.26334
G1 X33.534 Y61.757 E31.28875
G1 X35.27 Y55.034 E31.63516
G1 X35.441 Y54.407 E31.66759
G1 X35.622 Y53.854 E31.69662
G1 X37.995 Y47.428 E32.03837
G1 X38.249 Y46.77 E32.07356
G1 X38.501 Y46.207 E32.10433
G1 X41.464 Y40.145 E32.44096
G1 X41.808 Y39.464 E32.47903
G1 X42.077 Y38.996 E32.50596
G1 X45.704 Y33.156 E32.84893
G1 X46.084 Y32.563 E32.88407
G1 F1500 E26.38407
;MESH:tip.stl
G0 F3600 X48.267 Y33.85
G0 X49.283 Y34.633
G0 X60.335 Y88.898
G0 X60.432 Y88.878
;TYPE:WALL-INNER
G1 F1500 E32.88407
G1 F1800 X61.877 Y94.199 E33.15915
G1 X63.89 Y99.33 E33.43413
G1 X66.448 Y104.214 E33.7092
G1 X69.521 Y108.792 E33.98428
G1 X73.073 Y113.007 E34.25928
G1 X77.063 Y116.813 E34.53438
G1 X81.442 Y120.161 E34.80938
G1 X86.16 Y123.015 E35.08448
G1 X91.158 Y125.341 E35.35951
G1 X96.379 Y127.109 E35.63452
G1 X101.763 Y128.299 E35.90961
G1 X107.243 Y128.898 E36.18464
G1 X112.757 Y128.898 E36.45973
G1 X118.237 Y128.299 E36.73476
G1 X123.621 Y127.109 E37.00985
G1 X128.842 Y125.341 E37.28486
G1 X133.84 Y123.015 E37.55989
G1 X138.558 Y120.161 E37.83499
G1 X142.937 Y116.813 E38.10999
G1 X146.927 Y113.007 E38.38509
G1 X150.479 Y108.792 E38.66009
G1 X153.552 Y104.214 E38.93517
G1 X156.11 Y99.33 E39.21024
G1 X158.123 Y94.199 E39.48522
G1 X159.568 Y88.878 E39.7603
G1 X160.425 Y83.432 E40.03534
G1 X160.685 Y77.925 E40.3104
G1 X160.346 Y72.422 E40.58546
G1 X159.411 Y66.989 E40.8605
G1 X157.892 Y61.689 E41.13556
G1 X155.806 Y56.586 E41.4106
G1 X153.178 Y51.739 E41.68568
G1 X150.039 Y47.206 E41.96076
G1 X146.427 Y43.042 E42.23577
G1 X142.6 Y39.494 E42.49613
G1 X142.6 Y10.445 E43.94539
G1 X142.6 Y10.443 E43.94549
G1 X142.6 Y10.105 E43.96235
G1 X142.896 Y10.27 E43.97197
G1 X148.384 Y13.331 E44.28547
G1 X154.616 Y17.668 E44.66427
G1 X160.407 Y22.619 E45.04438
G1 X165.668 Y28.111 E45.42381
G1 X170.358 Y34.096 E45.80316
G1 X174.436 Y40.523 E46.1829
G1 X177.855 Y47.323 E46.56263
G1 X180.58 Y54.416 E46.94171
G1 X182.594 Y61.77 E47.32212
G1 X183.863 Y69.248 E47.70053
G1 X184.387 Y76.864 E48.08139
G1 X184.4 Y195.593 E54.0048
G1 X184.349 Y197.156 E54.08282
G1 X184.138 Y198.661 E54.15864
G1 X183.769 Y200.138 E54.2346
G1 X183.237 Y201.587 E54.31161
G1 X182.567 Y202.95 E54.38738
G1 X181.757 Y204.234 E54.46312
G1 X180.806 Y205.434 E54.53951
G1 X179.736 Y206.527 E54.61582
G1 X178.557 Y207.499 E54.69205
G1 X177.287 Y208.337 E54.76796
G1 X175.926 Y209.041 E54.84441
G1 X174.504 Y209.594 E54.92053
G1 X173.028 Y209.994 E54.99682
G1 X171.528 Y210.235 E55.07262
G1 X169.987 Y210.317 E55.14961
G1 X50.013 Y210.317 E61.13513
G1 X48.472 Y210.235 E61.21212
G1 X46.972 Y209.994 E61.28792
G1 X45.496 Y209.594 E61.36421
G1 X44.074 Y209.041 E61.44033
G1 X42.713 Y208.337 E61.51678
G1 X41.443 Y207.499 E61.59269
G1 X40.264 Y206.527 E61.66892
G1 X39.194 Y205.434 E61.74523
G1 X38.243 Y204.234 E61.82162
G1 X37.433 Y202.95 E61.89736
G1 X36.763 Y201.587 E61.97313
G1 X36.231 Y200.138 E62.05014
G1 X35.862 Y198.661 E62.12609
G1 X35.651 Y197.156 E62.20191
G1 X35.6 Y195.613 E62.27894
G1 X35.6 Y78.296 E68.13191
G1 X35.991 Y70.558 E68.51845
G1 X37.16 Y62.91 E68.90444
G1 X39.095 Y55.417 E69.29053
G1 X41.777 Y48.157 E69.67666
G1 X45.176 Y41.207 E70.06264
G1 X49.267 Y34.622 E70.44941
G1 X53.987 Y28.504 E70.83491
G1 X59.309 Y22.884 E71.22107
G1 X65.165 Y17.835 E71.60682
G1 X71.51 Y13.395 E71.99318
G1 X77.104 Y10.27 E72.31286
G1 X77.4 Y10.105 E72.32977
G1 X77.4 Y10.443 E72.33936
G1 X77.4 Y10.445 E72.33946
G1 X77.4 Y39.494 E73.78872
G1 X73.573 Y43.042 E74.04908
G1 X69.961 Y47.206 E74.32409
G1 X66.822 Y51.739 E74.59917
G1 X64.194 Y56.586 E74.87425
G1 X62.108 Y61.689 E75.14929
G1 X60.589 Y66.989 E75.42435
G1 X59.654 Y72.422 E75.69939
G1 X59.315 Y77.925 E75.97445
G1 X59.575 Y83.432 E76.2495
G1 X60.432 Y88.878 E76.52455
G0 F3600 X60.335 Y88.898
G0 X59.536 Y83.436
G0 X59.275 Y77.925
G0 X59.554 Y72.437
G0 X60.052 Y72.468
;TYPE:WALL-OUTER
G1 F1800 X59.716 Y77.928 E76.79747
G1 X59.974 Y83.391 E77.07032
G1 X60.824 Y88.794 E77.34319
G1 X62.257 Y94.073 E77.61609
G1 X64.254 Y99.164 E77.88893
G1 X66.792 Y104.009 E78.1618
G1 X69.841 Y108.551 E78.43472
G1 X73.365 Y112.733 E78.70756
G1 X77.323 Y116.508 E78.98044
G1 X81.668 Y119.83 E79.25331
G1 X86.348 Y122.662 E79.52622
G1 X91.307 Y124.969 E79.79909
G1 X96.487 Y126.723 E80.07193
G1 X101.828 Y127.904 E80.34483
G1 X107.265 Y128.498 E80.6177
G1 X112.735 Y128.498 E80.8906
G1 X118.172 Y127.904 E81.16347
G1 X123.513 Y126.723 E81.43637
G1 X128.693 Y124.969 E81.70921
G1 X133.652 Y122.662 E81.98208
G1 X138.332 Y119.83 E82.25499
G1 X142.677 Y116.508 E82.52786
G1 X146.635 Y112.733 E82.80074
G1 X150.159 Y108.551 E83.07358
G1 X153.208 Y104.009 E83.3465
G1 X155.746 Y99.164 E83.61937
G1 X157.743 Y94.073 E83.89221
G1 X159.176 Y88.794 E84.16511
G1 X160.026 Y83.391 E84.43798
G1 X160.284 Y77.928 E84.71083
G1 X159.948 Y72.468 E84.98375
G1 X159.02 Y67.078 E85.25661
G1 X157.513 Y61.82 E85.5295
G1 X155.444 Y56.757 E85.80237
G1 X152.837 Y51.949 E86.07523
G1 X149.723 Y47.452 E86.34813
G1 X146.139 Y43.321 E86.62098
G1 X142.2 Y39.668 E86.889
G1 X142.2 Y9.764 E88.38092
G1 X142.2 Y9.762 E88.38102
G1 X142.2 Y9.424 E88.39788
G1 X142.496 Y9.589 E88.40749
G1 X148.593 Y12.99 E88.7558
G1 X154.865 Y17.355 E89.13703
G1 X160.684 Y22.33 E89.51898
G1 X165.971 Y27.848 E89.90024
G1 X170.684 Y33.863 E90.28148
G1 X174.783 Y40.323 E90.66318
G1 X178.22 Y47.158 E91.04486
G1 X180.963 Y54.299 E91.42651
G1 X182.984 Y61.677 E91.80816
G1 X184.261 Y69.203 E92.189
G1 X184.787 Y76.852 E92.57151
G1 X184.8 Y195.606 E98.49617
G1 X184.748 Y197.187 E98.57509
G1 X184.531 Y198.739 E98.65327
G1 X184.15 Y200.261 E98.73155
G1 X183.607 Y201.742 E98.81024
G1 X182.92 Y203.139 E98.88791
G1 X182.08 Y204.47 E98.96643
G1 X181.106 Y205.7 E99.04471
G1 X180.004 Y206.825 E99.12328
G1 X178.8 Y207.818 E99.20114
G1 X177.49 Y208.682 E99.27943
G1 X176.088 Y209.407 E99.35817
G1 X174.631 Y209.974 E99.43617
G1 X173.113 Y210.386 E99.51465
G1 X171.574 Y210.633 E99.59241
G1 X169.989 Y210.717 E99.6716
G1 X50.011 Y210.717 E105.65732
G1 X48.426 Y210.633 E105.73651
G1 X46.887 Y210.386 E105.81427
G1 X45.369 Y209.974 E105.89275
G1 X43.912 Y209.407 E105.97075
G1 X42.51 Y208.682 E106.04949
G1 X41.2 Y207.818 E106.12778
G1 X39.996 Y206.825 E106.20565
G1 X38.894 Y205.7 E106.28421
G1 X37.92 Y204.47 E106.36249
G1 X37.08 Y203.139 E106.44101
G1 X36.393 Y201.742 E106.51868
G1 X35.85 Y200.261 E106.59738
G1 X35.469 Y198.739 E106.67565
G1 X35.252 Y197.187 E106.75383
G1 X35.2 Y195.613 E106.8324
G1 X35.2 Y78.296 E112.68537
G1 X35.593 Y70.517 E113.07396
G1 X36.768 Y62.828 E113.46202
G1 X38.714 Y55.295 E113.85018
G1 X41.408 Y48 E114.23816
G1 X44.827 Y41.01 E114.62637
G1 X48.937 Y34.395 E115.01491
G1 X53.68 Y28.247 E115.4023
G1 X59.034 Y22.593 E115.79078
G1 X64.92 Y17.518 E116.17852
G1 X71.295 Y13.057 E116.5667
G1 X77.504 Y9.589 E116.92152
G1 X77.8 Y9.424 E116.93842
G1 X77.8 Y9.762 E116.94802
G1 X77.8 Y9.764 E116.94812
G1 X77.8 Y39.668 E118.44003
G1 X73.861 Y43.321 E118.70805
G1 X70.277 Y47.452 E118.9809
G1 X67.163 Y51.949 E119.2538
G1 X64.556 Y56.757 E119.52666
G1 X62.487 Y61.82 E119.79953
G1 X60.98 Y67.078 E120.07242
G1 X60.052 Y72.468 E120.34528
G0 F3600 X60.04 Y72.667
G0 X59.266 Y72.377
;TYPE:SKIN
G1 F1800 X58.925 Y77.923 E120.62249
G1 X59.187 Y83.471 E120.89959
G1 X60.05 Y88.96 E121.17681
G1 X61.506 Y94.322 E121.454
G1 X63.535 Y99.492 E121.73109
G1 X66.112 Y104.413 E122.00822
G1 X69.209 Y109.028 E122.28551
G1 X72.788 Y113.274 E122.56256
G1 X76.809 Y117.11 E122.83981
G1 X81.222 Y120.483 E123.11692
G1 X85.976 Y123.36 E123.39415
G1 X91.013 Y125.704 E123.67132
G1 X96.274 Y127.485 E123.94843
G1 X101.699 Y128.685 E124.22562
G1 X107.222 Y129.288 E124.50281
G1 X112.778 Y129.288 E124.78
G1 X118.301 Y128.685 E125.05718
G1 X123.726 Y127.485 E125.33437
G1 X128.987 Y125.704 E125.61148
G1 X134.024 Y123.36 E125.88865
G1 X138.778 Y120.483 E126.16588
G1 X143.191 Y117.11 E126.44299
G1 X147.212 Y113.274 E126.72025
G1 X150.791 Y109.028 E126.9973
G1 X153.888 Y104.413 E127.27458
G1 X156.465 Y99.492 E127.55171
G1 X158.494 Y94.322 E127.8288
G1 X159.95 Y88.96 E128.106
G1 X160.813 Y83.471 E128.38321
G1 X161.075 Y77.923 E128.66031
G1 X160.734 Y72.377 E128.93752
G1 X159.791 Y66.902 E129.21469
G1 X158.261 Y61.561 E129.49187
G1 X156.159 Y56.419 E129.76902
G1 X153.511 Y51.534 E130.04623
G1 X150.347 Y46.966 E130.32346
G1 X146.708 Y42.771 E130.60052
G1 X142.99 Y39.324 E130.85347
G1 X142.99 Y10.77 E132.27803
G1 X148.18 Y13.664 E132.57449
G1 X154.382 Y17.981 E132.95149
G1 X160.142 Y22.905 E133.32955
G1 X165.367 Y28.359 E133.70637
G1 X170.041 Y34.324 E134.08444
G1 X174.093 Y40.71 E134.46176
G1 X177.501 Y47.489 E134.8403
G1 X180.209 Y54.539 E135.21708
G1 X182.214 Y61.858 E135.59568
G1 X183.473 Y69.275 E135.97101
G1 X183.997 Y76.891 E136.35187
G1 X184.01 Y195.58 E142.27329
G1 X183.959 Y197.127 E142.35051
G1 X183.754 Y198.589 E142.42417
G1 X183.398 Y200.018 E142.49764
G1 X182.879 Y201.431 E142.57274
G1 X182.227 Y202.759 E142.64655
G1 X181.439 Y204.008 E142.72023
G1 X180.514 Y205.174 E142.79448
G1 X179.469 Y206.242 E142.86903
G1 X178.329 Y207.182 E142.94274
G1 X177.089 Y208 E143.01685
G1 X175.757 Y208.689 E143.09167
G1 X174.383 Y209.223 E143.16522
G1 X172.949 Y209.612 E143.23934
G1 X171.493 Y209.846 E143.31292
G1 X169.966 Y209.927 E143.38921
G1 X50.034 Y209.927 E149.37264
G1 X48.507 Y209.846 E149.44893
G1 X47.051 Y209.612 E149.5225
G1 X45.617 Y209.223 E149.59663
G1 X44.243 Y208.689 E149.67017
G1 X42.911 Y208 E149.74499
G1 X41.671 Y207.182 E149.8191
G1 X40.531 Y206.242 E149.89282
G1 X39.486 Y205.174 E149.96736
G1 X38.561 Y204.008 E150.04162
G1 X37.773 Y202.759 E150.1153
G1 X37.121 Y201.431 E150.1891
G1 X36.602 Y200.018 E150.2642
G1 X36.246 Y198.589 E150.33768
G1 X36.041 Y197.126 E150.41138
G1 X35.99 Y195.613 E150.48691
G1 X35.99 Y78.316 E156.33888
G1 X36.38 Y70.597 E156.72447
G1 X37.543 Y62.989 E157.10844
G1 X39.469 Y55.53 E157.49278
G1 X42.135 Y48.314 E157.87657
G1 X45.521 Y41.391 E158.26106
G1 X49.592 Y34.837 E158.64599
G1 X54.274 Y28.769 E159.02836
G1 X59.582 Y23.163 E159.41352
G1 X65.4 Y18.148 E159.79674
G1 X71.715 Y13.727 E160.18133
G1 X77.01 Y10.77 E160.4839
