;FLAVOR:Marlin
;TIME:859
;Filament used: 0.345219m
;Layer height: 0.1
;MINX:100.1
;MINY:94.058
;MINZ:0.3
;MAXX:119.9
;MAXY:125.946
;MAXZ:3.2
;Generated with Cura_SteamEngine 4.8.0
M140 S60
M105
M190 S60
M104 S200
M105
M109 S200
M82 ;absolute extrusion mode
G28 ;Home
G1 Z15.0 F6000 ;Move the platform down 15mm
G1 X5 Y-5 F3000
;Prime the extruder
G92 E0
G1 Z2.0 F3000
G1 X15 Y3.5 Z0.3 F5000.0
G1 X175 Y3.5 Z0.3 F1500.0 E20
G1 X175 Y4.5 Z0.3 F5000.0
G1 X85 Y4.5 Z0.3 F1500.0 E30
M420 S1
G92 E0
G92 E0
G92 E0
G1 F1500 E-6.5
;LAYER_COUNT:30
;LAYER:0
M107
G0 F3600 X102.735 Y97.237 Z0.3
;TYPE:SKIRT
G1 F1500 E0
G1 F1350 X103.149 Y96.816 E0.02946
G1 X103.729 Y96.299 E0.06822
G1 X104.334 Y95.842 E0.10605
G1 X104.87 Y95.494 E0.13793
G1 X105.462 Y95.158 E0.17189
G1 X106.191 Y94.821 E0.21196
G1 X106.71 Y94.622 E0.23969
G1 X107.228 Y94.455 E0.26684
G1 X107.786 Y94.31 E0.29561
G1 X108.528 Y94.167 E0.33331
G1 X109.309 Y94.082 E0.3725
G1 X109.955 Y94.058 E0.40475
G1 X110.636 Y94.077 E0.43874
G1 X111.446 Y94.163 E0.47938
G1 X111.981 Y94.258 E0.50649
G1 X112.532 Y94.388 E0.53473
G1 X113.107 Y94.56 E0.56468
G1 X113.772 Y94.804 E0.60001
G1 X114.459 Y95.12 E0.63774
G1 X114.938 Y95.38 E0.66493
G1 X115.396 Y95.659 E0.69169
G1 X115.852 Y95.976 E0.71939
G1 X116.278 Y96.307 E0.74631
G1 X116.681 Y96.656 E0.77291
G1 X117.069 Y97.033 E0.7999
G1 X117.495 Y97.499 E0.8314
G1 X117.942 Y98.054 E0.86695
G1 X118.383 Y98.7 E0.90597
G1 X118.69 Y99.228 E0.93644
G1 X119.039 Y99.933 E0.97569
G1 X119.314 Y100.625 E1.01284
G1 X119.511 Y101.245 E1.0453
G1 X119.684 Y101.942 E1.08112
G1 X119.812 Y102.722 E1.12056
G1 X119.87 Y103.35 E1.15202
G1 X119.892 Y103.933 E1.18113
G1 X119.9 Y104.53 E1.21092
G1 X119.9 Y120.3 E1.99769
G1 X119.889 Y121.017 E2.03346
G1 X119.839 Y121.586 E2.06196
G1 X119.795 Y121.862 E2.0759
G1 X119.667 Y122.412 E2.10407
G1 X119.432 Y123.002 E2.13576
G1 X119.072 Y123.656 E2.173
G1 X118.749 Y124.12 E2.20121
G1 X118.364 Y124.533 E2.22938
G1 X117.844 Y124.953 E2.26273
G1 X117.604 Y125.122 E2.27737
G1 X117.12 Y125.414 E2.30557
G1 X116.6 Y125.634 E2.33374
G1 X115.965 Y125.802 E2.36651
G1 X115.75 Y125.845 E2.37745
G1 X115.05 Y125.922 E2.41258
G1 X113.867 Y125.946 E2.47162
G1 X105.746 Y125.946 E2.87677
G1 X105.028 Y125.935 E2.9126
G1 X104.457 Y125.885 E2.9412
G1 X104.182 Y125.841 E2.95509
G1 X103.632 Y125.712 E2.98327
G1 X103.009 Y125.46 E3.0168
G1 X102.567 Y125.224 E3.0418
G1 X102.361 Y125.099 E3.05382
G1 X101.9 Y124.772 E3.08202
G1 X101.489 Y124.384 E3.11022
G1 X101.095 Y123.893 E3.14163
G1 X100.927 Y123.655 E3.15616
G1 X100.635 Y123.171 E3.18436
G1 X100.413 Y122.651 E3.21257
G1 X100.239 Y121.988 E3.24677
G1 X100.193 Y121.75 E3.25886
G1 X100.121 Y121.068 E3.29307
G1 X100.1 Y119.951 E3.34881
G1 X100.1 Y104.596 E4.11488
G1 X100.111 Y103.829 E4.15315
G1 X100.153 Y103.053 E4.19192
G1 X100.236 Y102.394 E4.22505
G1 X100.373 Y101.682 E4.26123
G1 X100.576 Y100.953 E4.29898
G1 X100.797 Y100.332 E4.33187
G1 X101.097 Y99.644 E4.36931
G1 X101.455 Y98.971 E4.40734
G1 X101.772 Y98.462 E4.43726
G1 X102.222 Y97.839 E4.4756
G1 X102.735 Y97.237 E4.51506
G0 F3600 X103.036 Y97.501
G1 F1350 X103.421 Y97.11 E4.54244
G1 X103.976 Y96.613 E4.57961
G1 X104.571 Y96.165 E4.61676
G1 X105.072 Y95.839 E4.64659
G1 X105.64 Y95.517 E4.67916
G1 X106.353 Y95.186 E4.71838
G1 X106.845 Y94.999 E4.74464
G1 X107.35 Y94.836 E4.77111
G1 X107.868 Y94.702 E4.79781
G1 X108.58 Y94.564 E4.83399
G1 X109.346 Y94.48 E4.87243
G1 X109.949 Y94.458 E4.90254
G1 X110.603 Y94.476 E4.93518
G1 X111.397 Y94.56 E4.97501
G1 X111.903 Y94.651 E5.00066
G1 X112.438 Y94.777 E5.02808
G1 X112.975 Y94.937 E5.05604
G1 X113.613 Y95.171 E5.08994
G1 X114.286 Y95.481 E5.12691
G1 X114.742 Y95.728 E5.15278
G1 X115.185 Y95.999 E5.17869
G1 X115.618 Y96.3 E5.205
G1 X116.031 Y96.621 E5.23109
G1 X116.413 Y96.954 E5.25638
G1 X116.789 Y97.318 E5.28249
G1 X117.187 Y97.755 E5.31198
G1 X117.616 Y98.286 E5.34603
G1 X118.048 Y98.92 E5.38431
G1 X118.334 Y99.411 E5.41266
G1 X118.669 Y100.087 E5.4503
G1 X118.941 Y100.769 E5.48693
G1 X119.124 Y101.346 E5.51713
G1 X119.291 Y102.015 E5.55153
G1 X119.416 Y102.781 E5.59025
G1 X119.47 Y103.366 E5.61956
G1 X119.492 Y103.939 E5.64817
G1 X119.5 Y104.536 E5.67796
G1 X119.5 Y120.294 E6.46412
G1 X119.489 Y121.011 E6.4999
G1 X119.444 Y121.523 E6.52554
G1 X119.4 Y121.799 E6.53949
G1 X119.276 Y122.321 E6.56625
G1 X119.073 Y122.825 E6.59336
G1 X118.729 Y123.451 E6.629
G1 X118.421 Y123.89 E6.65575
G1 X117.853 Y124.444 E6.69534
G1 X117.374 Y124.794 E6.72493
G1 X116.913 Y125.07 E6.75174
G1 X116.417 Y125.274 E6.7785
G1 X115.887 Y125.41 E6.8058
G1 X115.672 Y125.453 E6.81673
G1 X115.041 Y125.522 E6.8484
G1 X113.867 Y125.546 E6.90699
G1 X105.752 Y125.546 E7.31184
G1 X105.034 Y125.535 E7.34767
G1 X104.52 Y125.49 E7.37341
G1 X104.245 Y125.446 E7.38731
G1 X103.723 Y125.322 E7.41407
G1 X103.189 Y125.103 E7.44287
G1 X102.568 Y124.757 E7.47833
G1 X102.132 Y124.445 E7.50508
G1 X101.604 Y123.902 E7.54287
G1 X101.254 Y123.424 E7.57243
G1 X100.978 Y122.964 E7.59919
G1 X100.774 Y122.468 E7.62595
G1 X100.631 Y121.912 E7.65459
G1 X100.585 Y121.674 E7.66668
G1 X100.521 Y121.06 E7.69748
G1 X100.5 Y119.951 E7.75282
G1 X100.5 Y104.601 E8.51863
G1 X100.511 Y103.834 E8.5569
G1 X100.552 Y103.08 E8.59457
G1 X100.629 Y102.464 E8.62555
G1 X100.761 Y101.781 E8.66025
G1 X100.96 Y101.066 E8.69728
G1 X101.166 Y100.486 E8.72799
G1 X101.453 Y99.826 E8.76389
G1 X101.806 Y99.164 E8.80132
G1 X102.099 Y98.693 E8.829
G1 X102.533 Y98.091 E8.86602
G1 X103.036 Y97.501 E8.9047
G0 F3600 X103.337 Y97.765
G1 F1350 X103.692 Y97.404 E8.92996
G1 X104.223 Y96.928 E8.96554
G1 X104.807 Y96.487 E9.00205
G1 X105.274 Y96.185 E9.02979
G1 X105.818 Y95.875 E9.06103
G1 X106.516 Y95.551 E9.09942
G1 X107.091 Y95.338 E9.13002
G1 X107.67 Y95.16 E9.16024
G1 X108.396 Y95 E9.19733
G1 X109.005 Y94.914 E9.22801
G1 X109.576 Y94.867 E9.25659
G1 X109.943 Y94.858 E9.27491
G1 X110.571 Y94.875 E9.30625
G1 X111.348 Y94.957 E9.34523
G1 X111.959 Y95.072 E9.37625
G1 X112.527 Y95.215 E9.40547
G1 X113.241 Y95.454 E9.44304
G1 X113.775 Y95.679 E9.47195
G1 X114.3 Y95.939 E9.50117
G1 X114.975 Y96.339 E9.54032
G1 X115.48 Y96.697 E9.5712
G1 X115.953 Y97.078 E9.6015
G1 X116.509 Y97.604 E9.63969
G1 X116.88 Y98.011 E9.66716
G1 X117.291 Y98.518 E9.69973
G1 X117.714 Y99.14 E9.73725
G1 X117.979 Y99.595 E9.76352
G1 X118.3 Y100.241 E9.79951
G1 X118.568 Y100.912 E9.83556
G1 X118.738 Y101.448 E9.86361
G1 X118.897 Y102.089 E9.89656
G1 X119.02 Y102.839 E9.93448
G1 X119.07 Y103.382 E9.96168
G1 X119.092 Y103.944 E9.98974
G1 X119.1 Y104.541 E10.01953
G1 X119.1 Y120.288 E10.80515
G1 X119.089 Y121.005 E10.84093
G1 X119.005 Y121.736 E10.87764
G1 X118.886 Y122.227 E10.90284
G1 X118.64 Y122.8 E10.93395
G1 X118.385 Y123.246 E10.95958
G1 X118.093 Y123.659 E10.98482
G1 X117.607 Y124.129 E11.01855
G1 X117.143 Y124.467 E11.04719
G1 X116.708 Y124.725 E11.07242
G1 X116.053 Y124.961 E11.10716
G1 X115.594 Y125.061 E11.13059
G1 X115.033 Y125.122 E11.15875
G1 X113.867 Y125.146 E11.21693
G1 X105.758 Y125.146 E11.62149
G1 X105.04 Y125.135 E11.65732
G1 X104.308 Y125.051 E11.69407
G1 X103.817 Y124.932 E11.71928
G1 X103.198 Y124.659 E11.75303
G1 X102.776 Y124.415 E11.77735
G1 X102.366 Y124.119 E11.80258
G1 X101.919 Y123.655 E11.83472
G1 X101.581 Y123.193 E11.86328
G1 X101.323 Y122.759 E11.88847
G1 X101.086 Y122.106 E11.92313
G1 X100.978 Y121.598 E11.94904
G1 X100.921 Y121.053 E11.97638
G1 X100.9 Y119.951 E12.03137
G1 X100.9 Y104.607 E12.79688
G1 X100.911 Y103.84 E12.83515
G1 X100.951 Y103.107 E12.87178
G1 X101.023 Y102.534 E12.90059
G1 X101.148 Y101.881 E12.93376
G1 X101.344 Y101.178 E12.97017
G1 X101.536 Y100.639 E12.99872
G1 X101.809 Y100.008 E13.03302
G1 X102.156 Y99.357 E13.06982
G1 X102.426 Y98.923 E13.09532
G1 X102.844 Y98.343 E13.13099
G1 X103.337 Y97.765 E13.16889
G1 F1500 E6.66889
;MESH:small_lock.stl
G0 F3600 X106.859 Y98.185
G0 X107.521 Y99.285
G0 X110.852 Y98.815
G0 X110.868 Y98.717
;TYPE:WALL-INNER
G1 F1500 E13.16889
G1 F1350 X111.405 Y98.837 E13.19634
G1 X111.962 Y99.024 E13.22565
G1 X112.488 Y99.268 E13.25458
G1 X112.97 Y99.557 E13.28262
G1 X113.434 Y99.909 E13.31168
G1 X113.845 Y100.299 E13.33994
G1 X114.22 Y100.741 E13.36886
G1 X114.538 Y101.21 E13.39713
G1 X114.81 Y101.722 E13.42606
G1 X115.022 Y102.255 E13.45468
G1 X115.177 Y102.812 E13.48352
G1 X115.267 Y103.367 E13.51157
G1 X115.3 Y103.957 E13.54105
G1 X115.3 Y120.898 E14.38624
G1 X115.276 Y121.052 E14.39402
G1 X115.187 Y121.205 E14.40285
G1 X115.058 Y121.299 E14.41081
G1 X114.836 Y121.346 E14.42213
G1 X105.148 Y121.346 E14.90547
G1 X104.994 Y121.322 E14.91325
G1 X104.843 Y121.234 E14.92196
G1 X104.746 Y121.101 E14.93018
G1 X104.7 Y120.883 E14.94129
G1 X104.7 Y103.957 E15.78573
G1 X104.733 Y103.367 E15.81522
G1 X104.823 Y102.812 E15.84327
G1 X104.978 Y102.255 E15.87211
G1 X105.19 Y101.722 E15.90073
G1 X105.462 Y101.21 E15.92965
G1 X105.78 Y100.741 E15.95792
G1 X106.155 Y100.299 E15.98684
G1 X106.566 Y99.909 E16.01511
G1 X107.03 Y99.557 E16.04417
G1 X107.512 Y99.268 E16.0722
G1 X108.038 Y99.024 E16.10113
G1 X108.595 Y98.837 E16.13045
G1 X109.132 Y98.717 E16.1579
G1 X109.718 Y98.654 E16.1873
G1 X110.282 Y98.654 E16.21544
G1 X110.868 Y98.717 E16.24484
G0 F3600 X110.852 Y98.815
G0 X111.798 Y101.294
G0 X111.742 Y101.376
G1 F1350 X111.147 Y101.062 E16.27841
G1 X110.502 Y100.884 E16.31179
G1 X109.833 Y100.846 E16.34522
G1 X109.169 Y100.955 E16.37879
G1 X108.546 Y101.204 E16.41226
G1 X107.991 Y101.58 E16.44571
G1 X107.53 Y102.067 E16.47916
G1 X107.183 Y102.642 E16.51267
G1 X106.969 Y103.279 E16.5462
G1 X106.897 Y103.946 E16.57967
G1 X106.969 Y104.612 E16.61309
G1 X107.183 Y105.249 E16.64661
G1 X107.53 Y105.825 E16.68016
G1 X107.992 Y106.311 E16.71361
G1 X108.546 Y106.687 E16.74702
G1 X109.169 Y106.937 E16.78051
G1 X109.832 Y107.045 E16.81402
G1 X110.502 Y107.009 E16.8475
G1 X111.148 Y106.829 E16.88095
G1 X111.742 Y106.515 E16.91447
G1 X112.253 Y106.08 E16.94795
G1 X112.659 Y105.547 E16.98138
G1 X112.941 Y104.936 E17.01495
G1 X113.085 Y104.281 E17.04841
G1 X113.085 Y103.61 E17.08189
G1 X112.941 Y102.954 E17.1154
G1 X112.659 Y102.345 E17.14888
G1 X112.253 Y101.812 E17.18231
G1 X111.742 Y101.376 E17.21582
G0 F3600 X111.798 Y101.294
G0 X109.882 Y100.75
G0 X109.854 Y101.248
;TYPE:WALL-OUTER
G1 F1350 X109.277 Y101.343 E17.24499
G1 X108.735 Y101.559 E17.2741
G1 X108.252 Y101.887 E17.30323
G1 X107.85 Y102.311 E17.33238
G1 X107.548 Y102.811 E17.36152
G1 X107.362 Y103.365 E17.39068
G1 X107.299 Y103.946 E17.41983
G1 X107.362 Y104.526 E17.44894
G1 X107.548 Y105.08 E17.4781
G1 X107.85 Y105.581 E17.50728
G1 X108.252 Y106.004 E17.53639
G1 X108.735 Y106.332 E17.56552
G1 X109.277 Y106.549 E17.59465
G1 X109.854 Y106.643 E17.62382
G1 X110.437 Y106.612 E17.65294
G1 X110.999 Y106.455 E17.68205
G1 X111.516 Y106.182 E17.71122
G1 X111.961 Y105.803 E17.74038
G1 X112.314 Y105.339 E17.76947
G1 X112.56 Y104.808 E17.79867
G1 X112.685 Y104.238 E17.82778
G1 X112.685 Y103.653 E17.85697
G1 X112.56 Y103.083 E17.88608
G1 X112.314 Y102.553 E17.91523
G1 X111.961 Y102.088 E17.94436
G1 X111.516 Y101.709 E17.97352
G1 X110.999 Y101.436 E18.00269
G1 X110.437 Y101.281 E18.03177
G1 X109.854 Y101.248 E18.06091
G0 F3600 X109.657 Y101.28
G0 X109.577 Y100.787
G0 X110.852 Y98.815
G0 X110.927 Y98.321
G1 F1350 X111.517 Y98.452 E18.09106
G1 X112.11 Y98.652 E18.12228
G1 X112.677 Y98.914 E18.15344
G1 X113.197 Y99.227 E18.18372
G1 X113.688 Y99.599 E18.21445
G1 X114.139 Y100.027 E18.24547
G1 X114.536 Y100.495 E18.27609
G1 X114.882 Y101.006 E18.30688
G1 X115.174 Y101.554 E18.33786
G1 X115.4 Y102.124 E18.36845
G1 X115.569 Y102.731 E18.39989
G1 X115.665 Y103.319 E18.42961
G1 X115.7 Y103.957 E18.46149
G1 X115.7 Y120.928 E19.30817
G1 X115.659 Y121.189 E19.32135
G1 X115.492 Y121.477 E19.33796
G1 X115.224 Y121.672 E19.3545
G1 X114.877 Y121.746 E19.3722
G1 X105.118 Y121.746 E19.85908
G1 X104.857 Y121.705 E19.87226
G1 X104.569 Y121.538 E19.88887
G1 X104.373 Y121.268 E19.90551
G1 X104.3 Y120.924 E19.92306
G1 X104.3 Y103.957 E20.76955
G1 X104.335 Y103.319 E20.80142
G1 X104.431 Y102.731 E20.83115
G1 X104.6 Y102.124 E20.86258
G1 X104.826 Y101.554 E20.89317
G1 X105.118 Y101.006 E20.92415
G1 X105.464 Y100.495 E20.95494
G1 X105.861 Y100.027 E20.98556
G1 X106.312 Y99.599 E21.01658
G1 X106.803 Y99.227 E21.04731
G1 X107.323 Y98.914 E21.07759
G1 X107.89 Y98.652 E21.10875
G1 X108.483 Y98.452 E21.13998
G1 X109.073 Y98.321 E21.17013
G1 X109.694 Y98.254 E21.20129
G1 X110.306 Y98.254 E21.23182
G1 X110.927 Y98.321 E21.26298
G0 F3600 X111.122 Y98.364
G0 X110.809 Y99.103
;TYPE:SKIN
G1 F1350 X111.295 Y99.212 E21.28783
G1 X111.826 Y99.39 E21.31577
G1 X112.292 Y99.606 E21.3414
G1 X112.759 Y99.887 E21.36859
G1 X113.176 Y100.202 E21.39466
G1 X113.563 Y100.569 E21.42127
G1 X113.913 Y100.981 E21.44824
G1 X114.197 Y101.401 E21.47354
G1 X114.455 Y101.886 E21.50094
G1 X114.652 Y102.381 E21.52752
G1 X114.797 Y102.903 E21.55455
G1 X114.878 Y103.399 E21.57962
G1 X114.91 Y103.979 E21.6086
G1 X114.91 Y120.861 E22.45085
G1 X114.892 Y120.935 E22.45465
G1 X114.794 Y120.956 E22.45965
G1 X105.182 Y120.956 E22.9392
G1 X105.111 Y120.938 E22.94285
G1 X105.09 Y120.841 E22.9478
G1 X105.09 Y103.979 E23.78905
G1 X105.122 Y103.399 E23.81803
G1 X105.203 Y102.903 E23.8431
G1 X105.348 Y102.381 E23.87013
G1 X105.545 Y101.886 E23.89671
G1 X105.803 Y101.401 E23.92412
G1 X106.087 Y100.981 E23.94941
G1 X106.437 Y100.569 E23.97638
G1 X106.824 Y100.202 E24.00299
G1 X107.241 Y99.887 E24.02907
G1 X107.708 Y99.606 E24.05626
G1 X108.174 Y99.39 E24.08188
G1 X108.705 Y99.212 E24.10982
G1 X109.191 Y99.103 E24.13467
G1 X109.741 Y99.044 E24.16227
G1 X110.259 Y99.044 E24.18811
G1 X110.809 Y99.103 E24.21571
G0 F3600 X110.566 Y100.497
G1 F1350 X109.812 Y100.454 E24.25339
G1 X109.064 Y100.577 E24.29121
G1 X108.362 Y100.857 E24.32891
G1 X107.737 Y101.281 E24.36659
G1 X107.218 Y101.829 E24.40425
G1 X106.827 Y102.477 E24.44201
G1 X106.585 Y103.195 E24.47981
G1 X106.505 Y103.946 E24.51749
G1 X106.585 Y104.696 E24.55512
G1 X106.827 Y105.413 E24.59287
G1 X107.218 Y106.063 E24.63071
G1 X107.738 Y106.61 E24.66837
G1 X108.362 Y107.034 E24.706
G1 X109.064 Y107.315 E24.74373
G1 X109.811 Y107.437 E24.78149
G1 X110.566 Y107.397 E24.81921
G1 X111.293 Y107.194 E24.85687
G1 X111.962 Y106.84 E24.89463
G1 X112.538 Y106.349 E24.93239
G1 X112.995 Y105.75 E24.96998
G1 X113.313 Y105.061 E25.00784
G1 X113.475 Y104.324 E25.04548
G1 X113.475 Y103.567 E25.08325
G1 X113.313 Y102.829 E25.12095
G1 X112.995 Y102.142 E25.15872
G1 X112.538 Y101.543 E25.1963
G1 X111.962 Y101.051 E25.2341
G1 X111.291 Y100.697 E25.27195
G1 X110.566 Y100.497 E25.30947
G0 F3600 X114.157 Y101.712
G1 F1350 X112.214 Y99.769 E25.44656
G1 X112.144 Y99.699
G0 F3600 X111.276 Y99.397
G1 F1350 X114.542 Y102.663 E25.67699
G0 F3600 X114.693 Y103.379
G1 F1350 X110.573 Y99.259 E25.96768
G0 F3600 X109.972 Y99.224
G1 F1350 X111.245 Y100.497 E26.0575
G0 F3600 X110.494 Y100.312
G1 F1350 X109.439 Y99.257 E26.13193
G0 F3600 X108.957 Y99.34
G1 F1350 X109.895 Y100.278 E26.19811
G0 F3600 X109.391 Y100.34
G1 F1350 X108.516 Y99.465 E26.25985
G0 F3600 X108.104 Y99.619
G1 F1350 X108.924 Y100.438 E26.31767
G0 F3600 X108.519 Y100.6
G1 F1350 X107.724 Y99.804 E26.3738
G0 F3600 X107.371 Y100.017
G1 F1350 X108.142 Y100.788 E26.42819
G0 F3600 X107.804 Y101.016
G1 F1350 X107.047 Y100.259 E26.4816
G0 F3600 X106.746 Y100.523
G1 F1350 X107.496 Y101.273 E26.53452
G0 F3600 X107.221 Y101.564
G1 F1350 X106.465 Y100.808 E26.58786
G0 F3600 X106.209 Y101.118
G1 F1350 X106.974 Y101.883 E26.64184
G0 F3600 X106.761 Y102.235
G1 F1350 X105.981 Y101.456 E26.69683
G0 F3600 X105.782 Y101.822
G1 F1350 X106.585 Y102.625 E26.75349
G0 F3600 X106.442 Y103.048
G1 F1350 X105.607 Y102.213 E26.8124
G0 F3600 X105.463 Y102.635
G1 F1350 X106.366 Y103.538 E26.87612
G0 F3600 X106.336 Y104.074
G1 F1350 X105.352 Y103.089 E26.94558
G0 F3600 X105.291 Y103.593
G1 F1350 X106.404 Y104.706 E27.02411
G1 X106.474 Y104.776
G0 F3600 X106.722 Y105.59
G1 F1350 X105.269 Y104.137 E27.12662
G0 F3600 X105.269 Y104.703
G1 F1350 X114.729 Y114.163 E27.79408
G0 F3600 X114.729 Y113.598
G1 F1350 X108.357 Y107.226 E28.24366
G1 X108.287 Y107.156
G0 F3600 X109.22 Y107.523
G1 F1350 X114.729 Y113.032 E28.63235
