;FLAVOR:Marlin
;TIME:2066
;Filament used: 1.27387m
;Layer height: 0.1
;MINX:90.355
;MINY:56.607
;MINZ:0.3
;MAXX:160.864
;MAXY:153.783
;MAXZ:1
;Generated with Cura_SteamEngine 4.8.0
M140 S60
M105
M190 S60
M104 S200
M105
M109 S200
M82 ;absolute extrusion mode
G28 ;Home
G1 Z15.0 F6000 ;Move the platform down 15mm
G1 X5 Y-5 F3000
;Prime the extruder
G92 E0
G1 Z2.0 F3000
G1 X15 Y3.5 Z0.3 F5000.0
G1 X175 Y3.5 Z0.3 F1500.0 E20
G1 X175 Y4.5 Z0.3 F5000.0
G1 X85 Y4.5 Z0.3 F1500.0 E30
M420 S1
G92 E0
G92 E0
G92 E0
G1 F1500 E-6.5
;LAYER_COUNT:8
;LAYER:0
M107
G0 F3600 X90.848 Y71.152 Z0.3
;TYPE:SKIRT
G1 F1500 E0
G1 F1800 X91.258 Y70.634 E0.03296
G1 X91.532 Y70.355 E0.05247
G1 X104.444 Y57.93 E0.94646
G1 X104.935 Y57.47 E0.98003
G1 X105.33 Y57.154 E1.00527
G1 X105.77 Y56.905 E1.03049
G1 X106.244 Y56.728 E1.05573
G1 X106.739 Y56.628 E1.08093
G1 X107.244 Y56.607 E1.10614
G1 X107.747 Y56.666 E1.13141
G1 X108.233 Y56.804 E1.15662
G1 X108.472 Y56.903 E1.16952
G1 X109.04 Y57.167 E1.20077
G1 X111.523 Y58.282 E1.33657
G1 X114.066 Y59.338 E1.47394
G1 X116.647 Y60.326 E1.61182
G1 X119.221 Y61.226 E1.74786
G1 X121.82 Y62.054 E1.88395
G1 X124.439 Y62.808 E2.01992
G1 X127.103 Y63.494 E2.15716
G1 X129.775 Y64.103 E2.29388
G1 X132.46 Y64.634 E2.43043
G1 X135.156 Y65.09 E2.56685
G1 X137.867 Y65.468 E2.70341
G1 X140.584 Y65.771 E2.8398
G1 X143.318 Y65.996 E2.97666
G1 X146.036 Y66.143 E3.11246
G1 X148.788 Y66.214 E3.24981
G1 X150.456 Y66.208 E3.33302
G1 X151.232 Y66.215 E3.37174
G1 X151.735 Y66.26 E3.39693
G1 X152.226 Y66.383 E3.42219
G1 X152.691 Y66.582 E3.44742
G1 X153.118 Y66.851 E3.4726
G1 X153.498 Y67.185 E3.49784
G1 X153.821 Y67.574 E3.52306
G1 X154.153 Y68.175 E3.55732
G1 X154.514 Y69.035 E3.60385
G1 X156.693 Y74.467 E3.89585
G1 X156.95 Y75.135 E3.93155
G1 X157.168 Y75.829 E3.96785
G1 X158.875 Y81.873 E4.28118
G1 X159.057 Y82.558 E4.31654
G1 X159.22 Y83.363 E4.35752
G1 X160.26 Y89.485 E4.66732
G1 X160.371 Y90.195 E4.70317
G1 X160.444 Y90.999 E4.74345
G1 X160.828 Y97.168 E5.05182
G1 X160.864 Y97.923 E5.08953
G1 X160.852 Y98.722 E5.12939
G1 X160.577 Y104.884 E5.43712
G1 X160.531 Y105.669 E5.47635
G1 X160.433 Y106.463 E5.51627
G1 X159.506 Y112.559 E5.82389
G1 X159.383 Y113.301 E5.86142
G1 X159.332 Y113.547 E5.87395
G1 X159.18 Y114.16 E5.90546
G1 X157.607 Y120.132 E6.21357
G1 X157.419 Y120.805 E6.24843
G1 X157.144 Y121.591 E6.28997
G1 X154.952 Y127.34 E6.59693
G1 X154.675 Y128.037 E6.63435
G1 X154.302 Y128.822 E6.67771
G1 X151.514 Y134.303 E6.9845
G1 X151.183 Y134.933 E7.02001
G1 X150.78 Y135.595 E7.05867
G1 X147.366 Y140.837 E7.37077
G1 X146.97 Y141.427 E7.40622
G1 X146.483 Y142.062 E7.44615
G1 X142.566 Y146.868 E7.75547
G1 X142.084 Y147.442 E7.79286
G1 X141.569 Y147.985 E7.8302
G1 X137.081 Y152.432 E8.14541
G1 X136.602 Y152.892 E8.17854
G1 X136.21 Y153.212 E8.20379
G1 X135.774 Y153.467 E8.22899
G1 X135.302 Y153.65 E8.25424
G1 X134.808 Y153.756 E8.27945
G1 X134.303 Y153.783 E8.30468
G1 X133.765 Y153.723 E8.33169
G1 X133.119 Y153.595 E8.36454
G1 X131.637 Y153.281 E8.44012
G1 X128.923 Y152.785 E8.57777
G1 X126.196 Y152.366 E8.71542
G1 X123.504 Y152.03 E8.85076
G1 X120.791 Y151.769 E8.98674
G1 X118.049 Y151.583 E9.12385
G1 X115.295 Y151.475 E9.26136
G1 X114.51 Y151.466 E9.30052
G1 X113.48 Y151.439 E9.35193
G1 X112.977 Y151.386 E9.37716
G1 X112.489 Y151.254 E9.40238
G1 X111.938 Y150.996 E9.43273
G1 X111.586 Y150.786 E9.45318
G1 X96.461 Y141.167 E10.34745
G1 X95.898 Y140.798 E10.38103
G1 X95.498 Y140.489 E10.40625
G1 X95.152 Y140.12 E10.43148
G1 X94.869 Y139.701 E10.45671
G1 X94.582 Y139.025 E10.49335
G1 X94.473 Y138.513 E10.51946
G1 X94.448 Y138.008 E10.54469
G1 X94.55 Y137.3 E10.58038
G1 X94.857 Y136.12 E10.64121
G1 X94.93 Y135.855 E10.65492
G1 X95.598 Y133.138 E10.79451
G1 X96.172 Y130.486 E10.92988
G1 X96.667 Y127.82 E11.06516
G1 X97.091 Y125.124 E11.20132
G1 X97.444 Y122.381 E11.3393
G1 X97.713 Y119.681 E11.47467
G1 X97.909 Y116.934 E11.61206
G1 X98.025 Y114.22 E11.74759
G1 X98.066 Y111.465 E11.88505
G1 X98.028 Y108.712 E12.02241
G1 X97.915 Y105.991 E12.15828
G1 X97.722 Y103.252 E12.29527
G1 X97.455 Y100.545 E12.43098
G1 X97.111 Y97.849 E12.56657
G1 X96.683 Y95.113 E12.70473
G1 X96.185 Y92.424 E12.84117
G1 X95.61 Y89.746 E12.97782
G1 X94.962 Y87.093 E13.11407
G1 X94.241 Y84.472 E13.24969
G1 X93.433 Y81.827 E13.38767
G1 X92.561 Y79.234 E13.52415
G1 X91.614 Y76.663 E13.66084
G1 X90.961 Y75.013 E13.74937
G1 X90.579 Y74.063 E13.80046
G1 X90.428 Y73.581 E13.82566
G1 X90.355 Y73.081 E13.85087
G1 X90.362 Y72.575 E13.87611
G1 X90.448 Y72.077 E13.90133
G1 X90.611 Y71.598 E13.92657
G1 X90.848 Y71.152 E13.95177
G1 F1500 E7.45177
;MESH:cover1.stl
G0 F3600 X104.497 Y123.41
G0 X105.721 Y123.806
G0 X103.799 Y128.998
G0 X103.708 Y128.957
;TYPE:WALL-INNER
G1 F1500 E13.95177
G1 F1800 X105.702 Y123.8 E14.22761
G1 X107.129 Y118.458 E14.50347
G1 X107.973 Y112.995 E14.77926
G1 X108.223 Y107.47 E15.05518
G1 X107.876 Y101.952 E15.33102
G1 X106.937 Y96.503 E15.60688
G1 X105.416 Y91.188 E15.88269
G1 X103.331 Y86.067 E16.15854
G1 X100.707 Y81.2 E16.4344
G1 X97.574 Y76.645 E16.71021
G1 X94.359 Y72.908 E16.95615
G1 X106.93 Y60.811 E17.82655
G1 X106.931 Y60.81 E17.82662
G1 X107.082 Y60.665 E17.83706
G1 X107.219 Y60.824 E17.84372
G1 X111.468 Y65.749 E18.16824
G1 X115.632 Y71.765 E18.53326
G1 X119.134 Y78.188 E18.89824
G1 X121.94 Y84.957 E19.26381
G1 X124.009 Y91.973 E19.62875
G1 X125.325 Y99.189 E19.99469
G1 X125.865 Y106.467 E20.35879
G1 X125.63 Y113.793 E20.72447
G1 X124.62 Y121.035 E21.08928
G1 X122.85 Y128.128 E21.454
G1 X120.327 Y135.018 E21.82006
G1 X117.102 Y141.573 E22.18453
G1 X113.504 Y147.267 E22.52057
G1 X113.398 Y147.436 E22.53052
G1 X113.23 Y147.329 E22.53694
G1 X98.642 Y138.05 E23.39949
G1 X98.471 Y137.942 E23.40958
G1 X98.583 Y137.773 E23.41608
G1 X101.169 Y133.869 E23.6497
G1 X103.708 Y128.957 E23.92556
G0 F3600 X103.343 Y128.793
;TYPE:WALL-OUTER
G1 F1800 X105.321 Y123.676 E24.19926
G1 X106.737 Y118.376 E24.47295
G1 X107.574 Y112.955 E24.74661
G1 X107.822 Y107.474 E25.02034
G1 X107.478 Y101.999 E25.29403
G1 X106.546 Y96.592 E25.56776
G1 X105.037 Y91.319 E25.8414
G1 X102.969 Y86.238 E26.11508
G1 X100.365 Y81.409 E26.38879
G1 X97.257 Y76.889 E26.66246
G1 X93.809 Y72.882 E26.9262
G1 X106.957 Y60.23 E27.83653
G1 X106.958 Y60.229 E27.8366
G1 X107.109 Y60.084 E27.84705
G1 X107.246 Y60.243 E27.85371
G1 X111.787 Y65.507 E28.20055
G1 X115.97 Y71.549 E28.56717
G1 X119.499 Y78.022 E28.93499
G1 X122.318 Y84.822 E29.30224
G1 X124.4 Y91.882 E29.66946
G1 X125.722 Y99.134 E30.03723
G1 X126.266 Y106.459 E30.40368
G1 X126.029 Y113.823 E30.77126
G1 X125.013 Y121.113 E31.13847
G1 X123.232 Y128.251 E31.50551
G1 X120.697 Y135.173 E31.87328
G1 X117.453 Y141.767 E32.23991
G1 X113.628 Y147.82 E32.59714
G1 X113.522 Y147.989 E32.60709
G1 X113.354 Y147.882 E32.61351
G1 X98.083 Y138.17 E33.5164
G1 X97.912 Y138.062 E33.52649
G1 X98.024 Y137.893 E33.53299
G1 X100.824 Y133.666 E33.78595
G1 X103.343 Y128.793 E34.05962
G0 F3600 X103.415 Y128.607
G0 X104.065 Y129.117
;TYPE:SKIN
G1 F1800 X106.073 Y123.921 E34.33754
G1 X107.511 Y118.538 E34.61551
G1 X108.361 Y113.034 E34.89336
G1 X108.613 Y107.466 E35.17144
G1 X108.264 Y101.907 E35.44932
G1 X107.317 Y96.416 E35.72731
G1 X105.785 Y91.061 E36.00519
G1 X103.684 Y85.901 E36.28315
G1 X101.04 Y80.997 E36.56111
G1 X97.884 Y76.407 E36.83901
G1 X94.895 Y72.933 E37.06765
G1 X107.056 Y61.232 E37.9096
G1 X111.162 Y65.992 E38.22323
G1 X115.292 Y71.957 E38.58519
G1 X118.78 Y78.354 E38.9487
G1 X121.575 Y85.098 E39.31291
G1 X123.628 Y92.062 E39.67513
G1 X124.94 Y99.254 E40.03986
G1 X125.475 Y106.46 E40.40036
G1 X125.24 Y113.764 E40.76494
G1 X124.236 Y120.963 E41.12758
G1 X122.478 Y128.012 E41.49003
G1 X119.966 Y134.87 E41.8544
G1 X116.766 Y141.375 E42.21608
G1 X113.277 Y146.898 E42.542
G1 X99.015 Y137.827 E43.38526
G1 X101.506 Y134.066 E43.61032
G1 X104.065 Y129.117 E43.88828
G0 F3600 X99.282 Y137.748
G1 F1800 X99.378 Y137.844 E43.89505
G0 F3600 X99.506 Y137.407
G1 F1800 X100.932 Y138.833 E43.99567
G1 X101.002 Y138.903
G0 F3600 X102.485 Y139.821
G1 F1800 X99.732 Y137.067 E44.18994
G0 F3600 X99.958 Y136.727
G1 F1800 X104.04 Y140.809 E44.47795
G1 X104.11 Y140.879
G0 F3600 X105.594 Y141.798
G1 F1800 X100.183 Y136.387 E44.85972
G0 F3600 X100.408 Y136.046
G1 F1800 X107.148 Y142.786 E45.33527
G1 X107.218 Y142.856
G0 F3600 X108.702 Y143.774
G1 F1800 X100.634 Y135.706 E45.90451
G0 F3600 X100.859 Y135.366
G1 F1800 X110.256 Y144.763 E46.56752
G1 X110.326 Y144.833
G0 F3600 X111.81 Y145.751
G1 F1800 X101.085 Y135.026 E47.32422
G0 F3600 X101.31 Y134.685
G1 F1800 X113.241 Y146.617 E48.16606
G0 F3600 X113.46 Y146.27
G1 F1800 X101.535 Y134.345 E49.00743
G0 F3600 X101.746 Y133.99
G1 F1800 X113.68 Y145.924 E49.84944
G0 F3600 X113.898 Y145.577
G1 F1800 X101.939 Y133.617 E50.69324
G0 F3600 X102.132 Y133.245
G1 F1800 X114.117 Y145.23 E51.53885
G0 F3600 X114.337 Y144.884
G1 F1800 X102.324 Y132.871 E52.38643
G0 F3600 X102.517 Y132.499
G1 F1800 X114.555 Y144.536 E53.23574
G0 F3600 X114.774 Y144.19
G1 F1800 X102.71 Y132.126 E54.08692
G0 F3600 X102.903 Y131.753
G1 F1800 X114.993 Y143.843 E54.93994
G0 F3600 X115.212 Y143.496
G1 F1800 X103.096 Y131.38 E55.79479
G0 F3600 X103.289 Y131.007
G1 F1800 X115.431 Y143.15 E56.65151
G0 F3600 X115.65 Y142.803
G1 F1800 X103.481 Y130.634 E57.5101
G0 F3600 X103.674 Y130.261
G1 F1800 X115.869 Y142.456 E58.37052
G0 F3600 X116.088 Y142.11
G1 F1800 X103.867 Y129.889 E59.23278
G0 F3600 X104.059 Y129.515
G1 F1800 X116.307 Y141.763 E60.09694
G0 F3600 X116.526 Y141.416
G1 F1800 X104.248 Y129.138 E60.96322
G0 F3600 X104.406 Y128.73
G1 F1800 X116.725 Y141.05 E61.83242
G0 F3600 X116.912 Y140.671
G1 F1800 X104.564 Y128.322 E62.70368
G0 F3600 X104.721 Y127.914
G1 F1800 X117.099 Y140.292 E63.57701
G0 F3600 X117.284 Y139.912
G1 F1800 X104.879 Y127.506 E64.45229
G0 F3600 X105.037 Y127.098
G1 F1800 X117.471 Y139.533 E65.32961
G0 F3600 X117.658 Y139.154
G1 F1800 X105.194 Y126.69 E66.20901
G0 F3600 X105.352 Y126.282
G1 F1800 X117.845 Y138.775 E67.09046
G0 F3600 X118.031 Y138.396
G1 F1800 X105.51 Y125.874 E67.97392
G0 F3600 X105.667 Y125.466
G1 F1800 X118.217 Y138.016 E68.85939
G0 F3600 X118.404 Y137.637
G1 F1800 X105.825 Y125.058 E69.74691
G0 F3600 X105.982 Y124.65
G1 F1800 X118.59 Y137.258 E70.63647
G0 F3600 X118.777 Y136.879
G1 F1800 X106.14 Y124.242 E71.52808
G0 F3600 X106.285 Y123.821
G1 F1800 X118.963 Y136.499 E72.42258
G0 F3600 X119.15 Y136.12
G1 F1800 X106.404 Y123.374 E73.32188
G0 F3600 X106.523 Y122.928
G1 F1800 X119.336 Y135.741 E74.2259
G0 F3600 X119.523 Y135.362
G1 F1800 X106.643 Y122.482 E75.13466
G0 F3600 X106.762 Y122.036
G1 F1800 X119.71 Y134.983 E76.04817
G0 F3600 X119.877 Y134.585
G1 F1800 X106.881 Y121.589 E76.96511
G0 F3600 X107 Y121.142
G1 F1800 X120.029 Y134.172 E77.88441
G0 F3600 X120.181 Y133.757
G1 F1800 X107.12 Y120.696 E78.80594
G0 F3600 X107.239 Y120.249
G1 F1800 X120.333 Y133.344 E79.72983
G0 F3600 X120.484 Y132.929
G1 F1800 X107.358 Y119.803 E80.65594
G0 F3600 X107.478 Y119.357
G1 F1800 X120.636 Y132.516 E81.58434
G0 F3600 X120.787 Y132.101
G1 F1800 X107.597 Y118.911 E82.51496
G0 F3600 X107.705 Y118.453
G1 F1800 X120.94 Y131.688 E83.44877
G0 F3600 X121.091 Y131.273
G1 F1800 X107.781 Y117.963 E84.38786
G0 F3600 X107.857 Y117.473
G1 F1800 X121.243 Y130.86 E85.33235
G0 F3600 X121.394 Y130.445
G1 F1800 X107.932 Y116.983 E86.28216
G0 F3600 X108.008 Y116.493
G1 F1800 X121.546 Y130.031 E87.23734
G0 F3600 X121.698 Y129.617
G1 F1800 X108.084 Y116.003 E88.19788
G0 F3600 X108.159 Y115.513
G1 F1800 X121.85 Y129.203 E89.16382
G0 F3600 X122.001 Y128.789
G1 F1800 X108.235 Y115.023 E90.13509
G0 F3600 X108.311 Y114.533
G1 F1800 X122.153 Y128.375 E91.11172
G0 F3600 X122.304 Y127.961
G1 F1800 X108.386 Y114.043 E92.09371
G0 F3600 X108.462 Y113.553
G1 F1800 X122.418 Y127.509 E93.07838
G0 F3600 X122.53 Y127.056
G1 F1800 X108.538 Y113.063 E94.06562
G0 F3600 X108.563 Y112.523
G1 F1800 X122.644 Y126.603 E95.05908
G0 F3600 X122.757 Y126.151
G1 F1800 X108.588 Y111.982 E96.05878
G0 F3600 X108.612 Y111.44
G1 F1800 X122.869 Y125.698 E97.06472
G0 F3600 X122.982 Y125.245
G1 F1800 X108.637 Y110.899 E98.07688
G0 F3600 X108.661 Y110.358
G1 F1800 X123.095 Y124.793 E99.09531
G0 F3600 X123.208 Y124.339
G1 F1800 X108.685 Y109.817 E100.11995
G0 F3600 X108.71 Y109.276
G1 F1800 X123.321 Y123.887 E101.15083
G0 F3600 X123.434 Y123.434
G1 F1800 X108.734 Y108.734 E102.188
G0 F3600 X108.759 Y108.193
G1 F1800 X123.547 Y122.981 E103.23137
G0 F3600 X123.66 Y122.528
G1 F1800 X108.783 Y107.652 E104.28099
G0 F3600 X108.767 Y107.07
G1 F1800 X123.773 Y122.076 E105.33974
G0 F3600 X123.885 Y121.623
G1 F1800 X108.729 Y106.466 E106.40912
G0 F3600 X108.692 Y105.863
G1 F1800 X123.998 Y121.17 E107.48907
G0 F3600 X124.091 Y120.697
G1 F1800 X108.654 Y105.259 E108.57827
G0 F3600 X108.615 Y104.656
G1 F1800 X124.16 Y120.2 E109.67502
G0 F3600 X124.229 Y119.703
G1 F1800 X108.578 Y104.052 E110.77928
G0 F3600 X108.54 Y103.449
G1 F1800 X124.298 Y119.207 E111.89109
G0 F3600 X124.368 Y118.711
G1 F1800 X108.502 Y102.845 E113.01053
G0 F3600 X108.464 Y102.241
G1 F1800 X124.437 Y118.214 E114.13751
G0 F3600 X124.506 Y117.718
G1 F1800 X108.393 Y101.605 E115.27437
G0 F3600 X108.276 Y100.922
G1 F1800 X124.575 Y117.222 E116.42438
G0 F3600 X124.645 Y116.725
G1 F1800 X108.158 Y100.238 E117.58763
G0 F3600 X108.04 Y99.554
G1 F1800 X124.714 Y116.229 E118.76411
G0 F3600 X124.783 Y115.732
G1 F1800 X107.922 Y98.871 E119.95374
G0 F3600 X107.804 Y98.187
G1 F1800 X124.853 Y115.236 E121.15664
G0 F3600 X124.921 Y114.739
G1 F1800 X107.685 Y97.503 E122.37273
G0 F3600 X107.567 Y96.819
G1 F1800 X124.991 Y114.242 E123.60206
G0 F3600 X125.06 Y113.746
G1 F1800 X107.412 Y96.098 E124.84722
G1 X107.342 Y96.028
G0 F3600 X107.185 Y95.305
G1 F1800 X125.077 Y113.198 E126.10963
G0 F3600 X125.095 Y112.65
G1 F1800 X106.959 Y94.514 E127.38922
G1 X106.889 Y94.444
G0 F3600 X106.732 Y93.721
G1 F1800 X125.113 Y112.102 E128.6861
G0 F3600 X125.13 Y111.553
G1 F1800 X106.505 Y92.929 E130.00016
G1 X106.435 Y92.859
G0 F3600 X106.278 Y92.136
G1 F1800 X125.148 Y111.005 E131.33151
G0 F3600 X125.165 Y110.457
G1 F1800 X106.051 Y91.344 E132.68007
G1 X105.981 Y91.274
G0 F3600 X105.731 Y90.458
G1 F1800 X125.183 Y109.909 E134.05247
G0 F3600 X125.201 Y109.361
G1 F1800 X105.343 Y89.504 E135.45353
G1 X105.273 Y89.434
G0 F3600 X104.954 Y88.549
G1 F1800 X125.218 Y108.813 E136.88326
G0 F3600 X125.236 Y108.265
G1 F1800 X104.566 Y87.595 E138.34164
G1 X104.496 Y87.525
G0 F3600 X104.178 Y86.641
G1 F1800 X125.254 Y107.717 E139.82867
G0 F3600 X125.271 Y107.169
G1 F1800 X103.75 Y85.648 E141.34709
G1 X103.68 Y85.578
G0 F3600 X103.089 Y84.421
G1 F1800 X125.289 Y106.621 E142.91342
G0 F3600 X125.262 Y106.029
G1 F1800 X102.427 Y83.193 E144.52459
G1 X102.357 Y83.123
G0 F3600 X101.765 Y81.966
G1 F1800 X125.217 Y105.418 E146.17926
G0 F3600 X125.172 Y104.807
G1 F1800 X101.027 Y80.662 E147.88282
G1 X100.957 Y80.592
G0 F3600 X99.783 Y78.853
G1 F1800 X125.126 Y104.196 E149.6709
G0 F3600 X125.081 Y103.585
G1 F1800 X98.54 Y77.044 E151.54351
G1 X98.47 Y76.974
G0 F3600 X95.979 Y73.917
G1 F1800 X125.036 Y102.974 E153.59364
G0 F3600 X124.991 Y102.363
G1 F1800 X95.361 Y72.734 E155.68416
G0 F3600 X95.65 Y72.457
G1 F1800 X124.945 Y101.752 E157.75108
G0 F3600 X124.9 Y101.141
G1 F1800 X95.938 Y72.18 E159.79447
G0 F3600 X96.226 Y71.902
G1 F1800 X124.855 Y100.53 E161.81437
G0 F3600 X124.81 Y99.919
G1 F1800 X96.515 Y71.624 E163.81073
G0 F3600 X96.803 Y71.347
G1 F1800 X124.764 Y99.308 E165.78353
G0 F3600 X124.641 Y98.619
G1 F1800 X97.092 Y71.07 E167.72726
G0 F3600 X97.379 Y70.792
G1 F1800 X124.515 Y97.927 E169.64182
G0 F3600 X124.388 Y97.235
G1 F1800 X97.668 Y70.515 E171.52706
G0 F3600 X97.956 Y70.238
G1 F1800 X124.261 Y96.543 E173.38302
G0 F3600 X124.136 Y95.851
G1 F1800 X98.244 Y69.96 E175.2098
G0 F3600 X98.533 Y69.683
G1 F1800 X124.009 Y95.159 E177.00727
G0 F3600 X123.882 Y94.467
G1 F1800 X98.821 Y69.406 E178.77546
G0 F3600 X99.109 Y69.128
G1 F1800 X123.757 Y93.775 E180.51448
G0 F3600 X123.63 Y93.083
G1 F1800 X99.398 Y68.85 E182.22421
G0 F3600 X99.686 Y68.573
G1 F1800 X123.504 Y92.391 E183.9047
G0 F3600 X123.313 Y91.635
G1 F1800 X99.974 Y68.296 E185.55139
G0 F3600 X100.262 Y68.018
